;FLAVOR:Marlin
;TIME:6542
;Filament used: 3.83603m
;Layer height: 0.2
;MINX:73.467
;MINY:91.252
;MINZ:0.2
;MAXX:140.037
;MAXY:128.746
;MAXZ:48
;Generated with Cura_SteamEngine 4.2.1
M140 S60
M105
M190 S60
M104 S210
M105
M109 S210
M82 ;absolute extrusion mode
M201 X500.00 Y500.00 Z100.00 E5000.00 ;Setup machine max acceleration
M203 X500.00 Y500.00 Z10.00 E50.00 ;Setup machine max feedrate
M204 P500.00 R1000.00 T500.00 ;Setup Print/Retract/Travel acceleration
M205 X8.00 Y8.00 Z0.40 E5.00 ;Setup Jerk
M220 S100 ;Reset Feedrate
M221 S100 ;Reset Flowrate

G28 ;Home

G92 E0 ;Reset Extruder
G1 Z2.0 F3000 ;Move Z Axis up
G1 X10.1 Y20 Z0.28 F5000.0 ;Move to start position
G1 X10.1 Y200.0 Z0.28 F1500.0 E15 ;Draw the first line
G1 X10.4 Y200.0 Z0.28 F5000.0 ;Move to side a little
G1 X10.4 Y20 Z0.28 F1500.0 E30 ;Draw the second line
G92 E0 ;Reset Extruder
G1 Z2.0 F3000 ;Move Z Axis up

M141 S28
G92 E0
G92 E0
G1 F3000 E-5
;LAYER_COUNT:240
;LAYER:0
M107
G0 F6000 X77.971 Y95.531 Z0.2
;TYPE:SKIRT
G1 F3000 E0
G1 F1200 X79.032 Y94.745 E0.04831
G1 X79.2 Y94.636 E0.05564
G1 X80.379 Y93.974 E0.10511
G1 X80.566 Y93.884 E0.1127
G1 X81.415 Y93.52 E0.14649
G1 X82.415 Y93.196 E0.18495
G1 X82.838 Y93.082 E0.20098
G1 X83.739 Y92.881 E0.23476
G1 X84.672 Y92.757 E0.26919
G1 X85.203 Y92.71 E0.28869
G1 X85.509 Y92.687 E0.29992
G1 X108.72 Y91.303 E1.15063
G1 X108.865 Y91.295 E1.15594
G1 X109.583 Y91.262 E1.18224
G1 X110.211 Y91.252 E1.20522
G1 X110.595 Y91.257 E1.21927
G1 X110.876 Y91.264 E1.22955
G1 X111.282 Y91.28 E1.24442
G1 X111.551 Y91.294 E1.25427
G1 X111.906 Y91.317 E1.26729
G1 X112.229 Y91.343 E1.27914
G1 X112.701 Y91.388 E1.29649
G1 X113.214 Y91.45 E1.3154
G1 X113.795 Y91.534 E1.33687
G1 X114.092 Y91.581 E1.34788
G1 X114.951 Y91.73 E1.37977
G1 X115.263 Y91.789 E1.39139
G1 X115.493 Y91.836 E1.39998
G1 X115.975 Y91.946 E1.41807
G1 X116.532 Y92.087 E1.43909
G1 X116.766 Y92.149 E1.44794
G1 X117.112 Y92.245 E1.46108
G1 X117.73 Y92.437 E1.48476
G1 X118.852 Y92.823 E1.52817
G1 X119.552 Y93.091 E1.55559
G1 X120.569 Y93.523 E1.59602
G1 X121.249 Y93.841 E1.62348
G1 X122.048 Y94.249 E1.6563
G1 X122.585 Y94.543 E1.6787
G1 X123.376 Y95.006 E1.71224
G1 X123.946 Y95.364 E1.73686
G1 X124.684 Y95.861 E1.76941
G1 X125.026 Y96.102 E1.78472
G1 X125.347 Y96.337 E1.79928
G1 X125.584 Y96.515 E1.81012
G1 X125.856 Y96.726 E1.82272
G1 X126.178 Y96.987 E1.83788
G1 X126.653 Y97.386 E1.86058
G1 X126.928 Y97.624 E1.87388
G1 X127.398 Y98.047 E1.89702
G1 X127.892 Y98.522 E1.92209
G1 X128.611 Y99.258 E1.95973
G1 X129.048 Y99.733 E1.98335
G1 X129.734 Y100.526 E2.02171
G1 X130.185 Y101.084 E2.04796
G1 X130.638 Y101.685 E2.07549
G1 X130.846 Y101.97 E2.0884
G1 X131.104 Y102.337 E2.10482
G1 X131.303 Y102.631 E2.1178
G1 X131.623 Y103.12 E2.13919
G1 X131.828 Y103.447 E2.15331
G1 X131.953 Y103.654 E2.16215
G1 X132.152 Y103.997 E2.17666
G1 X132.29 Y104.246 E2.18708
G1 X132.801 Y105.302 E2.23
G1 X132.88 Y105.491 E2.23749
G1 X133.199 Y106.357 E2.27126
G1 X133.42 Y107.155 E2.30155
G1 X133.47 Y107.367 E2.30952
G1 X133.643 Y108.274 E2.3433
G1 X133.737 Y109.192 E2.37706
G1 X133.755 Y109.814 E2.39983
G1 X133.755 Y110.103 E2.4104
G1 X133.715 Y111.025 E2.44417
G1 X133.559 Y112.135 E2.48518
G1 X133.492 Y112.48 E2.49803
G1 X133.277 Y113.378 E2.53182
G1 X132.985 Y114.254 E2.5656
G1 X132.619 Y115.101 E2.59936
G1 X132.363 Y115.594 E2.61968
G1 X132.035 Y116.189 E2.64454
G1 X131.719 Y116.726 E2.66734
G1 X131.518 Y117.045 E2.68113
G1 X131.26 Y117.435 E2.69824
G1 X130.928 Y117.914 E2.71956
G1 X130.732 Y118.188 E2.73189
G1 X130.3 Y118.771 E2.75843
G1 X129.921 Y119.252 E2.78084
G1 X129.514 Y119.74 E2.80409
G1 X129.301 Y119.987 E2.81602
G1 X128.852 Y120.493 E2.84077
G1 X128.522 Y120.849 E2.85853
G1 X128.135 Y121.247 E2.87884
G1 X127.808 Y121.569 E2.89563
G1 X127.542 Y121.82 E2.90901
G1 X127.23 Y122.103 E2.92442
G1 X126.467 Y122.768 E2.96145
G1 X126.204 Y122.99 E2.97404
G1 X125.921 Y123.221 E2.98741
G1 X125.66 Y123.427 E2.99957
G1 X125.404 Y123.623 E3.01137
G1 X125.053 Y123.881 E3.02731
G1 X124.599 Y124.2 E3.04761
G1 X124.319 Y124.39 E3.05999
G1 X123.775 Y124.747 E3.08379
G1 X123.21 Y125.093 E3.10803
G1 X122.299 Y125.613 E3.14641
G1 X121.972 Y125.792 E3.16005
G1 X121.557 Y126.01 E3.1772
G1 X121.032 Y126.268 E3.1986
G1 X120.496 Y126.513 E3.22016
G1 X120.231 Y126.63 E3.23076
G1 X119.647 Y126.878 E3.25397
G1 X119.093 Y127.095 E3.27574
G1 X118.51 Y127.305 E3.29841
G1 X118.192 Y127.414 E3.31071
G1 X117.992 Y127.479 E3.31841
G1 X117.661 Y127.581 E3.33108
G1 X116.59 Y127.891 E3.37187
G1 X115.983 Y128.047 E3.3948
G1 X115.295 Y128.203 E3.42061
G1 X114.917 Y128.282 E3.43474
G1 X114.573 Y128.347 E3.44755
G1 X114.271 Y128.399 E3.45876
G1 X114.001 Y128.442 E3.46876
G1 X113.75 Y128.479 E3.47804
G1 X113.513 Y128.511 E3.48679
G1 X113.297 Y128.538 E3.49476
G1 X112.588 Y128.619 E3.52087
G1 X111.922 Y128.674 E3.54532
G1 X110.963 Y128.723 E3.58045
G1 X110.617 Y128.735 E3.59311
G1 X110.026 Y128.746 E3.61474
G1 X109.613 Y128.746 E3.62985
G1 X109.166 Y128.737 E3.64621
G1 X108.835 Y128.725 E3.65833
G1 X108.035 Y128.684 E3.68763
G1 X107.932 Y128.678 E3.69141
G1 X85.737 Y127.325 E4.50494
G1 X85.576 Y127.314 E4.51085
G1 X84.854 Y127.259 E4.53734
G1 X83.879 Y127.14 E4.57328
G1 X83.667 Y127.104 E4.58114
G1 X82.765 Y126.91 E4.6149
G1 X82.254 Y126.763 E4.63435
G1 X82.006 Y126.685 E4.64386
G1 X81.138 Y126.37 E4.67765
G1 X80.407 Y126.036 E4.70705
G1 X80.147 Y125.905 E4.7177
G1 X79.342 Y125.454 E4.75146
G1 X78.744 Y125.056 E4.77774
G1 X78.551 Y124.918 E4.78642
G1 X77.824 Y124.349 E4.8202
G1 X77.375 Y123.943 E4.84235
G1 X77.207 Y123.782 E4.85086
G1 X76.569 Y123.115 E4.88463
G1 X76.159 Y122.618 E4.9082
G1 X76.014 Y122.431 E4.91686
G1 X75.48 Y121.678 E4.95063
G1 X75.031 Y120.914 E4.98305
G1 X74.878 Y120.627 E4.99495
G1 X74.48 Y119.794 E5.02873
G1 X74.052 Y118.598 E5.0752
G1 X73.935 Y118.197 E5.09049
G1 X73.715 Y117.3 E5.12428
G1 X73.573 Y116.388 E5.15805
G1 X73.531 Y115.916 E5.17538
G1 X73.495 Y115.373 E5.19529
G1 X73.472 Y114.765 E5.21755
G1 X73.467 Y114.216 E5.23764
G1 X73.467 Y114.111 E5.24148
G1 X73.473 Y105.682 E5.54987
G1 X73.474 Y105.52 E5.55579
G1 X73.482 Y105.017 E5.5742
G1 X73.513 Y104.357 E5.59837
G1 X73.544 Y103.96 E5.61294
G1 X73.656 Y103.044 E5.6467
G1 X73.864 Y102.074 E5.683
G1 X73.957 Y101.721 E5.69635
G1 X74.23 Y100.839 E5.73013
G1 X74.631 Y99.874 E5.76837
G1 X74.73 Y99.665 E5.77683
G1 X75.161 Y98.848 E5.81062
G1 X75.494 Y98.315 E5.83362
G1 X75.652 Y98.078 E5.84404
G1 X76.197 Y97.333 E5.87781
G1 X76.587 Y96.873 E5.89987
G1 X76.735 Y96.708 E5.90798
G1 X77.38 Y96.048 E5.94174
G1 X77.807 Y95.669 E5.96263
G1 X77.971 Y95.531 E5.97047
G0 F6000 X78.254 Y95.868
G1 F1200 X79.271 Y95.114 E6.01679
G1 X79.439 Y95.005 E6.02412
G1 X80.57 Y94.37 E6.07157
G1 X80.757 Y94.28 E6.07917
G1 X81.588 Y93.924 E6.11224
G1 X82.53 Y93.621 E6.14845
G1 X82.953 Y93.507 E6.16447
G1 X83.835 Y93.311 E6.19753
G1 X84.711 Y93.195 E6.22986
G1 X85.242 Y93.148 E6.24936
G1 X85.535 Y93.126 E6.26011
G1 X108.746 Y91.742 E7.11082
G1 X108.885 Y91.735 E7.11591
G1 X109.603 Y91.702 E7.14221
G1 X110.205 Y91.692 E7.16424
G1 X110.589 Y91.697 E7.17829
G1 X110.858 Y91.704 E7.18813
G1 X111.264 Y91.72 E7.203
G1 X111.523 Y91.733 E7.21249
G1 X111.878 Y91.756 E7.2255
G1 X112.187 Y91.781 E7.23684
G1 X112.659 Y91.826 E7.25419
G1 X113.151 Y91.885 E7.27232
G1 X113.732 Y91.969 E7.2938
G1 X114.017 Y92.014 E7.30435
G1 X114.876 Y92.163 E7.33625
G1 X115.175 Y92.22 E7.34739
G1 X115.405 Y92.267 E7.35598
G1 X115.867 Y92.373 E7.37332
G1 X116.424 Y92.514 E7.39434
G1 X116.648 Y92.573 E7.40281
G1 X116.994 Y92.669 E7.41595
G1 X117.587 Y92.853 E7.43867
G1 X118.709 Y93.239 E7.48208
G1 X119.38 Y93.496 E7.50837
G1 X120.397 Y93.928 E7.54879
G1 X121.049 Y94.233 E7.57513
G1 X121.848 Y94.641 E7.60795
G1 X122.363 Y94.923 E7.62943
G1 X123.154 Y95.386 E7.66297
G1 X123.7 Y95.729 E7.68656
G1 X124.438 Y96.226 E7.71911
G1 X124.766 Y96.457 E7.73379
G1 X125.087 Y96.692 E7.74834
G1 X125.314 Y96.863 E7.75874
G1 X125.586 Y97.074 E7.77133
G1 X125.895 Y97.323 E7.78585
G1 X126.37 Y97.722 E7.80855
G1 X126.634 Y97.952 E7.82136
G1 X127.104 Y98.375 E7.84449
G1 X127.578 Y98.829 E7.86851
G1 X128.297 Y99.565 E7.90615
G1 X128.715 Y100.021 E7.92878
G1 X129.401 Y100.814 E7.96714
G1 X129.833 Y101.348 E7.99227
G1 X130.286 Y101.949 E8.01981
G1 X130.486 Y102.223 E8.03222
G1 X130.744 Y102.59 E8.04863
G1 X130.935 Y102.872 E8.06109
G1 X131.255 Y103.361 E8.08247
G1 X131.452 Y103.674 E8.09601
G1 X131.577 Y103.881 E8.10485
G1 X131.767 Y104.21 E8.11875
G1 X131.905 Y104.459 E8.12917
G1 X132.395 Y105.472 E8.17034
G1 X132.474 Y105.661 E8.17783
G1 X132.786 Y106.509 E8.21089
G1 X132.992 Y107.256 E8.23924
G1 X133.042 Y107.468 E8.24721
G1 X133.21 Y108.356 E8.28027
G1 X133.3 Y109.256 E8.31337
G1 X133.315 Y109.814 E8.33379
G1 X133.315 Y110.103 E8.34436
G1 X133.275 Y111.006 E8.37743
G1 X133.128 Y112.051 E8.41604
G1 X133.061 Y112.396 E8.4289
G1 X132.849 Y113.275 E8.46198
G1 X132.561 Y114.132 E8.49506
G1 X132.198 Y114.96 E8.52813
G1 X131.978 Y115.382 E8.54555
G1 X131.65 Y115.977 E8.5704
G1 X131.347 Y116.491 E8.59223
G1 X131.146 Y116.81 E8.60603
G1 X130.899 Y117.184 E8.62242
G1 X130.567 Y117.663 E8.64375
G1 X130.378 Y117.926 E8.6556
G1 X129.946 Y118.509 E8.68214
G1 X129.584 Y118.97 E8.70359
G1 X129.177 Y119.458 E8.72684
G1 X128.972 Y119.695 E8.7383
G1 X128.523 Y120.201 E8.76305
G1 X128.206 Y120.543 E8.78011
G1 X127.819 Y120.941 E8.80042
G1 X127.506 Y121.249 E8.81649
G1 X127.24 Y121.5 E8.82987
G1 X126.941 Y121.771 E8.84463
G1 X126.178 Y122.436 E8.88166
G1 X125.926 Y122.649 E8.89373
G1 X125.643 Y122.88 E8.9071
G1 X125.393 Y123.078 E8.91877
G1 X125.137 Y123.274 E8.93056
G1 X124.8 Y123.521 E8.94585
G1 X124.346 Y123.84 E8.96615
G1 X124.077 Y124.022 E8.97803
G1 X123.533 Y124.379 E9.00184
G1 X122.992 Y124.711 E9.02506
G1 X122.081 Y125.231 E9.06344
G1 X121.768 Y125.403 E9.07651
G1 X121.353 Y125.621 E9.09366
G1 X120.849 Y125.868 E9.11419
G1 X120.313 Y126.113 E9.13575
G1 X120.059 Y126.225 E9.14591
G1 X119.475 Y126.473 E9.16912
G1 X118.943 Y126.681 E9.19002
G1 X118.36 Y126.891 E9.21269
G1 X118.056 Y126.996 E9.22446
G1 X117.856 Y127.061 E9.23215
G1 X117.539 Y127.158 E9.24428
G1 X116.468 Y127.468 E9.28507
G1 X115.886 Y127.618 E9.30706
G1 X115.198 Y127.774 E9.33287
G1 X114.836 Y127.849 E9.3464
G1 X114.492 Y127.914 E9.35921
G1 X114.201 Y127.965 E9.37002
G1 X113.931 Y128.008 E9.38002
G1 X113.692 Y128.043 E9.38886
G1 X113.455 Y128.075 E9.39761
G1 X113.247 Y128.101 E9.40527
G1 X112.538 Y128.182 E9.43138
G1 X111.9 Y128.235 E9.45481
G1 X110.941 Y128.284 E9.48994
G1 X110.609 Y128.295 E9.50209
G1 X110.018 Y128.306 E9.52372
G1 X109.622 Y128.306 E9.53821
G1 X109.175 Y128.297 E9.55456
G1 X108.858 Y128.286 E9.56617
G1 X108.058 Y128.245 E9.59547
G1 X107.959 Y128.239 E9.5991
G1 X85.764 Y126.886 E10.41264
G1 X85.61 Y126.875 E10.41829
G1 X84.888 Y126.82 E10.44478
G1 X83.953 Y126.706 E10.47924
G1 X83.741 Y126.67 E10.48711
G1 X82.857 Y126.479 E10.5202
G1 X82.386 Y126.343 E10.53813
G1 X82.138 Y126.265 E10.54765
G1 X81.288 Y125.956 E10.58073
G1 X80.605 Y125.643 E10.60822
G1 X80.345 Y125.512 E10.61887
G1 X79.557 Y125.07 E10.65193
G1 X79 Y124.698 E10.67643
G1 X78.807 Y124.56 E10.68511
G1 X78.095 Y124.003 E10.71819
G1 X77.68 Y123.626 E10.7387
G1 X77.512 Y123.465 E10.74721
G1 X76.887 Y122.811 E10.78031
G1 X76.507 Y122.349 E10.8022
G1 X76.362 Y122.162 E10.81085
G1 X75.84 Y121.423 E10.84396
G1 X75.419 Y120.707 E10.87434
G1 X75.266 Y120.42 E10.88624
G1 X74.877 Y119.604 E10.91932
G1 X74.474 Y118.475 E10.96318
G1 X74.357 Y118.074 E10.97846
G1 X74.143 Y117.195 E11.01156
G1 X73.97 Y115.887 E11.05983
G1 X73.934 Y115.344 E11.07974
G1 X73.912 Y114.761 E11.10108
G1 X73.907 Y114.212 E11.12117
G1 X73.907 Y114.112 E11.12483
G1 X73.913 Y105.683 E11.43321
G1 X73.914 Y105.527 E11.43892
G1 X73.922 Y105.024 E11.45733
G1 X73.952 Y104.391 E11.48051
G1 X73.983 Y103.994 E11.49508
G1 X74.093 Y103.097 E11.52814
G1 X74.289 Y102.186 E11.56224
G1 X74.382 Y101.833 E11.57559
G1 X74.651 Y100.97 E11.60866
G1 X75.029 Y100.062 E11.64465
G1 X75.128 Y99.853 E11.65311
G1 X75.551 Y99.054 E11.68618
G1 X75.86 Y98.559 E11.70753
G1 X76.018 Y98.322 E11.71795
G1 X76.553 Y97.593 E11.75104
G1 X76.914 Y97.167 E11.77147
G1 X77.062 Y97.002 E11.77958
G1 X77.695 Y96.356 E11.81267
G1 X78.09 Y96.006 E11.83197
G1 X78.254 Y95.868 E11.83982
G1 F3000 E6.83982
;MESH:3DBenchy.stl
G0 F6000 X83.664 Y115.876
G0 X84.084 Y116.541
G0 X84.642 Y116.989
G0 X85.393 Y117.274
G0 X109.759 Y118.761
G0 X109.832 Y116.996
;TYPE:WALL-INNER
G1 F3000 E11.83982
G1 F1200 X109.049 Y116.963 E11.86849
G1 X85.733 Y115.539 E12.72312
G1 X85.596 Y115.499 E12.72834
G1 X85.533 Y115.466 E12.73094
G1 X85.472 Y115.427 E12.73359
G1 X85.401 Y115.36 E12.73717
G1 X85.331 Y115.265 E12.74148
G1 X85.274 Y115.149 E12.74621
G1 X85.259 Y115.096 E12.74823
G1 X85.239 Y114.995 E12.75199
G1 X85.228 Y114.891 E12.75582
G1 X85.226 Y114.819 E12.75845
G1 X85.227 Y114.631 E12.76533
G1 X85.227 Y113.676 E12.80027
G1 X85.227 Y113.484 E12.8073
G1 X85.228 Y113.292 E12.81432
G1 X85.461 Y113.484 E12.81933
G1 X85.621 Y113.59 E12.8249
G1 X85.737 Y113.668 E12.83002
G1 X86.016 Y113.815 E12.84155
G1 X86.178 Y113.887 E12.84804
G1 X86.333 Y113.946 E12.85411
G1 X86.497 Y114.001 E12.86044
G1 X86.743 Y114.066 E12.86974
G1 X87.034 Y114.118 E12.88056
G1 X87.217 Y114.137 E12.88729
G1 X87.402 Y114.151 E12.89408
G1 X87.736 Y114.154 E12.9063
G1 X87.927 Y114.145 E12.91329
G1 X88.239 Y114.11 E12.92478
G1 X88.531 Y114.05 E12.93569
G1 X88.693 Y114.005 E12.94184
G1 X88.858 Y113.951 E12.94819
G1 X89.132 Y113.833 E12.95911
G1 X89.4 Y113.681 E12.97038
G1 X89.631 Y113.51 E12.98089
G1 X89.771 Y113.388 E12.98769
G1 X89.959 Y113.187 E12.99776
G1 X90.075 Y113.04 E13.00461
G1 X90.232 Y112.794 E13.01528
G1 X90.349 Y112.542 E13.02545
G1 X90.424 Y112.334 E13.03354
G1 X90.478 Y112.042 E13.0444
G1 X90.45 Y111.735 E13.05568
G1 X90.375 Y111.467 E13.06586
G1 X90.259 Y111.232 E13.07545
G1 X90.091 Y111.002 E13.08587
G1 X89.872 Y110.805 E13.09665
G1 X89.696 Y110.684 E13.10446
G1 X89.447 Y110.563 E13.11459
G1 X89.276 Y110.507 E13.12117
G1 X89.097 Y110.464 E13.12791
G1 X88.855 Y110.441 E13.1368
G1 X88.676 Y110.441 E13.14335
G1 X88.492 Y110.465 E13.15014
G1 X88.326 Y110.505 E13.15639
G1 X88.113 Y110.582 E13.16467
G1 X87.897 Y110.708 E13.17382
G1 X87.717 Y110.849 E13.18219
G1 X87.703 Y110.86 E13.18284
G1 X87.623 Y110.956 E13.18741
G1 X87.539 Y110.961 E13.19049
G1 X87.456 Y110.947 E13.19357
G1 X87.395 Y110.922 E13.19598
G1 X87.333 Y110.874 E13.19885
G1 X87.293 Y110.815 E13.20146
G1 X87.287 Y110.799 E13.20208
G1 X87.251 Y110.709 E13.20563
G1 X87.205 Y110.524 E13.21261
G1 X87.169 Y110.216 E13.22395
G1 X87.18 Y109.581 E13.24719
G1 X87.197 Y109.445 E13.2522
G1 X87.225 Y109.31 E13.25724
G1 X87.241 Y109.26 E13.25917
G1 X87.26 Y109.196 E13.26161
G1 X87.284 Y109.139 E13.26387
G1 X87.314 Y109.084 E13.26616
G1 X87.37 Y109.021 E13.26925
G1 X87.432 Y108.99 E13.27178
G1 X87.51 Y108.973 E13.2747
G1 X87.567 Y109.007 E13.27713
G1 X87.989 Y109.26 E13.29513
G1 X88.248 Y109.377 E13.30553
G1 X88.527 Y109.464 E13.31622
G1 X88.797 Y109.497 E13.32618
G1 X89.044 Y109.497 E13.33521
G1 X89.317 Y109.439 E13.34542
G1 X89.528 Y109.357 E13.35371
G1 X89.716 Y109.247 E13.36167
G1 X89.858 Y109.14 E13.36818
G1 X90 Y109.006 E13.37532
G1 X90.055 Y108.937 E13.37855
G1 X90.252 Y109.032 E13.38655
G1 X90.495 Y109.112 E13.39591
G1 X90.821 Y109.143 E13.40789
G1 X90.991 Y109.142 E13.41411
G1 X91.185 Y109.122 E13.42125
G1 X91.185 Y109.141
G1 X91.199 Y111.944 E13.5238
G1 X91.16 Y112.431 E13.54167
G1 X91.16 Y112.6 E13.54786
G1 X91.178 Y112.758 E13.55368
G1 X91.22 Y112.972 E13.56165
G1 X91.325 Y113.224 E13.57164
G1 X91.472 Y113.451 E13.58154
G1 X91.671 Y113.65 E13.59183
G1 X91.885 Y113.799 E13.60137
G1 X92.153 Y113.918 E13.6121
G1 X92.341 Y113.969 E13.61923
G1 X92.524 Y114 E13.62602
G1 X92.786 Y114.012 E13.63562
G1 X92.997 Y113.995 E13.64336
G1 X93.274 Y113.926 E13.6538
G1 X93.515 Y113.821 E13.66342
G1 X93.737 Y113.673 E13.67318
G1 X93.947 Y113.465 E13.684
G1 X94.113 Y113.222 E13.69476
G1 X94.204 Y113.03 E13.70254
G1 X94.278 Y112.797 E13.71148
G1 X94.318 Y112.618 E13.71819
G1 X94.345 Y112.344 E13.72827
G1 X94.345 Y112.066 E13.73844
G1 X94.326 Y111.496 E13.7593
G1 X94.33 Y109.109 E13.84663
G1 X94.474 Y109.108 E13.8519
G1 X94.808 Y109.083 E13.86416
G1 X95.077 Y109.036 E13.87415
G1 X95.337 Y108.95 E13.88417
G1 X95.544 Y108.843 E13.89269
G1 X95.562 Y108.83 E13.8935
G1 X95.577 Y108.819 E13.89418
G1 X95.626 Y108.875 E13.89691
G1 X95.775 Y109.006 E13.90417
G1 X95.906 Y109.094 E13.90994
G1 X95.9 Y109.111 E13.9106
G1 X95.862 Y109.213 E13.91458
G1 X95.8 Y109.484 E13.92475
G1 X95.779 Y109.769 E13.93521
G1 X95.796 Y109.972 E13.94266
G1 X95.842 Y110.197 E13.95106
G1 X95.942 Y110.445 E13.96085
G1 X96.082 Y110.659 E13.9702
G1 X96.104 Y110.692 E13.97165
G1 X96.077 Y110.701
G1 X96.066 Y110.706
G1 X95.871 Y110.798 E13.9768
G1 X95.662 Y110.936 E13.98596
G1 X95.486 Y111.111 E13.99504
G1 X95.319 Y111.321 E14.00486
G1 X95.202 Y111.583 E14.01535
G1 X95.142 Y111.779 E14.02285
G1 X95.106 Y112.03 E14.03213
G1 X95.098 Y112.25 E14.04018
G1 X95.144 Y112.563 E14.05176
G1 X95.236 Y112.855 E14.06296
G1 X95.362 Y113.102 E14.0731
G1 X95.46 Y113.246 E14.07948
G1 X95.557 Y113.364 E14.08506
G1 X95.667 Y113.48 E14.09091
G1 X95.809 Y113.603 E14.09779
G1 X96.018 Y113.745 E14.10703
G1 X96.155 Y113.822 E14.11278
G1 X96.296 Y113.89 E14.11851
G1 X96.437 Y113.947 E14.12407
G1 X96.592 Y114 E14.13007
G1 X96.832 Y114.062 E14.13913
G1 X97.004 Y114.098 E14.14556
G1 X97.179 Y114.125 E14.15204
G1 X97.488 Y114.152 E14.16339
G1 X97.833 Y114.157 E14.17601
G1 X98.169 Y114.137 E14.18833
G1 X98.461 Y114.091 E14.19914
G1 X98.64 Y114.053 E14.20584
G1 X98.909 Y113.967 E14.21617
G1 X99.082 Y113.899 E14.22297
G1 X99.342 Y113.767 E14.23364
G1 X99.492 Y113.675 E14.24008
G1 X99.635 Y113.575 E14.24646
G1 X99.845 Y113.4 E14.25646
G1 X99.864 Y113.385 E14.25735
G1 X100.046 Y113.197 E14.26692
G1 X100.083 Y113.159 E14.26886
G1 X100.109 Y113.125 E14.27043
G1 X100.155 Y113.066 E14.27317
G1 X100.177 Y113.115 E14.27325
G1 X100.222 Y113.212 E14.27492
G1 X100.234 Y113.233 E14.27581
G1 X100.329 Y113.397 E14.28274
G1 X100.363 Y113.438 E14.28453
G1 X100.491 Y113.592 E14.29185
G1 X100.688 Y113.762 E14.30137
G1 X100.922 Y113.892 E14.31117
G1 X101.189 Y113.986 E14.32152
G1 X101.525 Y114.017 E14.33387
G1 X101.703 Y114.015 E14.34038
G1 X102.059 Y113.98 E14.35347
G1 X102.234 Y113.973 E14.35988
G1 X103.065 Y113.979 E14.39028
G1 X103.558 Y113.944 E14.40836
G1 X103.754 Y113.916 E14.41561
G1 X104.065 Y113.858 E14.42718
G1 X104.352 Y113.781 E14.43805
G1 X104.512 Y113.726 E14.44424
G1 X104.676 Y113.658 E14.45074
G1 X104.93 Y113.53 E14.46114
G1 X104.996 Y113.491 E14.46395
G1 X105.058 Y113.587 E14.46813
G1 X105.172 Y113.731 E14.47485
G1 X105.313 Y113.883 E14.48243
G1 X105.562 Y114.086 E14.49419
G1 X105.762 Y114.211 E14.50282
G1 X106.061 Y114.345 E14.5148
G1 X106.264 Y114.405 E14.52255
G1 X106.443 Y114.44 E14.52922
G1 X106.629 Y114.462 E14.53607
G1 X106.816 Y114.464 E14.54292
G1 X106.995 Y114.453 E14.54948
G1 X107.186 Y114.425 E14.55654
G1 X107.362 Y114.378 E14.5632
G1 X107.539 Y114.32 E14.57002
G1 X107.713 Y114.24 E14.57703
G1 X107.865 Y114.156 E14.58338
G1 X108.024 Y114.049 E14.59039
G1 X108.179 Y113.92 E14.59777
G1 X108.437 Y114.062 E14.60854
G1 X108.679 Y114.138 E14.61782
G1 X108.907 Y114.182 E14.62632
G1 X109.202 Y114.182 E14.63711
G1 X109.493 Y114.116 E14.64803
G1 X109.736 Y114.006 E14.65779
G1 X109.906 Y113.893 E14.66526
G1 X110.046 Y113.779 E14.67186
G1 X110.101 Y113.72 E14.67481
G1 X110.201 Y113.82 E14.67999
G1 X110.376 Y113.956 E14.6881
G1 X110.597 Y114.075 E14.69728
G1 X110.819 Y114.152 E14.70588
G1 X110.976 Y114.182 E14.71172
G1 X111.023 Y114.191 E14.71347
G1 X111.288 Y114.206 E14.72319
G1 X111.301 Y114.205 E14.72366
G1 X111.446 Y114.184 E14.72902
G1 X111.395 Y114.269 E14.72911
G1 X111.327 Y114.382 E14.73076
G1 X111.31 Y114.426 E14.73249
G1 X111.219 Y114.656 E14.74154
G1 X111.182 Y115.023 E14.75503
G1 X111.195 Y115.25 E14.76335
G1 X111.258 Y115.535 E14.77403
G1 X111.361 Y115.796 E14.7843
G1 X111.461 Y115.979 E14.79193
G1 X111.615 Y116.184 E14.80131
G1 X111.794 Y116.367 E14.81067
G1 X111.894 Y116.433 E14.81506
G1 X112.024 Y116.518 E14.82074
G1 X112.189 Y116.597 E14.82743
G1 X112.351 Y116.655 E14.83373
G1 X112.439 Y116.675 E14.83703
G1 X112.551 Y116.702 E14.84124
G1 X112.801 Y116.718 E14.85041
G1 X112.564 Y116.766 E14.85096
G1 X112.411 Y116.797 E14.85287
G1 X112.37 Y116.802
G1 X112.218 Y116.821 E14.85614
G1 X112.066 Y116.84 E14.86053
G1 X111.912 Y116.859 E14.8655
G1 X111.199 Y116.951 E14.8918
G1 X109.832 Y116.996 E14.94184
G1 F3000 E9.94184
G0 F6000 X109.888 Y118.76
G0 X111.331 Y118.713
G0 X112.566 Y118.556
G0 X114.553 Y118.099
G0 X114.122 Y116.381
G1 F3000 E14.94184
G1 F1200 X114.345 Y116.253 E14.95125
G1 X114.585 Y116.066 E14.96238
G1 X114.775 Y115.873 E14.97229
G1 X114.79 Y115.855 E14.97315
G1 X114.882 Y115.746 E14.97837
G1 X114.969 Y115.624 E14.98385
G1 X114.982 Y115.606 E14.98466
G1 X115.12 Y115.379 E14.99438
G1 X115.203 Y115.224 E15.00081
G1 X115.384 Y114.834 E15.01654
G1 X115.954 Y113.357 E15.07446
G1 X115.979 Y113.291 E15.07705
G1 X115.991 Y113.262 E15.0782
G1 X116.021 Y113.176 E15.08153
G1 X116.094 Y112.971 E15.08949
G1 X116.13 Y112.871 E15.09338
G1 X116.15 Y112.991 E15.09405
G1 X116.215 Y113.186 E15.09635
G1 X116.238 Y113.252 E15.09656
G1 X116.322 Y113.423 E15.10198
G1 X116.36 Y113.482 E15.10436
G1 X116.427 Y113.585 E15.10886
G1 X116.586 Y113.776 E15.11795
G1 X116.791 Y113.941 E15.12758
G1 X117.008 Y114.068 E15.13677
G1 X117.247 Y114.148 E15.146
G1 X117.472 Y114.194 E15.1544
G1 X117.643 Y114.199 E15.16066
G1 X117.799 Y114.202 E15.16637
G1 X118.41 Y114.174 E15.18874
G1 X117.996 Y114.473 E15.19523
G1 X117.87 Y114.564 E15.20027
G1 X117.749 Y114.651 E15.20573
G1 X117.096 Y115.064 E15.23399
G1 X116.148 Y115.578 E15.27345
G1 X115.18 Y116.005 E15.31215
G1 X115.042 Y116.066 E15.3171
G1 X114.996 Y116.081 E15.31802
G1 X114.861 Y116.127 E15.32138
G1 X114.633 Y116.205 E15.32536
G1 X114.361 Y116.299 E15.32755
G1 X114.122 Y116.381 E15.328
G0 F6000 X112.5 Y113.572
G1 F1200 X112.53 Y113.534 E15.32978
G1 X112.547 Y113.512 E15.33079
G1 X112.644 Y113.334 E15.33821
G1 X112.574 Y113.522 E15.33841
G1 X112.568 Y113.537 E15.33854
G1 X112.559 Y113.556
G1 X112.5 Y113.572
G0 F6000 X112.719 Y113.131
G1 F1200 X112.738 Y113.066 E15.34102
G1 X112.755 Y113.012 E15.34309
G1 X112.786 Y112.816 E15.35035
G1 X112.789 Y112.701 E15.35456
G1 X112.795 Y112.545 E15.36027
G1 X112.786 Y112.461 E15.36336
G1 X112.781 Y112.42 E15.36487
G1 X112.798 Y112.46 E15.36495
G1 X112.829 Y112.528
G1 X112.912 Y112.705 E15.36699
G1 X112.847 Y112.844 E15.36882
G1 X112.766 Y113.018 E15.36938
G1 X112.743 Y113.067 E15.36938
G1 X112.719 Y113.131 E15.36942
G0 F6000 X112.449 Y111.544
G1 F1200 X112.306 Y111.321 E15.37911
G1 X112.037 Y110.846 E15.39908
G1 X111.945 Y110.695 E15.40555
G1 X112.026 Y110.558 E15.41137
G1 X112.059 Y110.503 E15.41372
G1 X112.098 Y110.599 E15.41437
G1 X112.11 Y110.633
G1 X112.17 Y110.796 E15.41664
G1 X112.358 Y111.301 E15.42099
G1 X112.449 Y111.544 E15.42153
G0 F6000 X108.254 Y110.883
G1 F1200 X108.228 Y110.857 E15.42287
G1 X108.171 Y110.801 E15.4258
G1 X108.024 Y110.678 E15.43281
G1 X107.872 Y110.579 E15.43944
G1 X107.714 Y110.487 E15.44613
G1 X107.678 Y110.471 E15.44758
G1 X107.531 Y110.407 E15.45344
G1 X107.364 Y110.351 E15.45989
G1 X107.185 Y110.304 E15.46666
G1 X106.995 Y110.276 E15.47368
G1 X106.816 Y110.265 E15.48024
G1 X106.709 Y110.266 E15.48416
G1 X106.713 Y109.596 E15.50867
G1 X106.661 Y109.084 E15.5275
G1 X106.595 Y108.722 E15.54096
G1 X106.506 Y108.387 E15.55364
G1 X106.394 Y108.067 E15.56605
G1 X106.255 Y107.763 E15.57828
G1 X106.095 Y107.479 E15.5902
G1 X105.902 Y107.2 E15.60262
G1 X105.614 Y106.876 E15.61848
G1 X105.402 Y106.684 E15.62894
G1 X105.171 Y106.515 E15.63941
G1 X105.029 Y106.426 E15.64554
G1 X104.888 Y106.348 E15.65144
G1 X104.734 Y106.275 E15.65767
G1 X104.48 Y106.18 E15.6676
G1 X104.311 Y106.126 E15.67409
G1 X104.001 Y106.055 E15.68572
G1 X103.667 Y106.002 E15.69809
G1 X103.411 Y105.973 E15.70752
G1 X102.997 Y105.95 E15.72269
G1 X101.636 Y105.935 E15.77249
G1 X101.379 Y105.96 E15.78193
G1 X101.091 Y106.022 E15.79271
G1 X100.844 Y106.122 E15.80246
G1 X100.673 Y106.214 E15.80957
G1 X100.473 Y106.364 E15.81871
G1 X100.284 Y106.561 E15.8287
G1 X100.195 Y106.712 E15.83511
G1 X100.165 Y106.763 E15.83728
G1 X100.141 Y106.803 E15.83898
G1 X100.071 Y106.709 E15.84064
G1 X99.946 Y106.566 E15.84541
G1 X99.745 Y106.382 E15.85537
G1 X99.594 Y106.265 E15.86236
G1 X99.352 Y106.119 E15.8727
G1 X99.195 Y106.043 E15.87909
G1 X99.045 Y105.98 E15.88504
G1 X98.883 Y105.925 E15.8913
G1 X98.631 Y105.86 E15.90082
G1 X98.443 Y105.823 E15.90783
G1 X98.105 Y105.783 E15.92028
G1 X97.774 Y105.771 E15.9324
G1 X97.571 Y105.772 E15.93983
G1 X97.171 Y105.81 E15.95453
G1 X96.733 Y105.901 E15.97089
G1 X96.428 Y106.008 E15.98272
G1 X96.152 Y106.137 E15.99387
G1 X95.9 Y106.287 E16.00459
G1 X95.808 Y106.359 E16.00887
G1 X95.764 Y106.31 E16.01128
G1 X95.54 Y106.152 E16.02131
G1 X95.316 Y106.042 E16.03044
G1 X95.057 Y105.974 E16.04023
G1 X94.798 Y105.943 E16.04978
G1 X94.554 Y105.942 E16.0587
G1 X94.125 Y105.951 E16.0744
G1 X91.447 Y105.954 E16.17238
G1 X90.882 Y105.911 E16.19311
G1 X90.7 Y105.921 E16.19978
G1 X90.529 Y105.946 E16.2061
G1 X90.334 Y106.001 E16.21352
G1 X90.141 Y106.082 E16.22117
G1 X89.923 Y106.217 E16.23056
G1 X89.731 Y106.393 E16.24008
G1 X89.678 Y106.458 E16.24315
G1 X89.577 Y106.376 E16.24791
G1 X89.322 Y106.206 E16.25913
G1 X89.052 Y106.063 E16.2703
G1 X88.764 Y105.948 E16.28165
G1 X88.463 Y105.864 E16.29308
G1 X88.265 Y105.824 E16.30047
G1 X87.935 Y105.785 E16.31263
G1 X87.499 Y105.773 E16.32859
G1 X87.142 Y105.794 E16.34167
G1 X86.695 Y105.873 E16.35828
G1 X86.502 Y105.925 E16.36559
G1 X86.2 Y106.031 E16.3773
G1 X85.903 Y106.169 E16.38928
G1 X85.661 Y106.312 E16.39957
G1 X85.624 Y106.334 E16.40114
G1 X85.354 Y106.526 E16.41326
G1 X85.235 Y106.633 E16.41912
G1 X85.235 Y106.526 E16.41917
G1 X85.235 Y106.334 E16.42257
G1 X85.235 Y106.29 E16.4241
G1 X85.239 Y105.01 E16.47093
G1 X85.256 Y104.915 E16.47446
G1 X85.284 Y104.826 E16.47788
G1 X85.323 Y104.748 E16.48107
G1 X85.381 Y104.664 E16.4848
G1 X85.461 Y104.583 E16.48897
G1 X85.526 Y104.538 E16.49186
G1 X85.624 Y104.49 E16.49585
G1 X85.712 Y104.464 E16.49921
G1 X85.859 Y104.446 E16.50463
G1 X85.986 Y104.439 E16.50928
G1 X110.083 Y103.001 E17.39247
G1 X110.76 Y103.02 E17.41724
G1 X111.567 Y103.083 E17.44686
G1 X112.9 Y103.299 E17.49627
G1 X113.598 Y103.465 E17.52251
G1 X114.333 Y103.682 E17.55055
G1 X115.363 Y104.064 E17.59074
G1 X116.129 Y104.411 E17.62151
G1 X116.96 Y104.855 E17.65598
G1 X117.662 Y105.291 E17.68622
G1 X118.391 Y105.806 E17.71887
G1 X119.192 Y106.464 E17.7568
G1 X119.688 Y106.927 E17.78162
G1 X119.777 Y107.022 E17.78638
G1 X120.079 Y107.343 E17.80251
G1 X120.126 Y107.393 E17.80502
G1 X120.037 Y107.383 E17.80575
G1 X119.596 Y107.383 E17.81546
G1 X117.781 Y107.385 E17.88187
G1 X117.49 Y107.413 E17.89256
G1 X117.24 Y107.471 E17.90195
G1 X117.082 Y107.526 E17.90807
G1 X116.885 Y107.619 E17.91604
G1 X116.768 Y107.701 E17.92127
G1 X116.749 Y107.685 E17.92218
G1 X116.56 Y107.558 E17.93051
G1 X116.326 Y107.458 E17.93982
G1 X116.09 Y107.394 E17.94876
G1 X115.758 Y107.376 E17.96093
G1 X115.437 Y107.453 E17.97301
G1 X115.175 Y107.567 E17.98346
G1 X114.873 Y107.798 E17.99737
G1 X114.701 Y107.998 E18.00702
G1 X114.69 Y108.011 E18.00764
G1 X114.632 Y108.092 E18.01129
G1 X114.613 Y108.118 E18.01247
G1 X114.582 Y108.162 E18.01444
G1 X114.566 Y108.185 E18.01546
G1 X114.536 Y108.13 E18.0161
G1 X114.423 Y107.982 E18.02035
G1 X114.314 Y107.864 E18.0252
G1 X114.301 Y107.853 E18.02582
G1 X114.187 Y107.752 E18.03139
G1 X114.034 Y107.645 E18.03822
G1 X113.801 Y107.523 E18.04785
G1 X113.627 Y107.462 E18.05459
G1 X113.454 Y107.416 E18.06114
G1 X113.193 Y107.383 E18.07077
G1 X113.006 Y107.383 E18.07761
G1 X112.823 Y107.404 E18.08435
G1 X112.594 Y107.459 E18.09296
G1 X112.349 Y107.564 E18.10271
G1 X112.14 Y107.711 E18.11206
G1 X111.986 Y107.595 E18.11912
G1 X111.762 Y107.486 E18.12823
G1 X111.521 Y107.405 E18.13753
G1 X111.236 Y107.379 E18.148
G1 X110.975 Y107.398 E18.15758
G1 X110.717 Y107.473 E18.16741
G1 X110.509 Y107.568 E18.17577
G1 X110.276 Y107.721 E18.18597
G1 X110.185 Y107.803 E18.19045
G1 X110.088 Y107.717 E18.1952
G1 X109.87 Y107.572 E18.20478
G1 X109.644 Y107.465 E18.21392
G1 X109.401 Y107.404 E18.22309
G1 X109.182 Y107.377 E18.23116
G1 X108.963 Y107.387 E18.23918
G1 X108.682 Y107.442 E18.24966
G1 X108.478 Y107.517 E18.25761
G1 X108.241 Y107.645 E18.26747
G1 X108.065 Y107.78 E18.27558
G1 X107.904 Y107.948 E18.28409
G1 X107.75 Y108.156 E18.29356
G1 X107.643 Y108.408 E18.30358
G1 X107.574 Y108.668 E18.31342
G1 X107.57 Y109.046 E18.32725
G1 X107.628 Y109.349 E18.33854
G1 X107.722 Y109.621 E18.34907
G1 X107.842 Y109.873 E18.35928
G1 X107.919 Y110.013 E18.36512
G1 X108.053 Y110.246 E18.37496
G1 X108.072 Y110.28 E18.37592
G1 X108.152 Y110.418 E18.38015
G1 X108.232 Y110.557 E18.38357
G1 X108.323 Y110.714 E18.38665
G1 X108.34 Y110.743
G1 X108.283 Y110.836 E18.38864
G1 X108.268 Y110.86
G1 X108.254 Y110.883
G1 F3000 E13.38864
G0 F6000 X110.222 Y111.014
G0 X118.018 Y112.14
G0 X116.862 Y110.804
G1 F3000 E18.38864
G1 F1200 X116.887 Y110.735 E18.39133
G1 X117.004 Y110.384 E18.40487
G1 X117.019 Y110.39
G1 X117.131 Y110.433 E18.40533
G1 X117.112 Y110.46
G1 X116.904 Y110.746 E18.40742
G1 X116.862 Y110.804
G1 F3000 E13.40742
G0 F6000 X118.043 Y112.144
G0 X118.098 Y112.146
G0 X122.467 Y112.434
G0 X122.554 Y112.441
G0 X121.123 Y111.41
G1 F3000 E18.40742
G1 F1200 X121.112 Y111.399 E18.40799
G1 X120.93 Y111.273 E18.41609
G1 X120.909 Y111.259 E18.41701
G1 X120.714 Y111.162 E18.42498
G1 X120.547 Y111.099 E18.43151
G1 X120.573 Y111.062
G1 X120.592 Y111.036
G1 X120.607 Y111.015 E18.43242
G1 X121.18 Y110.204 E18.46875
G1 X121.272 Y110.053 E18.47522
G1 X121.39 Y109.82 E18.48477
G1 X121.462 Y109.625 E18.49238
G1 X121.495 Y109.536 E18.49585
G1 X121.546 Y109.217 E18.50767
G1 X121.552 Y109.182 E18.50897
G1 X121.579 Y109.222
G1 X121.696 Y109.409 E18.51055
G1 X121.834 Y109.628 E18.51845
G1 X121.881 Y109.71 E18.52159
G1 X122 Y109.92 E18.53042
G1 X122.01 Y109.955 E18.53176
G1 X122.012 Y110.034 E18.53465
G1 X121.997 Y110.087 E18.53666
G1 X121.578 Y110.777 E18.5662
G1 X121.123 Y111.41 E18.59472
G1 F3000 E13.59472
G0 F6000 X122.255 Y112.855
G0 X121.122 Y114.138
G0 X119.584 Y115.502
G0 X117.989 Y116.587
G0 X116.929 Y117.163
G0 X115.689 Y117.71
G0 X114.553 Y118.099
G0 X112.704 Y118.538
G0 X111.593 Y118.679
G0 X109.87 Y118.761
G0 X109.828 Y117.437
G1 F3000 E18.59472
G1 F1200 X109.03 Y117.403 E18.62394
G1 X85.662 Y115.975 E19.48048
G1 X85.479 Y115.925 E19.48742
G1 X85.416 Y115.901 E19.48989
G1 X85.306 Y115.843 E19.49444
G1 X85.223 Y115.791 E19.49802
G1 X85.176 Y115.755 E19.50019
G1 X85.072 Y115.654 E19.50549
G1 X84.953 Y115.495 E19.51276
G1 X84.879 Y115.347 E19.51881
G1 X84.853 Y115.277 E19.52154
G1 X84.831 Y115.201 E19.52444
G1 X84.803 Y115.057 E19.5298
G1 X84.789 Y114.924 E19.5347
G1 X84.786 Y114.834 E19.53799
G1 X84.787 Y114.63 E19.54545
G1 X84.787 Y112.668 E19.61724
G1 X84.787 Y112.64 E19.61826
G1 X84.787 Y112.41 E19.62668
G1 X84.788 Y112.162 E19.63575
G1 X84.789 Y111.979 E19.64244
G1 X84.88 Y112.162 E19.64375
G1 X85.031 Y112.41 E19.64851
G1 X85.205 Y112.64 E19.65683
G1 X85.223 Y112.66 E19.65779
G1 X85.392 Y112.845 E19.66696
G1 X85.509 Y112.954 E19.67281
G1 X85.723 Y113.13 E19.68295
G1 X85.962 Y113.289 E19.69345
G1 X86.208 Y113.419 E19.70363
G1 X86.346 Y113.48 E19.70915
G1 X86.481 Y113.532 E19.71444
G1 X86.623 Y113.579 E19.71992
G1 X86.838 Y113.636 E19.72805
G1 X87.096 Y113.682 E19.73764
G1 X87.256 Y113.699 E19.74353
G1 X87.42 Y113.711 E19.74954
G1 X87.727 Y113.714 E19.76078
G1 X87.892 Y113.706 E19.76682
G1 X88.17 Y113.675 E19.77705
G1 X88.428 Y113.622 E19.78669
G1 X88.565 Y113.584 E19.79189
G1 X88.702 Y113.539 E19.79717
G1 X88.936 Y113.438 E19.80649
G1 X89.16 Y113.311 E19.81591
G1 X89.355 Y113.167 E19.82478
G1 X89.465 Y113.071 E19.83012
G1 X89.625 Y112.9 E19.83869
G1 X89.716 Y112.785 E19.84406
G1 X89.845 Y112.582 E19.85286
G1 X89.942 Y112.374 E19.86125
G1 X89.998 Y112.219 E19.86728
G1 X90.034 Y112.022 E19.87461
G1 X90.015 Y111.815 E19.88221
G1 X89.962 Y111.625 E19.88943
G1 X89.881 Y111.461 E19.89612
G1 X89.762 Y111.298 E19.90351
G1 X89.599 Y111.151 E19.91154
G1 X89.474 Y111.065 E19.91709
G1 X89.282 Y110.972 E19.92489
G1 X89.156 Y110.931 E19.92974
G1 X89.024 Y110.899 E19.93471
G1 X88.834 Y110.881 E19.94169
G1 X88.704 Y110.881 E19.94645
G1 X88.572 Y110.898 E19.95132
G1 X88.453 Y110.927 E19.9558
G1 X88.3 Y110.982 E19.96175
G1 X88.145 Y111.073 E19.96832
G1 X88.011 Y111.178 E19.97455
G1 X87.866 Y111.351 E19.98281
G1 X87.83 Y111.366 E19.98424
G1 X87.713 Y111.391 E19.98862
G1 X87.529 Y111.403 E19.99536
G1 X87.49 Y111.4 E19.99679
G1 X87.347 Y111.374 E20.00211
G1 X87.247 Y111.339 E20.00599
G1 X87.172 Y111.303 E20.00903
G1 X87.063 Y111.227 E20.01389
G1 X86.987 Y111.15 E20.01785
G1 X86.908 Y111.03 E20.02311
G1 X86.858 Y110.919 E20.02756
G1 X86.829 Y110.834 E20.03085
G1 X86.789 Y110.683 E20.03656
G1 X86.771 Y110.594 E20.03988
G1 X86.742 Y110.375 E20.04797
G1 X86.729 Y110.229 E20.05333
G1 X86.74 Y109.552 E20.0781
G1 X86.764 Y109.367 E20.08493
G1 X86.798 Y109.202 E20.09109
G1 X86.845 Y109.048 E20.09698
G1 X86.886 Y108.949 E20.1009
G1 X86.943 Y108.844 E20.10527
G1 X87.038 Y108.723 E20.1109
G1 X87.128 Y108.651 E20.11512
G1 X87.26 Y108.583 E20.12055
G1 X87.299 Y108.569 E20.12207
G1 X87.398 Y108.543 E20.12581
G1 X87.485 Y108.532 E20.12902
G1 X87.567 Y108.53 E20.13202
G1 X87.623 Y108.542 E20.13411
G1 X87.701 Y108.574 E20.1372
G1 X88.193 Y108.87 E20.15821
G1 X88.404 Y108.965 E20.16667
G1 X88.62 Y109.032 E20.17495
G1 X88.824 Y109.057 E20.18247
G1 X88.998 Y109.057 E20.18883
G1 X89.19 Y109.016 E20.19601
G1 X89.336 Y108.959 E20.20175
G1 X89.472 Y108.88 E20.2075
G1 X89.574 Y108.803 E20.21218
G1 X89.675 Y108.708 E20.21725
G1 X89.819 Y108.525 E20.22577
G1 X89.894 Y108.37 E20.23207
G1 X89.912 Y108.334 E20.23354
G1 X89.917 Y108.324 E20.23395
G1 X89.933 Y108.277 E20.23577
G1 X89.947 Y108.239 E20.23725
G1 X89.977 Y108.285 E20.23773
G1 X89.983 Y108.294
G1 X90.022 Y108.336 E20.2378
G1 X90.108 Y108.429 E20.24013
G1 X90.248 Y108.541 E20.24562
G1 X90.418 Y108.623 E20.25252
G1 X90.586 Y108.679 E20.259
G1 X90.84 Y108.703 E20.26833
G1 X90.97 Y108.702 E20.27309
G1 X91.094 Y108.691 E20.27765
G1 X91.317 Y108.66 E20.28588
G1 X91.473 Y108.639 E20.29164
G1 X91.65 Y108.629 E20.29813
G1 X91.658 Y108.63 E20.29842
G1 X91.657 Y108.651
G1 X91.646 Y108.808 E20.30288
G1 X91.625 Y109.087 E20.31312
G1 X91.639 Y111.965 E20.41841
G1 X91.6 Y112.449 E20.43618
G1 X91.6 Y112.575 E20.44079
G1 X91.613 Y112.691 E20.44506
G1 X91.643 Y112.843 E20.45073
G1 X91.716 Y113.018 E20.45766
G1 X91.816 Y113.173 E20.46441
G1 X91.954 Y113.311 E20.47155
G1 X92.102 Y113.414 E20.47815
G1 X92.301 Y113.502 E20.48611
G1 X92.436 Y113.539 E20.49123
G1 X92.571 Y113.562 E20.49624
G1 X92.778 Y113.571 E20.50382
G1 X92.926 Y113.559 E20.50925
G1 X93.132 Y113.508 E20.51702
G1 X93.303 Y113.433 E20.52385
G1 X93.458 Y113.33 E20.53066
G1 X93.608 Y113.182 E20.53837
G1 X93.73 Y113.003 E20.54629
G1 X93.794 Y112.868 E20.55176
G1 X93.853 Y112.682 E20.5589
G1 X93.883 Y112.548 E20.56392
G1 X93.905 Y112.323 E20.57219
G1 X93.905 Y112.073 E20.58134
G1 X93.886 Y111.511 E20.60191
G1 X93.89 Y108.67 E20.70585
G1 X93.891 Y108.655 E20.7064
G1 X94.176 Y108.67 E20.71685
G1 X94.456 Y108.668 E20.72709
G1 X94.753 Y108.646 E20.73799
G1 X94.969 Y108.608 E20.74601
G1 X95.166 Y108.543 E20.7536
G1 X95.313 Y108.467 E20.75965
G1 X95.458 Y108.362 E20.7662
G1 X95.582 Y108.232 E20.77278
G1 X95.623 Y108.168 E20.77556
G1 X95.644 Y108.136 E20.77696
G1 X95.667 Y108.195 E20.77733
G1 X95.684 Y108.223
G1 X95.792 Y108.399 E20.78207
G1 X95.937 Y108.563 E20.79008
G1 X96.043 Y108.656 E20.79524
G1 X96.175 Y108.744 E20.80104
G1 X96.332 Y108.825 E20.8075
G1 X96.408 Y108.841 E20.81035
G1 X96.437 Y108.847 E20.81143
G1 X96.476 Y108.856 E20.81289
G1 X96.526 Y108.868 E20.81478
G1 X96.544 Y108.872 E20.81545
G1 X96.52 Y108.896
G1 X96.49 Y108.938 E20.81596
G1 X96.474 Y108.96
G1 X96.444 Y109.001 E20.81656
G1 X96.383 Y109.104 E20.81956
G1 X96.331 Y109.212 E20.82329
G1 X96.285 Y109.338 E20.82819
G1 X96.236 Y109.55 E20.83615
G1 X96.22 Y109.767 E20.84412
G1 X96.232 Y109.909 E20.84933
G1 X96.265 Y110.069 E20.85531
G1 X96.335 Y110.243 E20.86217
G1 X96.438 Y110.404 E20.86916
G1 X96.578 Y110.538 E20.87625
G1 X96.718 Y110.637 E20.88252
G1 X96.754 Y110.652 E20.88395
G1 X96.862 Y110.699 E20.88826
G1 X96.888 Y110.711 E20.88931
G1 X97.014 Y110.747 E20.8941
G1 X97.084 Y110.767 E20.89677
G1 X97.128 Y110.774 E20.8984
G1 X97.343 Y110.812 E20.90638
G1 X97.503 Y110.841 E20.91233
G1 X97.573 Y110.862 E20.91501
G1 X97.639 Y110.89 E20.91763
G1 X97.654 Y110.897 E20.91824
G1 X97.686 Y110.916 E20.9196
G1 X97.726 Y110.941 E20.92132
G1 X97.79 Y110.992 E20.92432
G1 X97.856 Y111.061 E20.92781
G1 X97.893 Y111.11 E20.93006
G1 X97.941 Y111.201 E20.93382
G1 X97.964 Y111.279 E20.9368
G1 X97.964 Y111.351 E20.93943
G1 X97.954 Y111.382 E20.94062
G1 X97.925 Y111.436 E20.94286
G1 X97.905 Y111.456 E20.9439
G1 X97.873 Y111.48 E20.94536
G1 X97.829 Y111.501 E20.94715
G1 X97.816 Y111.492
G1 X97.763 Y111.455 E20.94847
G1 X97.753 Y111.448
G1 X97.681 Y111.394 E20.95092
G1 X97.634 Y111.359 E20.95241
G1 X97.558 Y111.302 E20.95529
G1 X97.485 Y111.247 E20.95826
G1 X97.472 Y111.24 E20.95861
G1 X97.393 Y111.198 E20.96141
G1 X97.33 Y111.164 E20.96328
G1 X97.285 Y111.14 E20.96435
G1 X97.078 Y111.068 E20.97011
G1 X97.027 Y111.058 E20.97143
G1 X96.93 Y111.039 E20.97404
G1 X96.865 Y111.035 E20.97539
G1 X96.721 Y111.024 E20.97976
G1 X96.593 Y111.03 E20.98387
G1 X96.475 Y111.045 E20.98822
G1 X96.358 Y111.073 E20.99262
G1 X96.239 Y111.111 E20.99719
G1 X96.087 Y111.183 E21.00334
G1 X95.941 Y111.279 E21.00974
G1 X95.814 Y111.405 E21.01628
G1 X95.698 Y111.551 E21.0231
G1 X95.615 Y111.737 E21.03056
G1 X95.573 Y111.875 E21.03583
G1 X95.545 Y112.07 E21.04304
G1 X95.539 Y112.226 E21.04875
G1 X95.574 Y112.464 E21.05755
G1 X95.645 Y112.688 E21.06615
G1 X95.741 Y112.877 E21.07391
G1 X95.813 Y112.982 E21.07856
G1 X95.887 Y113.073 E21.08286
G1 X95.971 Y113.161 E21.08731
G1 X96.078 Y113.254 E21.09249
G1 X96.25 Y113.371 E21.1001
G1 X96.358 Y113.432 E21.10464
G1 X96.473 Y113.487 E21.10931
G1 X96.59 Y113.534 E21.11392
G1 X96.719 Y113.578 E21.11891
G1 X96.933 Y113.634 E21.127
G1 X97.082 Y113.665 E21.13257
G1 X97.231 Y113.688 E21.13808
G1 X97.51 Y113.712 E21.14833
G1 X97.823 Y113.717 E21.15978
G1 X98.121 Y113.699 E21.1707
G1 X98.381 Y113.658 E21.18033
G1 X98.527 Y113.627 E21.18579
G1 X98.762 Y113.552 E21.19482
G1 X98.902 Y113.497 E21.20032
G1 X99.127 Y113.383 E21.20955
G1 X99.251 Y113.307 E21.21487
G1 X99.368 Y113.225 E21.2201
G1 X99.564 Y113.062 E21.22942
G1 X99.75 Y112.87 E21.2392
G1 X99.918 Y112.653 E21.24925
G1 X100.057 Y112.423 E21.25908
G1 X100.084 Y112.37 E21.26125
G1 X100.124 Y112.292 E21.26446
G1 X100.155 Y112.221 E21.2673
G1 X100.183 Y112.156 E21.26988
G1 X100.267 Y111.919 E21.27908
G1 X100.308 Y111.771 E21.2847
G1 X100.35 Y111.537 E21.2934
G1 X100.366 Y111.396 E21.29859
G1 X100.37 Y111.154 E21.30745
G1 X100.361 Y111.015 E21.31254
G1 X100.344 Y110.884 E21.31738
G1 X100.32 Y110.749 E21.32239
G1 X100.253 Y110.479 E21.33257
G1 X100.113 Y110.029 E21.34981
G1 X100.031 Y109.84 E21.35735
G1 X100.019 Y109.813 E21.35843
G1 X99.914 Y109.637 E21.36593
G1 X99.829 Y109.523 E21.37113
G1 X99.783 Y109.477 E21.37351
G1 X99.824 Y109.426 E21.37591
G1 X99.898 Y109.313 E21.38085
G1 X99.984 Y109.133 E21.38815
G1 X100.03 Y109.004 E21.39316
G1 X100.078 Y108.79 E21.40118
G1 X100.097 Y108.651 E21.40631
G1 X100.122 Y108.366 E21.41678
G1 X100.129 Y108.108 E21.42622
G1 X100.125 Y108.047 E21.42846
G1 X100.112 Y107.866 E21.4351
G1 X100.069 Y107.648 E21.44323
G1 X100.037 Y107.535 E21.44753
G1 X100.034 Y107.525 E21.44791
G1 X99.988 Y107.406 E21.45258
G1 X99.933 Y107.291 E21.45724
G1 X99.864 Y107.169 E21.46237
G1 X99.728 Y106.985 E21.47074
G1 X99.631 Y106.874 E21.47613
G1 X99.461 Y106.719 E21.48455
G1 X99.344 Y106.628 E21.48997
G1 X99.142 Y106.506 E21.49861
G1 X99.014 Y106.444 E21.50381
G1 X98.889 Y106.392 E21.50876
G1 X98.757 Y106.347 E21.51386
G1 X98.533 Y106.289 E21.52233
G1 X98.375 Y106.258 E21.52822
G1 X98.071 Y106.222 E21.53942
G1 X97.767 Y106.211 E21.55055
G1 X97.593 Y106.212 E21.55692
G1 X97.237 Y106.246 E21.57
G1 X96.851 Y106.326 E21.58442
G1 X96.594 Y106.416 E21.59438
G1 X96.358 Y106.526 E21.60391
G1 X96.149 Y106.651 E21.61282
G1 X95.966 Y106.793 E21.6213
G1 X95.818 Y106.945 E21.62906
G1 X95.775 Y107.001 E21.63164
G1 X95.741 Y107.046 E21.6337
G1 X95.738 Y107.051 E21.63392
G1 X95.713 Y106.988 E21.63455
G1 X95.693 Y106.94
G1 X95.597 Y106.782 E21.639
G1 X95.47 Y106.641 E21.64594
G1 X95.315 Y106.532 E21.65288
G1 X95.161 Y106.456 E21.65916
G1 X94.975 Y106.407 E21.6662
G1 X94.771 Y106.383 E21.67371
G1 X94.558 Y106.382 E21.6815
G1 X94.134 Y106.391 E21.69702
G1 X91.426 Y106.394 E21.7961
G1 X90.877 Y106.352 E21.81624
G1 X90.744 Y106.359 E21.82111
G1 X90.621 Y106.377 E21.82566
G1 X90.479 Y106.417 E21.83106
G1 X90.343 Y106.474 E21.83645
G1 X90.19 Y106.569 E21.84304
G1 X90.052 Y106.696 E21.8499
G1 X89.973 Y106.792 E21.85445
G1 X89.957 Y106.812 E21.85539
G1 X89.851 Y106.997 E21.86319
G1 X89.823 Y107.072 E21.86612
G1 X89.802 Y107.126 E21.86824
G1 X89.794 Y107.157 E21.86941
G1 X89.78 Y107.205 E21.87124
G1 X89.75 Y107.159 E21.87157
G1 X89.74 Y107.143
G1 X89.716 Y107.115 E21.87162
G1 X89.669 Y107.06 E21.87261
G1 X89.61 Y106.991 E21.87432
G1 X89.591 Y106.974 E21.87525
G1 X89.436 Y106.828 E21.88304
G1 X89.316 Y106.731 E21.88869
G1 X89.096 Y106.584 E21.89837
G1 X88.867 Y106.463 E21.90785
G1 X88.623 Y106.365 E21.91747
G1 X88.361 Y106.292 E21.92742
G1 X88.196 Y106.259 E21.93357
G1 X87.903 Y106.224 E21.94437
G1 X87.506 Y106.213 E21.9589
G1 X87.194 Y106.232 E21.97033
G1 X86.791 Y106.303 E21.98531
G1 X86.632 Y106.346 E21.99133
G1 X86.366 Y106.439 E22.00164
G1 X86.108 Y106.559 E22.01205
G1 X85.864 Y106.703 E22.02242
G1 X85.63 Y106.87 E22.03294
G1 X85.422 Y107.057 E22.04317
G1 X85.317 Y107.164 E22.04865
G1 X85.23 Y107.262 E22.05345
G1 X85.215 Y107.279 E22.05428
G1 X85.044 Y107.504 E22.06462
G1 X84.892 Y107.75 E22.0752
G1 X84.792 Y107.946 E22.08325
G1 X84.792 Y107.75 E22.08387
G1 X84.792 Y107.504 E22.08723
G1 X84.793 Y107.279 E22.0941
G1 X84.793 Y107.256 E22.09492
G1 X84.799 Y104.97 E22.17856
G1 X84.828 Y104.809 E22.18454
G1 X84.877 Y104.656 E22.19042
G1 X84.942 Y104.526 E22.19574
G1 X85.041 Y104.382 E22.20213
G1 X85.175 Y104.245 E22.20914
G1 X85.299 Y104.16 E22.21464
G1 X85.429 Y104.093 E22.21999
G1 X85.484 Y104.072 E22.22215
G1 X85.567 Y104.046 E22.22533
G1 X85.642 Y104.029 E22.22814
G1 X85.809 Y104.008 E22.2343
G1 X85.961 Y104 E22.23987
G1 X110.08 Y102.561 E23.12386
G1 X110.788 Y102.58 E23.14977
G1 X111.61 Y102.645 E23.17994
G1 X112.988 Y102.868 E23.23101
G1 X113.718 Y103.041 E23.25846
G1 X114.476 Y103.265 E23.28738
G1 X115.524 Y103.654 E23.32828
G1 X116.328 Y104.018 E23.36057
G1 X117.178 Y104.473 E23.39584
G1 X117.901 Y104.921 E23.42696
G1 X118.658 Y105.457 E23.46089
G1 X119.49 Y106.14 E23.50028
G1 X119.998 Y106.615 E23.52572
G1 X120.8 Y107.467 E23.56853
G1 X121.085 Y107.813 E23.58493
G1 X121.176 Y107.924 E23.59018
G1 X121.297 Y108.071 E23.59715
G1 X121.321 Y108.105 E23.59867
G1 X121.822 Y108.796 E23.6299
G1 X121.952 Y108.988 E23.63838
G1 X122.207 Y109.394 E23.65592
G1 X122.394 Y109.723 E23.66977
G1 X122.417 Y109.777 E23.67191
G1 X122.448 Y109.888 E23.67613
G1 X122.454 Y110.066 E23.68265
G1 X122.446 Y110.12 E23.68464
G1 X122.41 Y110.242 E23.6893
G1 X122.383 Y110.302 E23.6917
G1 X121.944 Y111.022 E23.72256
G1 X121.267 Y111.962 E23.76494
G1 X121.218 Y112.03 E23.76801
G1 X121.186 Y112.068 E23.76982
G1 X121.157 Y112.101 E23.77143
G1 X121.117 Y112.148 E23.77369
G1 X121.09 Y112.088 E23.77427
G1 X121.058 Y112.017 E23.77541
G1 X120.964 Y111.878 E23.77977
G1 X120.905 Y111.817 E23.78287
G1 X120.827 Y111.737 E23.78696
G1 X120.685 Y111.639 E23.79327
G1 X120.538 Y111.566 E23.79928
G1 X120.416 Y111.52 E23.80405
G1 X120.256 Y111.481 E23.81007
G1 X120.219 Y111.472 E23.81147
G1 X120.087 Y111.451 E23.81636
G1 X119.777 Y111.427 E23.82773
G1 X119.868 Y111.298 E23.8282
G1 X119.902 Y111.249
G1 X119.923 Y111.218 E23.8295
G1 X120.812 Y109.962 E23.8858
G1 X120.887 Y109.839 E23.89107
G1 X120.986 Y109.644 E23.89907
G1 X121.068 Y109.422 E23.90773
G1 X121.113 Y109.155 E23.91764
G1 X121.117 Y108.927 E23.92598
G1 X121.101 Y108.782 E23.93132
G1 X121.053 Y108.574 E23.93913
G1 X120.963 Y108.36 E23.94762
G1 X120.939 Y108.325 E23.94917
G1 X120.847 Y108.196 E23.95485
G1 X120.745 Y108.094 E23.96005
G1 X120.723 Y108.072 E23.96119
G1 X120.571 Y107.968 E23.96792
G1 X120.413 Y107.895 E23.97429
G1 X120.225 Y107.847 E23.98139
G1 X120.012 Y107.823 E23.98923
G1 X117.802 Y107.825 E24.07009
G1 X117.561 Y107.848 E24.07894
G1 X117.363 Y107.894 E24.08638
G1 X117.249 Y107.934 E24.0908
G1 X117.106 Y108.001 E24.09658
G1 X116.957 Y108.105 E24.10323
G1 X116.826 Y108.233 E24.10993
G1 X116.815 Y108.251 E24.1107
G1 X116.806 Y108.264 E24.11128
G1 X116.786 Y108.294 E24.1126
G1 X116.762 Y108.331 E24.11421
G1 X116.737 Y108.295 E24.11453
G1 X116.719 Y108.269
G1 X116.699 Y108.239
G1 X116.577 Y108.114 E24.11897
G1 X116.485 Y108.038 E24.12277
G1 X116.349 Y107.946 E24.12878
G1 X116.182 Y107.875 E24.13541
G1 X116.02 Y107.831 E24.14156
G1 X115.798 Y107.819 E24.14969
G1 X115.577 Y107.872 E24.158
G1 X115.399 Y107.949 E24.1651
G1 X115.177 Y108.119 E24.17533
G1 X115.034 Y108.286 E24.18337
G1 X114.961 Y108.384 E24.18785
G1 X114.888 Y108.499 E24.19283
G1 X114.781 Y108.71 E24.20148
G1 X114.78 Y108.712 E24.20157
G1 X114.701 Y108.901 E24.20906
G1 X114.68 Y108.95 E24.21101
G1 X114.606 Y109.168 E24.21943
G1 X114.558 Y109.307 E24.22481
G1 X114.53 Y109.386 E24.22788
G1 X114.489 Y109.285 E24.22872
G1 X114.438 Y109.112 E24.23121
G1 X114.414 Y109.019 E24.23193
G1 X114.363 Y108.822 E24.23804
G1 X114.344 Y108.752 E24.24031
G1 X114.343 Y108.75 E24.24039
G1 X114.265 Y108.55 E24.24825
G1 X114.167 Y108.371 E24.25571
G1 X114.086 Y108.266 E24.26056
G1 X114.006 Y108.179 E24.26489
G1 X113.915 Y108.099 E24.26932
G1 X113.805 Y108.022 E24.27423
G1 X113.625 Y107.928 E24.28166
G1 X113.497 Y107.883 E24.28663
G1 X113.369 Y107.849 E24.29147
G1 X113.165 Y107.823 E24.299
G1 X113.031 Y107.823 E24.3039
G1 X112.9 Y107.838 E24.30872
G1 X112.733 Y107.878 E24.31501
G1 X112.565 Y107.95 E24.32169
G1 X112.408 Y108.061 E24.32873
G1 X112.276 Y108.197 E24.33566
G1 X112.226 Y108.279 E24.33918
G1 X112.209 Y108.307 E24.34037
G1 X112.172 Y108.368 E24.34298
G1 X112.158 Y108.402 E24.34433
G1 X112.148 Y108.381
G1 X112.14 Y108.366
G1 X112.108 Y108.323 E24.34466
G1 X112.091 Y108.3
G1 X112.003 Y108.183 E24.34795
G1 X111.893 Y108.076 E24.35265
G1 X111.755 Y107.972 E24.35898
G1 X111.595 Y107.894 E24.36549
G1 X111.429 Y107.838 E24.3719
G1 X111.232 Y107.82 E24.37914
G1 X111.053 Y107.833 E24.3857
G1 X110.871 Y107.886 E24.39264
G1 X110.723 Y107.954 E24.3986
G1 X110.545 Y108.071 E24.40639
G1 X110.384 Y108.215 E24.41429
G1 X110.244 Y108.369 E24.42191
G1 X110.237 Y108.379 E24.42235
G1 X110.195 Y108.439 E24.42503
G1 X110.175 Y108.466 E24.42626
G1 X110.152 Y108.432 E24.42629
G1 X110.122 Y108.388
G1 X109.93 Y108.165 E24.43428
G1 X109.819 Y108.066 E24.43972
G1 X109.653 Y107.956 E24.447
G1 X109.495 Y107.881 E24.4534
G1 X109.32 Y107.837 E24.46001
G1 X109.165 Y107.818 E24.46572
G1 X109.016 Y107.825 E24.47118
G1 X108.801 Y107.867 E24.47919
G1 X108.66 Y107.919 E24.48469
G1 X108.481 Y108.016 E24.49214
G1 X108.359 Y108.109 E24.49775
G1 X108.241 Y108.232 E24.50399
G1 X108.135 Y108.376 E24.51053
G1 X108.06 Y108.552 E24.51753
G1 X108.013 Y108.728 E24.52419
G1 X108.01 Y109.006 E24.53436
G1 X108.054 Y109.235 E24.5429
G1 X108.13 Y109.454 E24.55138
G1 X108.234 Y109.672 E24.56021
G1 X108.303 Y109.798 E24.56547
G1 X108.768 Y110.606 E24.59958
G1 X108.873 Y110.761 E24.60643
G1 X108.726 Y110.956 E24.61536
G1 X108.592 Y111.173 E24.62469
G1 X108.425 Y111.47 E24.63716
G1 X108.402 Y111.511 E24.63888
G1 X108.393 Y111.526 E24.63952
G1 X108.361 Y111.58 E24.64181
G1 X108.323 Y111.644 E24.64454
G1 X108.289 Y111.701 E24.64697
G1 X108.238 Y111.594 E24.64862
G1 X108.166 Y111.465 E24.65176
G1 X108.074 Y111.337 E24.6564
G1 X108.043 Y111.301 E24.65803
G1 X107.977 Y111.227 E24.66165
G1 X107.876 Y111.128 E24.66683
G1 X107.761 Y111.032 E24.67231
G1 X107.641 Y110.953 E24.67756
G1 X107.515 Y110.88 E24.68289
G1 X107.373 Y110.818 E24.68856
G1 X107.238 Y110.773 E24.69377
G1 X107.097 Y110.736 E24.6991
G1 X106.949 Y110.714 E24.70457
G1 X106.805 Y110.705 E24.70985
G1 X106.667 Y110.707 E24.7149
G1 X106.661 Y110.707 E24.71512
G1 X106.512 Y110.723 E24.72061
G1 X106.383 Y110.75 E24.72543
G1 X106.366 Y110.753 E24.72606
G1 X106.244 Y110.789 E24.73071
G1 X106.242 Y110.789 E24.73079
G1 X106.214 Y110.799 E24.73187
G1 X106.227 Y110.73 E24.73264
G1 X106.23 Y110.694
G1 X106.234 Y110.662
G1 X106.234 Y110.657 E24.73283
G1 X106.268 Y110.356 E24.74391
G1 X106.268 Y110.354 E24.74398
G1 X106.268 Y110.336 E24.74464
G1 X106.273 Y109.617 E24.77095
G1 X106.225 Y109.146 E24.78827
G1 X106.165 Y108.818 E24.80047
G1 X106.085 Y108.517 E24.81186
G1 X105.985 Y108.232 E24.82291
G1 X105.862 Y107.963 E24.83373
G1 X105.721 Y107.712 E24.84427
G1 X105.555 Y107.472 E24.85494
G1 X105.301 Y107.186 E24.86894
G1 X105.124 Y107.026 E24.87767
G1 X104.923 Y106.879 E24.88678
G1 X104.806 Y106.805 E24.89184
G1 X104.687 Y106.74 E24.8968
G1 X104.562 Y106.68 E24.90188
G1 X104.337 Y106.596 E24.91066
G1 X104.195 Y106.551 E24.91611
G1 X103.917 Y106.487 E24.92655
G1 X103.608 Y106.438 E24.938
G1 X103.374 Y106.412 E24.94661
G1 X102.982 Y106.39 E24.96098
G1 X101.655 Y106.375 E25.00953
G1 X101.447 Y106.395 E25.01717
G1 X101.221 Y106.444 E25.02563
G1 X101.031 Y106.521 E25.03313
G1 X100.91 Y106.586 E25.03816
G1 X100.766 Y106.694 E25.04475
G1 X100.637 Y106.829 E25.05158
G1 X100.531 Y107.008 E25.05919
G1 X100.466 Y107.185 E25.06609
G1 X100.438 Y107.371 E25.07297
G1 X100.433 Y107.546 E25.07896
G1 X100.432 Y107.574 E25.07964
G1 X100.435 Y107.614 E25.08056
G1 X100.455 Y107.835 E25.08711
G1 X100.472 Y108.022 E25.09253
G1 X100.472 Y108.108 E25.09501
G1 X100.472 Y108.366 E25.10244
G1 X100.471 Y108.651 E25.11113
G1 X100.47 Y108.791 E25.11572
G1 X100.47 Y109.01 E25.1233
G1 X100.466 Y109.824 E25.15308
G1 X100.466 Y110.03 E25.15989
G1 X100.464 Y110.479 E25.17034
G1 X100.463 Y110.749 E25.17427
G1 X100.462 Y110.884 E25.17574
G1 X100.461 Y111.015 E25.17693
G1 X100.46 Y111.154 E25.17803
G1 X100.459 Y111.396 E25.17991
G1 X100.458 Y111.537 E25.18126
G1 X100.457 Y111.771 E25.18406
G1 X100.456 Y111.919 E25.18665
G1 X100.455 Y112.157 E25.19189
G1 X100.454 Y112.293 E25.1956
G1 X100.453 Y112.349 E25.197
G1 X100.456 Y112.382 E25.19773
G1 X100.475 Y112.569 E25.20406
G1 X100.501 Y112.705 E25.20913
G1 X100.561 Y112.896 E25.21645
G1 X100.613 Y113.01 E25.22104
G1 X100.691 Y113.144 E25.22671
G1 X100.806 Y113.283 E25.23331
G1 X100.941 Y113.399 E25.23982
G1 X101.103 Y113.489 E25.2466
G1 X101.284 Y113.553 E25.25363
G1 X101.542 Y113.577 E25.26311
G1 X101.678 Y113.575 E25.26808
G1 X102.03 Y113.54 E25.28102
G1 X102.221 Y113.533 E25.28802
G1 X103.051 Y113.539 E25.31838
G1 X103.512 Y113.506 E25.33529
G1 X103.683 Y113.482 E25.34161
G1 X103.967 Y113.429 E25.35218
G1 X104.223 Y113.36 E25.36188
G1 X104.357 Y113.314 E25.36707
G1 X104.493 Y113.258 E25.37245
G1 X104.718 Y113.144 E25.38167
G1 X104.838 Y113.073 E25.38678
G1 X104.845 Y113.069 E25.38707
G1 X104.962 Y112.989 E25.39226
G1 X104.968 Y112.985 E25.39252
G1 X105.087 Y112.892 E25.39805
G1 X105.095 Y112.884 E25.39846
G1 X105.13 Y112.853 E25.40017
G1 X105.171 Y112.816 E25.40219
G1 X105.185 Y112.862 E25.40246
G1 X105.201 Y112.913
G1 X105.21 Y112.94 E25.4025
G1 X105.268 Y113.073 E25.40607
G1 X105.272 Y113.081 E25.4064
G1 X105.332 Y113.201 E25.41131
G1 X105.336 Y113.207 E25.41157
G1 X105.416 Y113.33 E25.41694
G1 X105.506 Y113.444 E25.42226
G1 X105.615 Y113.561 E25.42811
G1 X105.819 Y113.728 E25.43775
G1 X105.969 Y113.822 E25.44423
G1 X106.214 Y113.931 E25.45404
G1 X106.369 Y113.977 E25.45995
G1 X106.511 Y114.005 E25.46525
G1 X106.657 Y114.022 E25.47063
G1 X106.805 Y114.024 E25.47604
G1 X106.949 Y114.015 E25.48132
G1 X107.097 Y113.993 E25.48679
G1 X107.237 Y113.956 E25.49209
G1 X107.378 Y113.91 E25.49752
G1 X107.514 Y113.847 E25.503
G1 X107.636 Y113.78 E25.50809
G1 X107.761 Y113.696 E25.5136
G1 X107.875 Y113.602 E25.51901
G1 X107.981 Y113.5 E25.52439
G1 X108.076 Y113.387 E25.52979
G1 X108.117 Y113.33 E25.53236
G1 X108.127 Y113.316 E25.53299
G1 X108.145 Y113.29 E25.53415
G1 X108.165 Y113.314
G1 X108.182 Y113.336
G1 X108.191 Y113.347
G1 X108.214 Y113.376 E25.5347
G1 X108.311 Y113.468 E25.53801
G1 X108.422 Y113.552 E25.54233
G1 X108.611 Y113.655 E25.55021
G1 X108.787 Y113.711 E25.55697
G1 X108.949 Y113.742 E25.563
G1 X109.153 Y113.742 E25.57046
G1 X109.352 Y113.697 E25.57793
G1 X109.522 Y113.62 E25.58476
G1 X109.645 Y113.538 E25.59016
G1 X109.745 Y113.457 E25.59487
G1 X109.869 Y113.323 E25.60155
G1 X109.89 Y113.301 E25.60267
G1 X110.044 Y113.081 E25.61249
G1 X110.117 Y112.976 E25.61717
G1 X110.2 Y113.118 E25.61948
G1 X110.272 Y113.24 E25.62221
G1 X110.291 Y113.264 E25.62333
G1 X110.402 Y113.4 E25.62976
G1 X110.492 Y113.489 E25.63439
G1 X110.617 Y113.586 E25.64018
G1 X110.775 Y113.671 E25.64674
G1 X110.933 Y113.726 E25.65286
G1 X111.076 Y113.753 E25.65818
G1 X111.271 Y113.764 E25.66533
G1 X111.445 Y113.741 E25.67175
G1 X111.644 Y113.688 E25.67929
G1 X111.776 Y113.628 E25.68459
G1 X111.927 Y113.538 E25.69102
G1 X112.062 Y113.418 E25.69763
G1 X112.178 Y113.27 E25.70451
G1 X112.268 Y113.104 E25.71142
G1 X112.325 Y112.914 E25.71868
G1 X112.347 Y112.774 E25.72386
G1 X112.354 Y112.563 E25.73159
G1 X112.336 Y112.405 E25.7374
G1 X112.283 Y112.203 E25.74504
G1 X112.239 Y112.083 E25.74972
G1 X112.185 Y111.965 E25.75447
G1 X112.072 Y111.771 E25.76268
G1 X111.928 Y111.547 E25.77242
G1 X111.657 Y111.068 E25.79256
G1 X111.445 Y110.718 E25.80753
G1 X111.447 Y110.705 E25.80801
G1 X111.465 Y110.654 E25.80999
G1 X111.508 Y110.569 E25.81348
G1 X111.932 Y109.853 E25.84392
G1 X112.042 Y109.668 E25.85179
G1 X112.129 Y109.522 E25.85801
G1 X112.141 Y109.503 E25.85883
G1 X112.149 Y109.535
G1 X112.235 Y109.781 E25.86319
G1 X112.317 Y109.98 E25.86933
G1 X112.511 Y110.446 E25.88779
G1 X113.136 Y112.131 E25.95355
G1 X113.2 Y112.281 E25.95951
G1 X113.337 Y112.575 E25.97138
G1 X113.384 Y112.714 E25.97675
G1 X113.381 Y112.735 E25.97752
G1 X113.372 Y112.76 E25.9785
G1 X113.149 Y113.237 E25.99776
G1 X112.972 Y113.712 E26.01631
G1 X112.932 Y113.795 E26.01968
G1 X112.888 Y113.86 E26.02255
G1 X112.822 Y113.921 E26.02584
G1 X112.8 Y113.934 E26.02677
G1 X112.698 Y113.975 E26.03079
G1 X112.346 Y114.07 E26.04413
G1 X112.23 Y114.113 E26.04866
G1 X112.096 Y114.181 E26.05416
G1 X111.955 Y114.281 E26.06048
G1 X111.823 Y114.413 E26.06731
G1 X111.723 Y114.578 E26.07437
G1 X111.651 Y114.761 E26.08156
G1 X111.623 Y115.033 E26.09157
G1 X111.632 Y115.189 E26.09729
G1 X111.68 Y115.406 E26.10542
G1 X111.76 Y115.609 E26.1134
G1 X111.832 Y115.74 E26.11887
G1 X111.95 Y115.897 E26.12605
G1 X112.076 Y116.026 E26.13265
G1 X112.24 Y116.134 E26.13984
G1 X112.358 Y116.19 E26.14461
G1 X112.476 Y116.232 E26.1492
G1 X112.616 Y116.265 E26.15446
G1 X112.898 Y116.283 E26.1648
G1 X113.048 Y116.27 E26.17031
G1 X113.273 Y116.23 E26.17867
G1 X113.52 Y116.159 E26.18807
G1 X113.659 Y116.11 E26.19346
G1 X113.884 Y116.011 E26.20246
G1 X114.099 Y115.887 E26.21154
G1 X114.292 Y115.737 E26.22048
G1 X114.449 Y115.577 E26.22868
G1 X114.534 Y115.476 E26.23351
G1 X114.614 Y115.364 E26.23855
G1 X114.738 Y115.16 E26.24728
G1 X114.81 Y115.027 E26.25281
G1 X114.979 Y114.662 E26.26753
G1 X115.578 Y113.109 E26.32843
G1 X116.471 Y110.592 E26.42614
G1 X116.638 Y110.09 E26.44549
G1 X116.639 Y110.087 E26.44561
G1 X116.717 Y109.902 E26.45296
G1 X116.775 Y109.775 E26.45806
G1 X116.793 Y109.735 E26.45967
G1 X116.814 Y109.69 E26.46148
G1 X116.878 Y109.766 E26.46268
G1 X116.887 Y109.777
G1 X117.024 Y109.888 E26.46711
G1 X117.027 Y109.89 E26.46724
G1 X117.169 Y109.976 E26.47331
G1 X117.358 Y110.048 E26.48071
G1 X117.428 Y110.067 E26.48337
G1 X117.487 Y110.082 E26.48559
G1 X117.673 Y110.11 E26.49248
G1 X117.895 Y110.127 E26.50062
G1 X117.827 Y110.221
G1 X117.777 Y110.29
G1 X117.742 Y110.339 E26.50265
G1 X116.883 Y111.527 E26.55629
G1 X116.747 Y111.753 E26.56594
G1 X116.646 Y111.965 E26.57453
G1 X116.582 Y112.171 E26.58242
G1 X116.554 Y112.307 E26.5875
G1 X116.538 Y112.501 E26.59462
G1 X116.538 Y112.65 E26.60007
G1 X116.578 Y112.883 E26.60872
G1 X116.646 Y113.084 E26.61649
G1 X116.706 Y113.206 E26.62146
G1 X116.782 Y113.324 E26.6266
G1 X116.896 Y113.461 E26.63312
G1 X117.041 Y113.578 E26.63993
G1 X117.19 Y113.665 E26.64625
G1 X117.361 Y113.722 E26.65284
G1 X117.522 Y113.755 E26.65885
G1 X117.793 Y113.762 E26.66877
G1 X118.322 Y113.734 E26.68815
G1 X119.035 Y113.735 E26.71424
G1 X119.592 Y113.735 E26.73462
G1 X119.626 Y113.736 E26.73586
G1 X119.592 Y113.769 E26.73627
G1 X119.165 Y114.126 E26.74779
G1 X118.772 Y114.456 E26.76657
G1 X118.002 Y115.012 E26.80131
G1 X117.315 Y115.446 E26.83104
G1 X116.344 Y115.973 E26.87146
G1 X115.203 Y116.476 E26.91709
G1 X114.173 Y116.829 E26.95692
G1 X113.241 Y117.077 E26.99221
G1 X112.475 Y117.233 E27.02081
G1 X111.236 Y117.39 E27.0665
G1 X109.828 Y117.437 E27.11804
G0 F6000 X109.824 Y117.878
;TYPE:WALL-OUTER
G1 F1200 X109.011 Y117.843 E27.14781
G1 X85.687 Y116.421 E28.00273
G1 X85.571 Y116.406 E28.00701
G1 X85.35 Y116.346 E28.01539
G1 X85.234 Y116.302 E28.01993
G1 X85.082 Y116.222 E28.02621
G1 X84.974 Y116.155 E28.03086
G1 X84.882 Y116.084 E28.03512
G1 X84.745 Y115.95 E28.04213
G1 X84.612 Y115.78 E28.05002
G1 X84.569 Y115.711 E28.053
G1 X84.476 Y115.523 E28.06067
G1 X84.435 Y115.415 E28.0649
G1 X84.402 Y115.299 E28.06931
G1 X84.367 Y115.118 E28.07606
G1 X84.35 Y114.957 E28.08198
G1 X84.346 Y114.85 E28.0859
G1 X84.347 Y114.629 E28.09398
G1 X84.354 Y104.996 E28.44642
G1 X84.361 Y104.926 E28.44899
G1 X84.377 Y104.819 E28.45295
G1 X84.402 Y104.701 E28.45736
G1 X84.436 Y104.581 E28.46192
G1 X84.471 Y104.486 E28.46563
G1 X84.563 Y104.3 E28.47322
G1 X84.698 Y104.105 E28.4819
G1 X84.833 Y103.96 E28.48915
G1 X84.908 Y103.894 E28.4928
G1 X85.071 Y103.783 E28.50002
G1 X85.245 Y103.693 E28.50718
G1 X85.338 Y103.657 E28.51083
G1 X85.461 Y103.619 E28.51554
G1 X85.556 Y103.597 E28.51911
G1 X85.682 Y103.578 E28.52377
G1 X85.786 Y103.568 E28.52759
G1 X85.938 Y103.561 E28.53316
G1 X110.077 Y102.121 E29.41788
G1 X110.816 Y102.14 E29.44493
G1 X111.653 Y102.207 E29.47565
G1 X113.079 Y102.437 E29.5285
G1 X113.834 Y102.616 E29.55688
G1 X114.62 Y102.849 E29.58688
G1 X115.691 Y103.246 E29.62867
G1 X116.514 Y103.619 E29.66173
G1 X117.403 Y104.094 E29.6986
G1 X118.14 Y104.551 E29.73033
G1 X118.926 Y105.108 E29.76558
G1 X119.783 Y105.812 E29.80615
G1 X120.308 Y106.302 E29.83243
G1 X121.129 Y107.174 E29.87624
G1 X121.646 Y107.803 E29.90603
G1 X122.186 Y108.549 E29.93973
G1 X122.325 Y108.754 E29.94879
G1 X122.58 Y109.16 E29.96633
G1 X122.788 Y109.526 E29.98173
G1 X122.834 Y109.634 E29.98603
G1 X122.867 Y109.742 E29.99016
G1 X122.887 Y109.841 E29.99385
G1 X122.895 Y110.09 E30.00297
G1 X122.878 Y110.212 E30.00747
G1 X122.824 Y110.395 E30.01445
G1 X122.771 Y110.511 E30.01912
G1 X122.313 Y111.263 E30.05133
G1 X121.566 Y112.3 E30.09809
G1 X121.094 Y112.848 E30.12455
G1 X121.087 Y112.856 E30.12494
G1 X121.04 Y112.911 E30.12759
G1 X120.996 Y112.962 E30.13005
G1 X120.95 Y113.016 E30.13265
G1 X120.9 Y113.074 E30.13545
G1 X120.84 Y113.143 E30.1388
G1 X120.8 Y113.19 E30.14105
G1 X120.762 Y113.23 E30.14307
G1 X120.693 Y113.304 E30.14677
G1 X120.623 Y113.378 E30.1505
G1 X120.561 Y113.443 E30.15379
G1 X120.498 Y113.51 E30.15715
G1 X120.461 Y113.546 E30.15904
G1 X120.391 Y113.613 E30.16259
G1 X119.892 Y114.091 E30.18787
G1 X119.038 Y114.807 E30.22864
G1 X118.255 Y115.373 E30.26399
G1 X117.534 Y115.828 E30.29518
G1 X116.54 Y116.368 E30.33657
G1 X115.366 Y116.885 E30.3835
G1 X114.303 Y117.25 E30.42462
G1 X113.339 Y117.506 E30.46111
G1 X112.551 Y117.666 E30.49053
G1 X111.264 Y117.83 E30.538
G1 X109.824 Y117.878 E30.59071
G1 F3000 E25.59071
G0 F6000 X109.851 Y118.761
G0 X111.331 Y118.713
G0 X113.409 Y118.395
G0 X112.892 Y115.842
G1 F3000 E30.59071
G1 F1200 X112.99 Y115.833 E30.59431
G1 X113.174 Y115.801 E30.60114
G1 X113.386 Y115.74 E30.60921
G1 X113.497 Y115.701 E30.61352
G1 X113.685 Y115.618 E30.62104
G1 X113.853 Y115.521 E30.62813
G1 X113.999 Y115.408 E30.63489
G1 X114.123 Y115.281 E30.64138
G1 X114.186 Y115.206 E30.64497
G1 X114.247 Y115.121 E30.64879
G1 X114.356 Y114.941 E30.65649
G1 X114.417 Y114.829 E30.66116
G1 X114.574 Y114.49 E30.67483
G1 X115.165 Y112.956 E30.73497
G1 X116.055 Y110.449 E30.8323
G1 X116.224 Y109.939 E30.85196
G1 X116.311 Y109.732 E30.86017
G1 X116.497 Y109.324 E30.87658
G1 X116.537 Y109.17 E30.8824
G1 X116.551 Y109.033 E30.88744
G1 X116.548 Y108.948 E30.89055
G1 X116.516 Y108.801 E30.89605
G1 X116.483 Y108.72 E30.89925
G1 X116.445 Y108.646 E30.9023
G1 X116.358 Y108.52 E30.9079
G1 X116.278 Y108.438 E30.91209
G1 X116.22 Y108.39 E30.91484
G1 X116.138 Y108.334 E30.91848
G1 X116.038 Y108.292 E30.92245
G1 X115.95 Y108.268 E30.92578
G1 X115.838 Y108.262 E30.92989
G1 X115.716 Y108.291 E30.93447
G1 X115.623 Y108.331 E30.93818
G1 X115.481 Y108.44 E30.94473
G1 X115.378 Y108.56 E30.95051
G1 X115.324 Y108.633 E30.95384
G1 X115.271 Y108.717 E30.95747
G1 X115.179 Y108.897 E30.96487
G1 X115.091 Y109.107 E30.9732
G1 X114.767 Y110.047 E31.00957
G1 X114.696 Y110.255 E31.01761
G1 X114.612 Y110.545 E31.02866
G1 X114.569 Y110.691 E31.03423
G1 X114.491 Y110.51 E31.03629
G1 X114.433 Y110.355 E31.03795
G1 X114.356 Y110.148 E31.04465
G1 X114.258 Y109.889 E31.05478
G1 X114.075 Y109.433 E31.07276
G1 X114.012 Y109.223 E31.08078
G1 X113.925 Y108.888 E31.09344
G1 X113.866 Y108.737 E31.09937
G1 X113.797 Y108.612 E31.1046
G1 X113.749 Y108.549 E31.10749
G1 X113.699 Y108.495 E31.11019
G1 X113.643 Y108.446 E31.11291
G1 X113.576 Y108.399 E31.1159
G1 X113.449 Y108.333 E31.12114
G1 X113.367 Y108.304 E31.12432
G1 X113.284 Y108.282 E31.12746
G1 X113.137 Y108.263 E31.13289
G1 X113.056 Y108.263 E31.13585
G1 X112.976 Y108.272 E31.13879
G1 X112.872 Y108.297 E31.14271
G1 X112.781 Y108.336 E31.14633
G1 X112.695 Y108.397 E31.15019
G1 X112.626 Y108.468 E31.15381
G1 X112.567 Y108.565 E31.15796
G1 X112.532 Y108.653 E31.16143
G1 X112.507 Y108.77 E31.16581
G1 X112.496 Y108.919 E31.17127
G1 X112.497 Y109.013 E31.17471
G1 X112.521 Y109.2 E31.18161
G1 X112.572 Y109.411 E31.18955
G1 X112.646 Y109.625 E31.19784
G1 X112.917 Y110.277 E31.22367
G1 X113.545 Y111.968 E31.28966
G1 X113.602 Y112.102 E31.29499
G1 X113.743 Y112.404 E31.30719
G1 X113.811 Y112.59 E31.31443
G1 X113.828 Y112.71 E31.31887
G1 X113.811 Y112.838 E31.32359
G1 X113.779 Y112.929 E31.32712
G1 X113.555 Y113.408 E31.34646
G1 X113.375 Y113.889 E31.36525
G1 X113.311 Y114.02 E31.37059
G1 X113.244 Y114.12 E31.37499
G1 X113.209 Y114.163 E31.37702
G1 X113.087 Y114.275 E31.38308
G1 X112.998 Y114.328 E31.38687
G1 X112.883 Y114.378 E31.39146
G1 X112.827 Y114.396 E31.39361
G1 X112.481 Y114.489 E31.40672
G1 X112.407 Y114.517 E31.40961
G1 X112.323 Y114.559 E31.41305
G1 X112.24 Y114.618 E31.41677
G1 X112.172 Y114.686 E31.42029
G1 X112.119 Y114.774 E31.42405
G1 X112.082 Y114.867 E31.42771
G1 X112.064 Y115.043 E31.43419
G1 X112.069 Y115.128 E31.4373
G1 X112.102 Y115.277 E31.44288
G1 X112.159 Y115.422 E31.44858
G1 X112.202 Y115.5 E31.45184
G1 X112.285 Y115.61 E31.45689
G1 X112.358 Y115.685 E31.46071
G1 X112.457 Y115.75 E31.46505
G1 X112.526 Y115.783 E31.46785
G1 X112.6 Y115.809 E31.47072
G1 X112.681 Y115.828 E31.47376
G1 X112.892 Y115.842 E31.4815
G1 F3000 E26.4815
G0 F6000 X111.254 Y113.322
G1 F3000 E31.4815
G1 F1200 X111.36 Y113.308 E31.48541
G1 X111.496 Y113.272 E31.49055
G1 X111.571 Y113.238 E31.49357
G1 X111.666 Y113.181 E31.49762
G1 X111.741 Y113.115 E31.50128
G1 X111.809 Y113.028 E31.50532
G1 X111.86 Y112.934 E31.50923
G1 X111.895 Y112.817 E31.5137
G1 X111.908 Y112.733 E31.51681
G1 X111.913 Y112.581 E31.52237
G1 X111.902 Y112.486 E31.52587
G1 X111.863 Y112.335 E31.53158
G1 X111.832 Y112.251 E31.53485
G1 X111.794 Y112.168 E31.53819
G1 X111.697 Y112.001 E31.54526
G1 X111.551 Y111.774 E31.55513
G1 X111.278 Y111.292 E31.5754
G1 X111.069 Y110.952 E31.59
G1 X111.025 Y110.857 E31.59383
G1 X111.009 Y110.796 E31.59614
G1 X111.003 Y110.681 E31.60035
G1 X111.022 Y110.588 E31.60382
G1 X111.06 Y110.48 E31.60801
G1 X111.121 Y110.359 E31.61297
G1 X111.768 Y109.27 E31.65931
G1 X111.823 Y109.131 E31.66478
G1 X111.842 Y109.058 E31.66754
G1 X111.856 Y108.966 E31.67095
G1 X111.855 Y108.863 E31.67471
G1 X111.832 Y108.75 E31.67893
G1 X111.803 Y108.674 E31.68191
G1 X111.765 Y108.6 E31.68495
G1 X111.671 Y108.474 E31.6907
G1 X111.606 Y108.411 E31.69402
G1 X111.524 Y108.349 E31.69778
G1 X111.427 Y108.302 E31.70172
G1 X111.336 Y108.271 E31.70524
G1 X111.228 Y108.261 E31.70921
G1 X111.132 Y108.268 E31.71273
G1 X111.026 Y108.299 E31.71677
G1 X110.937 Y108.34 E31.72035
G1 X110.814 Y108.421 E31.72574
G1 X110.694 Y108.528 E31.73162
G1 X110.588 Y108.645 E31.7374
G1 X110.475 Y108.804 E31.74454
G1 X110.381 Y108.978 E31.75177
G1 X110.374 Y108.991 E31.75231
G1 X110.318 Y109.112 E31.75719
G1 X110.19 Y109.405 E31.76889
G1 X110.098 Y109.224 E31.77006
G1 X110.061 Y109.152
G1 X109.953 Y108.941 E31.7767
G1 X109.946 Y108.928 E31.77724
G1 X109.89 Y108.83 E31.78137
G1 X109.772 Y108.656 E31.78906
G1 X109.615 Y108.474 E31.79785
G1 X109.549 Y108.415 E31.80109
G1 X109.436 Y108.34 E31.80605
G1 X109.345 Y108.297 E31.80973
G1 X109.239 Y108.27 E31.81374
G1 X109.149 Y108.259 E31.81705
G1 X109.069 Y108.263 E31.81998
G1 X108.92 Y108.292 E31.82554
G1 X108.842 Y108.321 E31.82858
G1 X108.72 Y108.387 E31.83366
G1 X108.653 Y108.438 E31.83674
G1 X108.578 Y108.516 E31.8407
G1 X108.52 Y108.595 E31.84428
G1 X108.477 Y108.696 E31.8483
G1 X108.452 Y108.789 E31.85182
G1 X108.45 Y108.966 E31.8583
G1 X108.48 Y109.12 E31.86404
G1 X108.538 Y109.286 E31.87047
G1 X108.626 Y109.471 E31.87797
G1 X108.687 Y109.582 E31.8826
G1 X109.142 Y110.373 E31.91599
G1 X109.334 Y110.659 E31.92859
G1 X109.376 Y110.768 E31.93286
G1 X109.372 Y110.8 E31.93404
G1 X109.355 Y110.838 E31.93557
G1 X109.265 Y110.973 E31.9415
G1 X109.089 Y111.205 E31.95216
G1 X108.971 Y111.396 E31.96037
G1 X108.783 Y111.731 E31.97442
G1 X108.544 Y112.133 E31.99153
G1 X108.462 Y112.306 E31.99854
G1 X108.409 Y112.46 E32.0045
G1 X108.403 Y112.496 E32.00583
G1 X108.383 Y112.597 E32.0096
G1 X108.38 Y112.659 E32.01187
G1 X108.377 Y112.696 E32.01323
G1 X108.391 Y112.806 E32.01729
G1 X108.421 Y112.9 E32.0209
G1 X108.476 Y112.999 E32.02504
G1 X108.539 Y113.078 E32.02874
G1 X108.596 Y113.132 E32.03161
G1 X108.661 Y113.181 E32.03459
G1 X108.785 Y113.249 E32.03976
G1 X108.895 Y113.284 E32.04398
G1 X108.99 Y113.302 E32.04752
G1 X109.104 Y113.302 E32.05169
G1 X109.211 Y113.278 E32.0557
G1 X109.308 Y113.234 E32.0596
G1 X109.383 Y113.184 E32.0629
G1 X109.443 Y113.135 E32.06573
G1 X109.548 Y113.022 E32.07138
G1 X109.722 Y112.778 E32.08234
G1 X109.869 Y112.545 E32.09242
G1 X109.955 Y112.379 E32.09926
G1 X109.978 Y112.335 E32.10108
G1 X109.985 Y112.319 E32.10172
G1 X110.108 Y112.052 E32.11247
G1 X110.196 Y112.219 E32.1135
G1 X110.335 Y112.479 E32.12091
G1 X110.36 Y112.522 E32.12273
G1 X110.635 Y112.989 E32.14255
G1 X110.728 Y113.104 E32.14796
G1 X110.782 Y113.157 E32.15073
G1 X110.858 Y113.216 E32.15425
G1 X110.953 Y113.267 E32.1582
G1 X111.047 Y113.3 E32.16184
G1 X111.128 Y113.315 E32.16486
G1 X111.254 Y113.322 E32.16947
G1 F3000 E27.16947
G0 F6000 X110.173 Y111
G0 X107.078 Y112.575
G0 X106.868 Y112.683
G0 X106.795 Y113.584
G1 F3000 E32.16947
G1 F1200 X106.902 Y113.577 E32.1734
G1 X107.009 Y113.561 E32.17735
G1 X107.113 Y113.534 E32.18129
G1 X107.216 Y113.5 E32.18525
G1 X107.315 Y113.454 E32.18925
G1 X107.408 Y113.403 E32.19313
G1 X107.498 Y113.343 E32.19709
G1 X107.581 Y113.274 E32.20104
G1 X107.659 Y113.199 E32.20499
G1 X107.729 Y113.116 E32.20897
G1 X107.793 Y113.027 E32.21298
G1 X107.846 Y112.933 E32.21693
G1 X107.892 Y112.838 E32.22079
G1 X107.93 Y112.736 E32.22477
G1 X107.957 Y112.634 E32.22859
G1 X107.96 Y112.615 E32.22924
G1 X107.978 Y112.527 E32.23237
G1 X107.987 Y112.418 E32.23617
G1 X107.987 Y112.311 E32.24009
G1 X107.978 Y112.202 E32.24409
G1 X107.957 Y112.095 E32.24808
G1 X107.93 Y111.993 E32.25194
G1 X107.892 Y111.891 E32.25592
G1 X107.847 Y111.796 E32.25977
G1 X107.794 Y111.702 E32.26372
G1 X107.729 Y111.611 E32.26781
G1 X107.658 Y111.53 E32.27175
G1 X107.581 Y111.455 E32.27568
G1 X107.498 Y111.386 E32.27963
G1 X107.409 Y111.327 E32.28354
G1 X107.316 Y111.273 E32.28747
G1 X107.215 Y111.229 E32.2915
G1 X107.113 Y111.195 E32.29543
G1 X107.009 Y111.168 E32.29937
G1 X106.902 Y111.152 E32.30332
G1 X106.795 Y111.145 E32.30725
G1 X106.687 Y111.147 E32.3112
G1 X106.579 Y111.158 E32.31517
G1 X106.473 Y111.18 E32.31913
G1 X106.371 Y111.21 E32.32302
G1 X106.27 Y111.25 E32.327
G1 X106.172 Y111.299 E32.331
G1 X106.08 Y111.357 E32.33498
G1 X105.996 Y111.421 E32.33885
G1 X105.948 Y111.463 E32.34118
G1 X105.915 Y111.492 E32.34279
G1 X105.883 Y111.527 E32.34452
G1 X105.841 Y111.571 E32.34675
G1 X105.813 Y111.607 E32.34842
G1 X105.774 Y111.656 E32.35071
G1 X105.714 Y111.748 E32.35473
G1 X105.696 Y111.783 E32.35617
G1 X105.666 Y111.843 E32.35862
G1 X105.644 Y111.893 E32.36062
G1 X105.623 Y111.942 E32.36257
G1 X105.609 Y111.989 E32.36436
G1 X105.592 Y112.043 E32.36644
G1 X105.567 Y112.147 E32.37035
G1 X105.565 Y112.161 E32.37087
G1 X105.552 Y112.257 E32.37441
G1 X105.548 Y112.364 E32.37833
G1 X105.552 Y112.472 E32.38228
G1 X105.567 Y112.582 E32.38634
G1 X105.592 Y112.686 E32.39026
G1 X105.623 Y112.787 E32.39412
G1 X105.666 Y112.886 E32.39807
G1 X105.714 Y112.981 E32.40197
G1 X105.774 Y113.073 E32.40598
G1 X105.841 Y113.158 E32.40994
G1 X105.917 Y113.24 E32.41403
G1 X106.076 Y113.37 E32.42155
G1 X106.176 Y113.433 E32.42587
G1 X106.366 Y113.517 E32.43347
G1 X106.475 Y113.549 E32.43763
G1 X106.579 Y113.57 E32.44151
G1 X106.686 Y113.582 E32.44545
G1 X106.795 Y113.584 E32.44944
G1 F3000 E27.44944
G0 F6000 X106.691 Y112.691
G0 X106.57 Y112.678
G0 X101.832 Y112.26
G0 X101.767 Y112.256
G0 X101.558 Y113.137
G1 F3000 E32.44944
G1 F1200 X101.651 Y113.135 E32.45284
G1 X102.001 Y113.1 E32.46571
G1 X102.209 Y113.093 E32.47332
G1 X103.037 Y113.099 E32.50362
G1 X103.466 Y113.068 E32.51936
G1 X103.613 Y113.048 E32.52478
G1 X103.869 Y113 E32.53431
G1 X104.094 Y112.939 E32.54284
G1 X104.202 Y112.902 E32.54702
G1 X104.309 Y112.858 E32.55125
G1 X104.506 Y112.758 E32.55933
G1 X104.609 Y112.697 E32.56371
G1 X104.709 Y112.629 E32.56814
G1 X104.805 Y112.554 E32.57259
G1 X104.986 Y112.392 E32.58148
G1 X105.147 Y112.215 E32.59024
G1 X105.226 Y112.116 E32.59428
G1 X105.262 Y112.063 E32.59589
G1 X105.318 Y111.98 E32.59836
G1 X105.363 Y111.914 E32.60006
G1 X105.414 Y111.824 E32.60259
G1 X105.428 Y111.8 E32.60291
G1 X105.459 Y111.739 E32.60429
G1 X105.489 Y111.68 E32.60555
G1 X105.498 Y111.657
G1 X105.541 Y111.557 E32.60812
G1 X105.583 Y111.46 E32.61075
G1 X105.594 Y111.436 E32.61111
G1 X105.612 Y111.385 E32.61237
G1 X105.642 Y111.302 E32.61483
G1 X105.663 Y111.232 E32.61702
G1 X105.684 Y111.163 E32.61938
G1 X105.721 Y111.02 E32.62479
G1 X105.753 Y110.873 E32.63029
G1 X105.791 Y110.666 E32.63799
G1 X105.828 Y110.328 E32.65043
G1 X105.833 Y109.638 E32.67568
G1 X105.789 Y109.208 E32.69149
G1 X105.735 Y108.914 E32.70243
G1 X105.664 Y108.647 E32.71254
G1 X105.576 Y108.397 E32.72223
G1 X105.469 Y108.162 E32.73168
G1 X105.347 Y107.945 E32.74079
G1 X105.208 Y107.744 E32.74973
G1 X104.988 Y107.496 E32.76186
G1 X104.846 Y107.368 E32.76885
G1 X104.674 Y107.242 E32.77665
G1 X104.583 Y107.184 E32.7806
G1 X104.487 Y107.132 E32.78459
G1 X104.389 Y107.085 E32.78857
G1 X104.194 Y107.012 E32.79619
G1 X104.079 Y106.976 E32.8006
G1 X103.833 Y106.919 E32.80984
G1 X103.55 Y106.874 E32.82032
G1 X103.338 Y106.851 E32.82812
G1 X102.967 Y106.83 E32.84172
G1 X101.673 Y106.815 E32.88906
G1 X101.515 Y106.83 E32.89487
G1 X101.352 Y106.866 E32.90098
G1 X101.218 Y106.92 E32.90626
G1 X101.147 Y106.958 E32.90921
G1 X101.059 Y107.024 E32.91323
G1 X100.99 Y107.096 E32.91688
G1 X100.93 Y107.198 E32.92121
G1 X100.894 Y107.295 E32.925
G1 X100.877 Y107.409 E32.92921
G1 X100.873 Y107.561 E32.93478
G1 X100.912 Y108.008 E32.95119
G1 X100.893 Y112.328 E33.10925
G1 X100.911 Y112.506 E33.11579
G1 X100.928 Y112.597 E33.11918
G1 X100.973 Y112.738 E33.12459
G1 X101.005 Y112.809 E33.12744
G1 X101.053 Y112.892 E33.13095
G1 X101.121 Y112.974 E33.13485
G1 X101.193 Y113.036 E33.13832
G1 X101.284 Y113.086 E33.14212
G1 X101.38 Y113.12 E33.14585
G1 X101.558 Y113.137 E33.15239
G1 F3000 E28.15239
G0 F6000 X97.813 Y113.277
G1 F3000 E33.15239
G1 F1200 X98.073 Y113.261 E33.16192
G1 X98.301 Y113.225 E33.17037
G1 X98.414 Y113.201 E33.17459
G1 X98.615 Y113.137 E33.18231
G1 X98.722 Y113.095 E33.18652
G1 X98.913 Y112.998 E33.19435
G1 X99.01 Y112.939 E33.19851
G1 X99.101 Y112.875 E33.20258
G1 X99.265 Y112.739 E33.21037
G1 X99.417 Y112.582 E33.21837
G1 X99.554 Y112.404 E33.22659
G1 X99.672 Y112.209 E33.23492
G1 X99.726 Y112.103 E33.23928
G1 X99.774 Y111.994 E33.24363
G1 X99.847 Y111.787 E33.25166
G1 X99.878 Y111.674 E33.25595
G1 X99.914 Y111.473 E33.26342
G1 X99.926 Y111.367 E33.26733
G1 X99.93 Y111.164 E33.27475
G1 X99.923 Y111.058 E33.27864
G1 X99.909 Y110.952 E33.28255
G1 X99.889 Y110.841 E33.28668
G1 X99.829 Y110.597 E33.29587
G1 X99.7 Y110.182 E33.31177
G1 X99.627 Y110.014 E33.31847
G1 X99.548 Y109.882 E33.3241
G1 X99.496 Y109.812 E33.32729
G1 X99.388 Y109.705 E33.33285
G1 X99.261 Y109.615 E33.33855
G1 X99.237 Y109.604 E33.33951
G1 X99.186 Y109.579 E33.34159
G1 X99.146 Y109.559 E33.34323
G1 X99.112 Y109.542 E33.34462
G1 X99.061 Y109.524 E33.3466
G1 X99.016 Y109.508 E33.34835
G1 X99.076 Y109.481 E33.34891
G1 X99.156 Y109.435 E33.35029
G1 X99.213 Y109.402 E33.35139
G1 X99.227 Y109.394
G1 X99.302 Y109.341 E33.35367
G1 X99.413 Y109.236 E33.35847
G1 X99.467 Y109.168 E33.36165
G1 X99.514 Y109.096 E33.3648
G1 X99.577 Y108.965 E33.37012
G1 X99.606 Y108.882 E33.37333
G1 X99.645 Y108.711 E33.37975
G1 X99.66 Y108.602 E33.38377
G1 X99.683 Y108.341 E33.39336
G1 X99.689 Y108.118 E33.40152
G1 X99.675 Y107.924 E33.40864
G1 X99.641 Y107.751 E33.41509
G1 X99.619 Y107.674 E33.41802
G1 X99.583 Y107.579 E33.42174
G1 X99.543 Y107.495 E33.42514
G1 X99.494 Y107.409 E33.42876
G1 X99.385 Y107.261 E33.43549
G1 X99.316 Y107.182 E33.43932
G1 X99.178 Y107.056 E33.44616
G1 X99.095 Y106.992 E33.44999
G1 X98.931 Y106.893 E33.457
G1 X98.833 Y106.845 E33.461
G1 X98.734 Y106.804 E33.46492
G1 X98.631 Y106.769 E33.4689
G1 X98.435 Y106.718 E33.47631
G1 X98.307 Y106.693 E33.48108
G1 X98.037 Y106.661 E33.49102
G1 X97.761 Y106.651 E33.50113
G1 X97.616 Y106.652 E33.50643
G1 X97.303 Y106.682 E33.51794
G1 X96.969 Y106.751 E33.53042
G1 X96.76 Y106.824 E33.53851
G1 X96.565 Y106.915 E33.54639
G1 X96.398 Y107.015 E33.55351
G1 X96.26 Y107.122 E33.5599
G1 X96.152 Y107.233 E33.56556
G1 X96.103 Y107.297 E33.56851
G1 X96.063 Y107.361 E33.57127
G1 X96.022 Y107.448 E33.57479
G1 X95.992 Y107.556 E33.57889
G1 X95.983 Y107.65 E33.58235
G1 X95.986 Y107.74 E33.58564
G1 X96.005 Y107.85 E33.58973
G1 X96.063 Y107.998 E33.59554
G1 X96.148 Y108.137 E33.6015
G1 X96.248 Y108.251 E33.60705
G1 X96.311 Y108.306 E33.61011
G1 X96.398 Y108.364 E33.61394
G1 X96.486 Y108.409 E33.61755
G1 X96.59 Y108.434 E33.62147
G1 X96.682 Y108.443 E33.62485
G1 X96.79 Y108.43 E33.62883
G1 X96.882 Y108.401 E33.63236
G1 X97.02 Y108.333 E33.63799
G1 X97.34 Y108.118 E33.65209
G1 X97.447 Y108.062 E33.65651
G1 X97.556 Y108.023 E33.66075
G1 X97.659 Y108.002 E33.66459
G1 X97.787 Y107.999 E33.66928
G1 X97.824 Y108.005 E33.67065
G1 X97.895 Y108.028 E33.67338
G1 X97.975 Y108.076 E33.67679
G1 X97.994 Y108.095 E33.67777
G1 X98.039 Y108.153 E33.68046
G1 X98.062 Y108.191 E33.68208
G1 X98.093 Y108.265 E33.68502
G1 X98.109 Y108.341 E33.68786
G1 X98.113 Y108.415 E33.69057
G1 X98.095 Y108.517 E33.69436
G1 X98.062 Y108.593 E33.69739
G1 X98.006 Y108.674 E33.701
G1 X97.932 Y108.75 E33.70488
G1 X97.864 Y108.802 E33.70801
G1 X97.773 Y108.849 E33.71176
G1 X97.68 Y108.879 E33.71533
G1 X97.229 Y108.956 E33.73207
G1 X97.091 Y109.004 E33.73742
G1 X97.001 Y109.052 E33.74115
G1 X96.914 Y109.122 E33.74523
G1 X96.858 Y109.18 E33.74818
G1 X96.812 Y109.243 E33.75104
G1 X96.772 Y109.311 E33.75392
G1 X96.737 Y109.384 E33.75689
G1 X96.707 Y109.465 E33.76005
G1 X96.672 Y109.616 E33.76572
G1 X96.661 Y109.764 E33.77115
G1 X96.668 Y109.845 E33.77412
G1 X96.688 Y109.941 E33.77771
G1 X96.728 Y110.04 E33.78161
G1 X96.781 Y110.123 E33.78522
G1 X96.858 Y110.197 E33.78912
G1 X96.935 Y110.251 E33.79257
G1 X97.038 Y110.296 E33.79668
G1 X97.184 Y110.338 E33.80224
G1 X97.601 Y110.412 E33.81773
G1 X97.728 Y110.449 E33.82257
G1 X97.857 Y110.505 E33.82772
G1 X97.98 Y110.58 E33.83299
G1 X98.087 Y110.666 E33.83801
G1 X98.189 Y110.773 E33.84342
G1 X98.265 Y110.873 E33.84801
G1 X98.351 Y111.036 E33.85476
G1 X98.4 Y111.202 E33.86109
G1 X98.408 Y111.354 E33.86666
G1 X98.393 Y111.455 E33.87039
G1 X98.362 Y111.551 E33.87408
G1 X98.294 Y111.68 E33.87942
G1 X98.261 Y111.723 E33.8814
G1 X98.19 Y111.793 E33.88505
G1 X98.104 Y111.857 E33.88897
G1 X98.015 Y111.902 E33.89262
G1 X97.914 Y111.936 E33.89652
G1 X97.877 Y111.943 E33.8979
G1 X97.765 Y111.949 E33.902
G1 X97.668 Y111.921 E33.90569
G1 X97.643 Y111.908 E33.90672
G1 X97.501 Y111.809 E33.91306
G1 X97.248 Y111.619 E33.92463
G1 X97.108 Y111.544 E33.93044
G1 X96.963 Y111.494 E33.93606
G1 X96.872 Y111.476 E33.93945
G1 X96.716 Y111.465 E33.94517
G1 X96.631 Y111.469 E33.94828
G1 X96.553 Y111.479 E33.95116
G1 X96.476 Y111.497 E33.95405
G1 X96.402 Y111.521 E33.9569
G1 X96.303 Y111.568 E33.96091
G1 X96.219 Y111.623 E33.96458
G1 X96.142 Y111.699 E33.96854
G1 X96.077 Y111.781 E33.97237
G1 X96.028 Y111.891 E33.97678
G1 X96.004 Y111.97 E33.9798
G1 X95.984 Y112.111 E33.98501
G1 X95.98 Y112.203 E33.98838
G1 X96.004 Y112.365 E33.99437
G1 X96.053 Y112.52 E34.00032
G1 X96.12 Y112.651 E34.0057
G1 X96.166 Y112.718 E34.00867
G1 X96.218 Y112.782 E34.01169
G1 X96.276 Y112.843 E34.01477
G1 X96.347 Y112.905 E34.01822
G1 X96.483 Y112.997 E34.02422
G1 X96.562 Y113.042 E34.02755
G1 X96.65 Y113.084 E34.03112
G1 X96.742 Y113.121 E34.03475
G1 X96.846 Y113.156 E34.03876
G1 X97.034 Y113.206 E34.04588
G1 X97.16 Y113.232 E34.05059
G1 X97.283 Y113.251 E34.05514
G1 X97.532 Y113.272 E34.06428
G1 X97.813 Y113.277 E34.07456
G1 F3000 E29.07456
G0 F6000 X92.769 Y113.13
G1 F3000 E34.07456
G1 F1200 X92.855 Y113.123 E34.07772
G1 X92.99 Y113.09 E34.0828
G1 X93.092 Y113.045 E34.08688
G1 X93.18 Y112.987 E34.09074
G1 X93.268 Y112.9 E34.09527
G1 X93.347 Y112.783 E34.10043
G1 X93.384 Y112.706 E34.10356
G1 X93.428 Y112.567 E34.10889
G1 X93.448 Y112.478 E34.11223
G1 X93.465 Y112.302 E34.1187
G1 X93.465 Y112.081 E34.12678
G1 X93.446 Y111.526 E34.1471
G1 X93.451 Y108.412 E34.26103
G1 X93.451 Y108.336 E34.26381
G1 X93.469 Y108.249 E34.26706
G1 X93.48 Y108.229 E34.2679
G1 X93.499 Y108.22 E34.26867
G1 X93.532 Y108.213 E34.2699
G1 X93.716 Y108.205 E34.27664
G1 X93.792 Y108.209 E34.27942
G1 X94.186 Y108.23 E34.29386
G1 X94.438 Y108.228 E34.30308
G1 X94.698 Y108.209 E34.31262
G1 X94.861 Y108.18 E34.31867
G1 X94.995 Y108.136 E34.32383
G1 X95.082 Y108.091 E34.32742
G1 X95.168 Y108.029 E34.3313
G1 X95.235 Y107.959 E34.33484
G1 X95.294 Y107.867 E34.33884
G1 X95.325 Y107.795 E34.34171
G1 X95.349 Y107.721 E34.34455
G1 X95.369 Y107.612 E34.34861
G1 X95.376 Y107.46 E34.35417
G1 X95.369 Y107.371 E34.35744
G1 X95.337 Y107.232 E34.36266
G1 X95.299 Y107.138 E34.36637
G1 X95.243 Y107.046 E34.37031
G1 X95.177 Y106.973 E34.37391
G1 X95.09 Y106.912 E34.3778
G1 X95.005 Y106.87 E34.38127
G1 X94.893 Y106.84 E34.38551
G1 X94.745 Y106.823 E34.39096
G1 X94.562 Y106.822 E34.39765
G1 X94.143 Y106.831 E34.41299
G1 X91.405 Y106.834 E34.51316
G1 X90.871 Y106.793 E34.53275
G1 X90.787 Y106.797 E34.53583
G1 X90.713 Y106.808 E34.53857
G1 X90.624 Y106.833 E34.54195
G1 X90.545 Y106.866 E34.54508
G1 X90.458 Y106.92 E34.54883
G1 X90.373 Y106.999 E34.55307
G1 X90.32 Y107.063 E34.55611
G1 X90.25 Y107.186 E34.56129
G1 X90.22 Y107.264 E34.56435
G1 X90.198 Y107.344 E34.56739
G1 X90.179 Y107.484 E34.57255
G1 X90.176 Y107.569 E34.57567
G1 X90.184 Y107.653 E34.57875
G1 X90.2 Y107.735 E34.58181
G1 X90.245 Y107.867 E34.58691
G1 X90.278 Y107.939 E34.58981
G1 X90.332 Y108.023 E34.59346
G1 X90.409 Y108.106 E34.59761
G1 X90.485 Y108.167 E34.60117
G1 X90.584 Y108.215 E34.6052
G1 X90.677 Y108.246 E34.60878
G1 X90.858 Y108.263 E34.61543
G1 X90.949 Y108.262 E34.61876
G1 X91.045 Y108.254 E34.62229
G1 X91.424 Y108.201 E34.63629
G1 X91.669 Y108.187 E34.64527
G1 X91.819 Y108.206 E34.6508
G1 X91.898 Y108.234 E34.65387
G1 X91.96 Y108.268 E34.65645
G1 X92.031 Y108.333 E34.65997
G1 X92.065 Y108.383 E34.66219
G1 X92.076 Y108.411 E34.66329
G1 X92.087 Y108.458 E34.66505
G1 X92.097 Y108.555 E34.66862
G1 X92.099 Y108.632 E34.67144
G1 X92.065 Y109.102 E34.68868
G1 X92.079 Y111.994 E34.79449
G1 X92.04 Y112.467 E34.81185
G1 X92.04 Y112.551 E34.81493
G1 X92.048 Y112.624 E34.81761
G1 X92.066 Y112.714 E34.82097
G1 X92.107 Y112.813 E34.82489
G1 X92.16 Y112.895 E34.82846
G1 X92.237 Y112.972 E34.83245
G1 X92.318 Y113.028 E34.83605
G1 X92.449 Y113.086 E34.84129
G1 X92.533 Y113.109 E34.84448
G1 X92.618 Y113.124 E34.84763
G1 X92.769 Y113.13 E34.85316
G1 F3000 E29.85316
G0 F6000 X87.718 Y113.274
G1 F3000 E34.85316
G1 F1200 X87.857 Y113.267 E34.85826
G1 X88.101 Y113.24 E34.86724
G1 X88.325 Y113.194 E34.8756
G1 X88.437 Y113.163 E34.87986
G1 X88.545 Y113.127 E34.88402
G1 X88.74 Y113.043 E34.89179
G1 X88.92 Y112.941 E34.89936
G1 X89.079 Y112.824 E34.90658
G1 X89.159 Y112.754 E34.91047
G1 X89.291 Y112.613 E34.91754
G1 X89.356 Y112.53 E34.92139
G1 X89.458 Y112.37 E34.92833
G1 X89.535 Y112.205 E34.935
G1 X89.572 Y112.104 E34.93893
G1 X89.59 Y112.003 E34.94269
G1 X89.58 Y111.895 E34.94665
G1 X89.549 Y111.783 E34.95091
G1 X89.503 Y111.69 E34.9547
G1 X89.433 Y111.594 E34.95905
G1 X89.326 Y111.497 E34.96433
G1 X89.253 Y111.447 E34.96757
G1 X89.116 Y111.381 E34.97313
G1 X89.035 Y111.354 E34.97626
G1 X88.952 Y111.334 E34.97938
G1 X88.813 Y111.321 E34.98449
G1 X88.732 Y111.321 E34.98745
G1 X88.653 Y111.331 E34.99036
G1 X88.58 Y111.349 E34.99312
G1 X88.488 Y111.382 E34.99669
G1 X88.393 Y111.438 E35.00073
G1 X88.317 Y111.497 E35.00425
G1 X88.251 Y111.575 E35.00798
G1 X88.163 Y111.683 E35.01308
G1 X88.057 Y111.751 E35.01769
G1 X87.953 Y111.789 E35.02174
G1 X87.841 Y111.816 E35.02595
G1 X87.762 Y111.829 E35.02888
G1 X87.526 Y111.844 E35.03754
G1 X87.441 Y111.838 E35.04065
G1 X87.298 Y111.816 E35.04595
G1 X87.223 Y111.797 E35.04878
G1 X87.079 Y111.747 E35.05435
G1 X86.947 Y111.683 E35.05972
G1 X86.781 Y111.568 E35.06711
G1 X86.645 Y111.43 E35.0742
G1 X86.555 Y111.299 E35.08001
G1 X86.518 Y111.235 E35.08272
G1 X86.48 Y111.157 E35.08589
G1 X86.447 Y111.077 E35.08906
G1 X86.411 Y110.973 E35.09308
G1 X86.36 Y110.781 E35.10035
G1 X86.337 Y110.668 E35.10457
G1 X86.306 Y110.433 E35.11324
G1 X86.289 Y110.244 E35.12019
G1 X86.295 Y109.614 E35.14324
G1 X86.301 Y109.523 E35.14657
G1 X86.33 Y109.296 E35.15495
G1 X86.371 Y109.096 E35.16242
G1 X86.431 Y108.897 E35.17002
G1 X86.488 Y108.759 E35.17548
G1 X86.57 Y108.608 E35.18177
G1 X86.686 Y108.453 E35.18885
G1 X86.744 Y108.395 E35.19185
G1 X86.846 Y108.31 E35.19671
G1 X86.903 Y108.272 E35.19922
G1 X87.034 Y108.201 E35.20467
G1 X87.094 Y108.175 E35.20706
G1 X87.169 Y108.148 E35.20998
G1 X87.312 Y108.111 E35.21538
G1 X87.454 Y108.092 E35.22062
G1 X87.584 Y108.09 E35.22538
G1 X87.647 Y108.096 E35.2277
G1 X87.756 Y108.121 E35.23179
G1 X87.858 Y108.161 E35.2358
G1 X87.913 Y108.188 E35.23804
G1 X88.398 Y108.48 E35.25875
G1 X88.56 Y108.553 E35.26525
G1 X88.712 Y108.6 E35.27107
G1 X88.851 Y108.617 E35.27619
G1 X88.951 Y108.617 E35.27985
G1 X89.063 Y108.593 E35.28404
G1 X89.145 Y108.561 E35.28726
G1 X89.228 Y108.513 E35.29077
G1 X89.29 Y108.466 E35.29362
G1 X89.35 Y108.41 E35.29662
G1 X89.444 Y108.29 E35.3022
G1 X89.511 Y108.153 E35.30778
G1 X89.54 Y108.071 E35.31096
G1 X89.562 Y107.936 E35.31596
G1 X89.563 Y107.837 E35.31959
G1 X89.547 Y107.741 E35.32315
G1 X89.506 Y107.611 E35.32813
G1 X89.469 Y107.535 E35.33123
G1 X89.386 Y107.406 E35.33684
G1 X89.291 Y107.295 E35.34218
G1 X89.147 Y107.16 E35.34941
G1 X89.055 Y107.086 E35.35373
G1 X88.87 Y106.962 E35.36187
G1 X88.682 Y106.863 E35.36965
G1 X88.481 Y106.782 E35.37758
G1 X88.259 Y106.72 E35.38601
G1 X88.127 Y106.694 E35.39093
G1 X87.87 Y106.663 E35.4004
G1 X87.514 Y106.653 E35.41343
G1 X87.246 Y106.67 E35.42326
G1 X86.887 Y106.733 E35.43659
G1 X86.762 Y106.767 E35.44133
G1 X86.532 Y106.847 E35.45024
G1 X86.313 Y106.949 E35.45908
G1 X86.104 Y107.072 E35.46795
G1 X85.906 Y107.214 E35.47687
G1 X85.726 Y107.375 E35.4857
G1 X85.639 Y107.464 E35.49025
G1 X85.556 Y107.558 E35.49484
G1 X85.407 Y107.754 E35.50385
G1 X85.274 Y107.968 E35.51307
G1 X85.213 Y108.085 E35.5179
G1 X85.157 Y108.204 E35.52271
G1 X85.106 Y108.329 E35.52765
G1 X85.058 Y108.46 E35.53275
G1 X85.015 Y108.6 E35.53811
G1 X84.93 Y108.948 E35.55122
G1 X84.879 Y109.283 E35.56361
G1 X84.85 Y109.634 E35.5765
G1 X84.844 Y110.176 E35.59633
G1 X84.884 Y110.684 E35.61497
G1 X84.922 Y110.942 E35.62451
G1 X84.984 Y111.223 E35.63504
G1 X85.02 Y111.36 E35.64022
G1 X85.105 Y111.605 E35.64971
G1 X85.155 Y111.727 E35.65454
G1 X85.266 Y111.949 E35.66362
G1 X85.395 Y112.162 E35.67273
G1 X85.544 Y112.358 E35.68173
G1 X85.706 Y112.536 E35.69054
G1 X85.799 Y112.623 E35.6952
G1 X85.985 Y112.776 E35.70401
G1 X86.187 Y112.91 E35.71288
G1 X86.4 Y113.023 E35.7217
G1 X86.514 Y113.073 E35.72626
G1 X86.63 Y113.118 E35.73081
G1 X86.748 Y113.157 E35.73535
G1 X86.933 Y113.206 E35.74236
G1 X87.159 Y113.246 E35.75075
G1 X87.295 Y113.261 E35.75576
G1 X87.438 Y113.271 E35.761
G1 X87.718 Y113.274 E35.77125
G1 F3000 E30.77125
G0 F6000 X87.466 Y117.416
G0 X87.619 Y117.388
G0 X87.682 Y117.379
G0 X117.799 Y112.459
G0 X117.865 Y112.449
G0 X117.785 Y113.322
G1 F3000 E35.77125
G1 F1200 X118.198 Y113.296 E35.78639
G1 X118.315 Y113.294 E35.79067
G1 X120.027 Y113.296 E35.85331
G1 X120.104 Y113.287 E35.85614
G1 X120.201 Y113.276 E35.85946
G1 X120.342 Y113.238 E35.86384
G1 X120.368 Y113.226 E35.86418
G1 X120.43 Y113.198 E35.86562
G1 X120.519 Y113.142 E35.86838
G1 X120.595 Y113.075 E35.87054
G1 X120.606 Y113.058
G1 X120.656 Y112.986 E35.87236
G1 X120.7 Y112.901 E35.87441
G1 X120.727 Y112.825 E35.8763
G1 X120.746 Y112.748 E35.87842
G1 X120.758 Y112.668 E35.88084
G1 X120.76 Y112.575 E35.884
G1 X120.76 Y112.564 E35.8844
G1 X120.755 Y112.498 E35.88682
G1 X120.742 Y112.423 E35.8896
G1 X120.717 Y112.331 E35.89309
G1 X120.672 Y112.232 E35.89707
G1 X120.621 Y112.156 E35.90042
G1 X120.542 Y112.075 E35.90456
G1 X120.461 Y112.019 E35.90816
G1 X120.362 Y111.97 E35.9122
G1 X120.286 Y111.941 E35.91518
G1 X120.132 Y111.904 E35.92097
G1 X120.033 Y111.888 E35.92464
G1 X119.784 Y111.867 E35.93378
G1 X119.522 Y111.865 E35.94337
G1 X119.296 Y111.882 E35.95166
G1 X119.122 Y111.894 E35.95804
G1 X118.98 Y111.905 E35.96325
G1 X118.944 Y111.908 E35.96458
G1 X118.921 Y111.91 E35.96542
G1 X118.942 Y111.865
G1 X118.974 Y111.811
G1 X119.102 Y111.62 E35.97174
G1 X119.202 Y111.478 E35.97701
G1 X120.444 Y109.72 E36.05576
G1 X120.503 Y109.624 E36.05988
G1 X120.582 Y109.468 E36.06628
G1 X120.641 Y109.308 E36.07252
G1 X120.674 Y109.114 E36.07972
G1 X120.677 Y108.947 E36.08583
G1 X120.667 Y108.856 E36.08918
G1 X120.633 Y108.71 E36.09466
G1 X120.576 Y108.575 E36.10003
G1 X120.509 Y108.48 E36.10428
G1 X120.441 Y108.412 E36.1078
G1 X120.353 Y108.352 E36.11169
G1 X120.265 Y108.311 E36.11525
G1 X120.146 Y108.281 E36.11974
G1 X119.987 Y108.263 E36.12559
G1 X117.823 Y108.265 E36.20476
G1 X117.632 Y108.283 E36.21178
G1 X117.486 Y108.317 E36.21727
G1 X117.415 Y108.342 E36.22002
G1 X117.327 Y108.383 E36.22357
G1 X117.239 Y108.445 E36.22751
G1 X117.168 Y108.514 E36.23113
G1 X117.107 Y108.608 E36.23523
G1 X117.073 Y108.678 E36.23808
G1 X117.046 Y108.757 E36.24113
G1 X117.019 Y108.906 E36.24667
G1 X117.018 Y109.062 E36.25238
G1 X117.048 Y109.207 E36.2578
G1 X117.084 Y109.298 E36.26138
G1 X117.135 Y109.388 E36.26516
G1 X117.197 Y109.462 E36.2687
G1 X117.278 Y109.528 E36.27252
G1 X117.362 Y109.579 E36.27611
G1 X117.492 Y109.628 E36.2812
G1 X117.576 Y109.65 E36.28437
G1 X117.722 Y109.672 E36.28978
G1 X118.081 Y109.699 E36.30295
G1 X118.205 Y109.701 E36.30748
G1 X118.208 Y109.701 E36.30759
G1 X118.34 Y109.698 E36.31242
G1 X118.777 Y109.658 E36.32848
G1 X118.609 Y109.891 E36.33142
G1 X118.562 Y109.956 E36.33174
G1 X118.561 Y109.958 E36.33182
G1 X117.25 Y111.77 E36.41365
G1 X117.135 Y111.961 E36.42181
G1 X117.057 Y112.126 E36.42848
G1 X117.008 Y112.282 E36.43447
G1 X116.99 Y112.369 E36.43772
G1 X116.978 Y112.519 E36.44322
G1 X116.978 Y112.612 E36.44662
G1 X117.006 Y112.774 E36.45264
G1 X117.054 Y112.916 E36.45812
G1 X117.09 Y112.989 E36.4611
G1 X117.138 Y113.064 E36.46436
G1 X117.206 Y113.146 E36.46826
G1 X117.291 Y113.214 E36.47224
G1 X117.373 Y113.262 E36.47571
G1 X117.475 Y113.296 E36.47965
G1 X117.573 Y113.316 E36.48331
G1 X117.785 Y113.322 E36.49107
G0 F6000 X117.099 Y114.552
;TYPE:SKIN
G1 F1200 X116.87 Y114.697 E36.50098
G1 X115.956 Y115.193 E36.53903
G1 X115.623 Y115.339 E36.55233
G1 X115.78 Y115.002 E36.56593
G1 X116.182 Y113.962 E36.60673
G1 X116.283 Y114.084 E36.61252
G1 X116.547 Y114.297 E36.62493
G1 X116.83 Y114.461 E36.6369
G1 X117.099 Y114.552 E36.64729
G0 F6000 X116.541 Y114.674
G1 F1200 X116.218 Y114.351 E36.664
G0 F6000 X116.045 Y114.8
G1 F1200 X116.137 Y114.892 E36.66876
G0 F6000 X115.479 Y115.479
;TYPE:SKIN
G1 F1200 X115.314 Y115.625 E36.67642
G1 X115.147 Y115.769 E36.68409
G0 F6000 X115.108 Y115.73
G0 X117.282 Y114.482
G0 X117.359 Y114.559
G1 F1200 X117.554 Y114.443 E36.69191
G1 F3000 E31.69191
G0 F6000 X117.865 Y112.449
G0 X118.051 Y112.126
G0 X119.671 Y109.329
G0 X119.703 Y109.277
G0 X120.883 Y110.927
;TYPE:SKIN
G1 F3000 E36.69191
G1 F1200 X121.099 Y111.143 E36.70309
G0 F6000 X121.358 Y110.78
G1 F1200 X121.14 Y110.562 E36.71437
G0 F6000 X121.391 Y110.191
G1 F1200 X121.601 Y110.4 E36.72521
G0 F6000 X121.834 Y110.011
G1 F1200 X121.594 Y109.771 E36.73763
G0 F6000 X119.086 Y106.954
G1 F1200 X117.76 Y106.955 E36.78614
G1 X117.42 Y106.987 E36.79863
G1 X117.12 Y107.057 E36.80991
G1 X116.919 Y107.127 E36.81769
G1 X116.785 Y107.191 E36.82313
G1 X116.766 Y107.178 E36.82397
G1 X116.467 Y107.051 E36.83585
G1 X116.159 Y106.968 E36.84752
G1 X115.719 Y106.944 E36.86365
G1 X115.3 Y107.044 E36.87941
G1 X114.956 Y107.194 E36.89314
G1 X114.576 Y107.484 E36.91062
G1 X114.558 Y107.505 E36.91164
G1 X114.453 Y107.414 E36.91672
G1 X114.258 Y107.277 E36.92544
G1 X113.973 Y107.128 E36.9372
G1 X113.754 Y107.051 E36.9457
G1 X113.536 Y106.993 E36.95395
G1 X113.22 Y106.953 E36.9656
G1 X112.981 Y106.953 E36.97435
G1 X112.749 Y106.98 E36.98289
G1 X112.458 Y107.049 E36.99384
G1 X112.138 Y107.187 E37.00659
G1 X112.135 Y107.189 E37.00672
G1 X111.926 Y107.087 E37.01523
G1 X111.611 Y106.981 E37.02739
G1 X111.24 Y106.947 E37.04102
G1 X110.899 Y106.972 E37.05353
G1 X110.567 Y107.069 E37.06618
G1 X110.3 Y107.191 E37.07692
G1 X110.186 Y107.265 E37.08189
G1 X110.083 Y107.197 E37.08641
G1 X109.79 Y107.058 E37.09827
G1 X109.48 Y106.98 E37.10997
G1 X109.199 Y106.945 E37.12033
G1 X108.912 Y106.959 E37.13084
G1 X108.566 Y107.026 E37.14373
G1 X108.3 Y107.124 E37.15411
G1 X108.006 Y107.283 E37.16633
G1 X107.778 Y107.459 E37.17687
G1 X107.574 Y107.67 E37.18761
G1 X107.375 Y107.941 E37.19991
G1 X107.235 Y108.267 E37.21289
G1 X107.144 Y108.61 E37.22587
G1 X107.14 Y109.085 E37.24325
G1 X107.212 Y109.46 E37.25722
G1 X107.323 Y109.784 E37.26975
G1 X107.384 Y109.912 E37.27494
G1 X107.271 Y109.882 E37.27922
G1 X107.141 Y109.863 E37.28403
G1 X107.143 Y109.576 E37.29453
G1 X107.087 Y109.024 E37.31483
G1 X107.015 Y108.628 E37.32955
G1 X106.917 Y108.26 E37.34348
G1 X106.793 Y107.907 E37.35717
G1 X106.638 Y107.568 E37.37081
G1 X106.46 Y107.25 E37.38414
G1 X106.24 Y106.934 E37.39823
G1 X105.92 Y106.573 E37.41588
G1 X105.674 Y106.35 E37.42803
G1 X105.413 Y106.159 E37.43986
G1 X105.248 Y106.055 E37.447
G1 X105.084 Y105.965 E37.45384
G1 X104.902 Y105.878 E37.46122
G1 X104.62 Y105.773 E37.47223
G1 X104.424 Y105.711 E37.47975
G1 X104.083 Y105.633 E37.49255
G1 X103.725 Y105.576 E37.50581
G1 X103.447 Y105.545 E37.51605
G1 X103.011 Y105.52 E37.53202
G1 X101.618 Y105.505 E37.58299
G1 X101.313 Y105.534 E37.5942
G1 X100.964 Y105.61 E37.60727
G1 X100.661 Y105.733 E37.61923
G1 X100.441 Y105.851 E37.62837
G1 X100.187 Y106.041 E37.63997
G1 X100.104 Y106.127 E37.64434
G1 X100.023 Y106.053 E37.64836
G1 X99.838 Y105.91 E37.65691
G1 X99.557 Y105.74 E37.66893
G1 X99.372 Y105.65 E37.67646
G1 X99.197 Y105.577 E37.68339
G1 X99.006 Y105.513 E37.69076
G1 X98.726 Y105.44 E37.70135
G1 X98.509 Y105.398 E37.70944
G1 X98.138 Y105.353 E37.72311
G1 X97.78 Y105.341 E37.73621
G1 X97.55 Y105.342 E37.74463
G1 X97.107 Y105.384 E37.76091
G1 X96.618 Y105.486 E37.77918
G1 X96.266 Y105.609 E37.79283
G1 X95.951 Y105.756 E37.80554
G1 X95.828 Y105.829 E37.81078
G1 X95.761 Y105.781 E37.81379
G1 X95.467 Y105.637 E37.82577
G1 X95.137 Y105.55 E37.83826
G1 X94.825 Y105.513 E37.84975
G1 X94.55 Y105.512 E37.85981
G1 X94.116 Y105.521 E37.87569
G1 X91.454 Y105.524 E37.97309
G1 X90.886 Y105.481 E37.99393
G1 X90.657 Y105.493 E38.00232
G1 X90.439 Y105.524 E38.01037
G1 X90.191 Y105.594 E38.0198
G1 X89.943 Y105.699 E38.02965
G1 X89.663 Y105.873 E38.04171
G1 X89.636 Y105.898 E38.04306
G1 X89.543 Y105.836 E38.04715
G1 X89.233 Y105.672 E38.05998
G1 X88.902 Y105.54 E38.07302
G1 X88.563 Y105.446 E38.08589
G1 X88.333 Y105.399 E38.09448
G1 X87.966 Y105.355 E38.108
G1 X87.493 Y105.343 E38.12531
G1 X87.092 Y105.366 E38.14001
G1 X86.601 Y105.453 E38.15825
G1 X86.375 Y105.514 E38.16682
G1 X86.038 Y105.632 E38.17988
G1 X85.667 Y105.809 E38.19492
G1 X85.669 Y105.052 E38.22261
G1 X85.694 Y104.967 E38.22586
G1 X85.712 Y104.942 E38.22698
G1 X85.741 Y104.912 E38.22851
G1 X85.8 Y104.886 E38.23087
G1 X85.883 Y104.876 E38.23393
G1 X86.01 Y104.869 E38.23858
G1 X110.095 Y103.431 E39.12133
G1 X110.748 Y103.45 E39.14523
G1 X111.512 Y103.509 E39.17326
G1 X112.812 Y103.72 E39.22145
G1 X113.494 Y103.882 E39.24709
G1 X114.191 Y104.088 E39.27368
G1 X115.205 Y104.463 E39.31324
G1 X115.933 Y104.794 E39.3425
G1 X116.747 Y105.228 E39.37625
G1 X117.424 Y105.649 E39.40541
G1 X118.13 Y106.148 E39.43704
G1 X118.909 Y106.788 E39.47393
G1 X119.086 Y106.954 E39.48281
G0 F6000 X117.978 Y106.778
G1 F1200 X116.493 Y105.292 E39.55967
G0 F6000 X115.258 Y104.68
G1 F1200 X117.391 Y106.812 E39.67001
G0 F6000 X116.901 Y106.945
G1 F1200 X114.255 Y104.298 E39.80694
G0 F6000 X113.366 Y104.032
G1 F1200 X116.123 Y106.79 E39.94961
G0 F6000 X115.521 Y106.809
G1 F1200 X112.57 Y103.859 E40.10227
G0 F6000 X111.827 Y103.738
G1 F1200 X115.049 Y106.96 E40.26898
G0 F6000 X114.663 Y107.195
G1 F1200 X111.122 Y103.655 E40.45217
G0 F6000 X110.462 Y103.618
G1 F1200 X113.7 Y106.855 E40.61968
G0 F6000 X112.999 Y106.776
G1 F1200 X109.845 Y103.622 E40.78287
G0 F6000 X109.258 Y103.658
G1 F1200 X112.465 Y106.865 E40.9488
G0 F6000 X111.855 Y106.877
G1 F1200 X108.67 Y103.692 E41.11359
G0 F6000 X108.084 Y103.728
G1 F1200 X111.133 Y106.778 E41.27138
G0 F6000 X110.607 Y106.873
G1 F1200 X107.496 Y103.762 E41.43234
G0 F6000 X106.909 Y103.798
G1 F1200 X110.142 Y107.031 E41.59962
G0 F6000 X109.264 Y106.775
G1 F1200 X106.321 Y103.832 E41.75189
G0 F6000 X105.735 Y103.868
G1 F1200 X108.688 Y106.821 E41.90468
G0 F6000 X108.214 Y106.969
G1 F1200 X105.147 Y103.902 E42.06337
G0 F6000 X104.56 Y103.938
G1 F1200 X107.823 Y107.201 E42.2322
G0 F6000 X107.497 Y107.497
G1 F1200 X103.973 Y103.973 E42.41454
G0 F6000 X103.386 Y104.008
G1 F1200 X105.211 Y105.834 E42.50899
G0 F6000 X104.244 Y105.489
G1 F1200 X102.799 Y104.043 E42.58378
G0 F6000 X102.211 Y104.078
G1 F1200 X103.506 Y105.373 E42.65078
G0 F6000 X102.852 Y105.341
G1 F1200 X101.624 Y104.113 E42.71432
G0 F6000 X101.037 Y104.148
G1 F1200 X102.223 Y105.334 E42.77568
G0 F6000 X101.596 Y105.329
G1 F1200 X100.45 Y104.183 E42.83498
G0 F6000 X99.862 Y104.218
G1 F1200 X101.053 Y105.409 E42.8966
G0 F6000 X100.592 Y105.57
G1 F1200 X99.275 Y104.253 E42.96474
G0 F6000 X98.688 Y104.289
G1 F1200 X100.205 Y105.805 E43.04321
G0 F6000 X99.153 Y105.375
G1 F1200 X98.101 Y104.323 E43.09764
G0 F6000 X97.514 Y104.359
G1 F1200 X98.356 Y105.201 E43.14121
G0 F6000 X97.697 Y105.164
G1 F1200 X96.926 Y104.393 E43.1811
G0 F6000 X96.339 Y104.429
G1 F1200 X97.116 Y105.205 E43.22127
G0 F6000 X96.598 Y105.31
G1 F1200 X95.752 Y104.463 E43.26507
G0 F6000 X95.165 Y104.499
G1 F1200 X96.138 Y105.472 E43.31542
G0 F6000 X95.509 Y105.465
G1 F1200 X94.577 Y104.533 E43.36364
G0 F6000 X93.99 Y104.569
G1 F1200 X94.757 Y105.335 E43.4033
G0 F6000 X94.142 Y105.343
G1 F1200 X93.403 Y104.604 E43.44153
G0 F6000 X92.816 Y104.639
G1 F1200 X93.521 Y105.344 E43.47801
G0 F6000 X92.9 Y105.345
G1 F1200 X92.229 Y104.674 E43.51273
G0 F6000 X91.641 Y104.709
G1 F1200 X92.278 Y105.346 E43.54569
G0 F6000 X91.657 Y105.346
G1 F1200 X91.054 Y104.744 E43.57686
G0 F6000 X91.001 Y105.312
G1 F1200 X90.467 Y104.779 E43.60447
G0 F6000 X90.414 Y105.348
G1 F1200 X89.88 Y104.814 E43.6321
G0 F6000 X89.292 Y104.849
G1 F1200 X89.948 Y105.504 E43.66601
G0 F6000 X89.363 Y105.542
G1 F1200 X88.705 Y104.884 E43.70006
G0 F6000 X88.439 Y105.24
G1 F1200 X88.118 Y104.919 E43.71667
G0 F6000 X87.749 Y105.172
G1 F1200 X87.531 Y104.954 E43.72795
G0 F6000 X87.14 Y105.185
G1 F1200 X86.944 Y104.989 E43.73809
G0 F6000 X86.604 Y105.271
G1 F1200 X86.356 Y105.024 E43.75089
G0 F6000 X86.124 Y105.414
G1 F1200 X85.844 Y105.134 E43.76538
G1 F3000 E38.76538
G0 F6000 X85.887 Y102.678
G0 X85.983 Y102.709
G0 X110.097 Y110.366
G0 X110.159 Y110.386
G0 X106.706 Y107.328
G1 F3000 E43.76538
G1 F1200 X107.225 Y107.847 E43.79223
G0 F6000 X107.536 Y110.025
;TYPE:SKIN
G1 F1200 X107.851 Y110.34 E43.80038
G1 F3000 E38.80038
G0 F6000 X110.159 Y110.386
G0 X110.239 Y110.375
G0 X119.62 Y109.141
G0 X119.686 Y109.133
G0 X119.286 Y107.152
G1 F3000 E43.80038
G1 F1200 X119.481 Y107.035 E43.81141
G1 F3000 E38.81141
G0 F6000 X119.686 Y109.133
G0 X110.173 Y111
G0 X110.794 Y114.585
;TYPE:SKIN
G1 F3000 E43.81141
G1 F1200 X110.75 Y115.013 E43.82716
G1 X110.767 Y115.309 E43.838
G1 X110.846 Y115.662 E43.85124
G1 X110.971 Y115.979 E43.8637
G1 X111.099 Y116.212 E43.87343
G1 X111.288 Y116.465 E43.88498
G1 X111.324 Y116.502 E43.88687
G1 X111.174 Y116.521 E43.8924
G1 X109.836 Y116.566 E43.94138
G1 X109.075 Y116.533 E43.96925
G1 X85.804 Y115.111 E44.82224
G1 X85.737 Y115.086 E44.82485
G1 X85.725 Y115.074 E44.82547
G1 X85.696 Y115.034 E44.82728
G1 X85.675 Y114.984 E44.82927
G1 X85.665 Y114.932 E44.8312
G1 X85.656 Y114.821 E44.83528
G1 X85.658 Y114.112 E44.86122
G1 X85.828 Y114.202 E44.86826
G1 X86.014 Y114.284 E44.87569
G1 X86.188 Y114.351 E44.88251
G1 X86.374 Y114.413 E44.88969
G1 X86.65 Y114.486 E44.90013
G1 X86.974 Y114.544 E44.91217
G1 X87.178 Y114.565 E44.91968
G1 X87.384 Y114.581 E44.92724
G1 X87.744 Y114.584 E44.94041
G1 X87.961 Y114.573 E44.94836
G1 X88.306 Y114.536 E44.96105
G1 X88.632 Y114.468 E44.97324
G1 X88.818 Y114.417 E44.98029
G1 X89.011 Y114.354 E44.98772
G1 X89.324 Y114.218 E45.00021
G1 X89.635 Y114.042 E45.01328
G1 X89.901 Y113.846 E45.02537
G1 X90.07 Y113.697 E45.03361
G1 X90.285 Y113.468 E45.0451
G1 X90.426 Y113.29 E45.05341
G1 X90.61 Y113.001 E45.06595
G1 X90.741 Y112.72 E45.07729
G1 X90.752 Y112.824 E45.08111
G1 X90.806 Y113.097 E45.0913
G1 X90.944 Y113.425 E45.10432
G1 X91.136 Y113.723 E45.11729
G1 X91.394 Y113.981 E45.13063
G1 X91.673 Y114.176 E45.14309
G1 X92.009 Y114.325 E45.15654
G1 X92.249 Y114.389 E45.16562
G1 X92.479 Y114.428 E45.17416
G1 X92.793 Y114.442 E45.18566
G1 X93.067 Y114.421 E45.19571
G1 X93.413 Y114.335 E45.20876
G1 X93.722 Y114.2 E45.22109
G1 X94.01 Y114.007 E45.23378
G1 X94.279 Y113.741 E45.24762
G1 X94.487 Y113.437 E45.26109
G1 X94.605 Y113.188 E45.27117
G1 X94.694 Y112.909 E45.28189
G1 X94.739 Y112.707 E45.28946
G1 X94.837 Y113.019 E45.30143
G1 X94.991 Y113.321 E45.31383
G1 X95.116 Y113.504 E45.32194
G1 X95.235 Y113.649 E45.3288
G1 X95.37 Y113.791 E45.33597
G1 X95.547 Y113.945 E45.34455
G1 X95.791 Y114.111 E45.35535
G1 X95.956 Y114.203 E45.36226
G1 X96.122 Y114.283 E45.369
G1 X96.286 Y114.35 E45.37548
G1 X96.469 Y114.412 E45.38255
G1 X96.734 Y114.48 E45.39256
G1 X96.927 Y114.522 E45.39979
G1 X97.128 Y114.553 E45.40723
G1 X97.466 Y114.582 E45.41964
G1 X97.843 Y114.587 E45.43343
G1 X98.216 Y114.565 E45.4471
G1 X98.539 Y114.514 E45.45907
G1 X98.75 Y114.469 E45.46696
G1 X99.053 Y114.372 E45.4786
G1 X99.258 Y114.292 E45.48665
G1 X99.551 Y114.142 E45.4987
G1 X99.728 Y114.035 E45.50626
G1 X99.896 Y113.917 E45.51377
G1 X100.077 Y113.767 E45.52237
G1 X100.183 Y113.895 E45.52845
G1 X100.44 Y114.116 E45.54086
G1 X100.744 Y114.285 E45.55358
G1 X101.097 Y114.41 E45.56728
G1 X101.508 Y114.447 E45.58238
G1 X101.726 Y114.445 E45.59036
G1 X102.083 Y114.41 E45.60348
G1 X102.248 Y114.403 E45.60952
G1 X103.079 Y114.409 E45.63993
G1 X103.603 Y114.372 E45.65914
G1 X103.824 Y114.34 E45.66731
G1 X104.16 Y114.278 E45.67981
