( Made using CamBam - http://www.cambam.co.uk )
( G107 4/9/2021 6:22:27 PM )
( T6 : 6.0 )
G21 G90 G64 G40
G0 Z3.0
( T6 : 6.0 )
T6 M6
( Pocket1 )
G17
M3 S1000
G0 X4.35502 Y-5.4
G0 Z1.0
G1 F30.0 Z0.0
G1 F100.0 X10.6 Z-0.10901
G1 Y-6.6 Z-0.12995
G1 X-10.6 Z-0.5
G1 Y-5.4
G1 X10.6
G1 Y-6.6
G1 X-10.6
G1 F30.0 Y-9.0
G1 F100.0 X-13.0
G1 Y-3.0
G1 X13.0
G1 Y-9.0
G1 X-10.6
G0 Z3.0
G0 X4.35502 Y-5.4
G0 Z0.5
G1 F30.0 Z-0.5
G1 F100.0 X10.6 Z-0.60901
G1 Y-6.6 Z-0.62995
G1 X-10.6 Z-1.0
G1 Y-5.4
G1 X10.6
G1 Y-6.6
G1 X-10.6
G1 F30.0 Y-9.0
G1 F100.0 X-13.0
G1 Y-3.0
G1 X13.0
G1 Y-9.0
G1 X-10.6
G0 Z3.0
G0 X4.35502 Y-5.4
G0 Z0.0
G1 F30.0 Z-1.0
G1 F100.0 X10.6 Z-1.10901
G1 Y-6.6 Z-1.12995
G1 X-10.6 Z-1.5
G1 Y-5.4
G1 X10.6
G1 Y-6.6
G1 X-10.6
G1 F30.0 Y-9.0
G1 F100.0 X-13.0
G1 Y-3.0
G1 X13.0
G1 Y-9.0
G1 X-10.6
G0 Z3.0
G0 X4.35502 Y-5.4
G0 Z-0.5
G1 F30.0 Z-1.5
G1 F100.0 X10.6 Z-1.60901
G1 Y-6.6 Z-1.62995
G1 X-10.6 Z-2.0
G1 Y-5.4
G1 X10.6
G1 Y-6.6
G1 X-10.6
G1 F30.0 Y-9.0
G1 F100.0 X-13.0
G1 Y-3.0
G1 X13.0
G1 Y-9.0
G1 X-10.6
G0 Z3.0
G0 X4.35502 Y-5.4
G0 Z-1.0
G1 F30.0 Z-2.0
G1 F100.0 X10.6 Z-2.10901
G1 Y-6.6 Z-2.12995
G1 X-10.6 Z-2.5
G1 Y-5.4
G1 X10.6
G1 Y-6.6
G1 X-10.6
G1 F30.0 Y-9.0
G1 F100.0 X-13.0
G1 Y-3.0
G1 X13.0
G1 Y-9.0
G1 X-10.6
G0 Z3.0
G0 X4.35502 Y-5.4
G0 Z-1.5
G1 F30.0 Z-2.5
G1 F100.0 X10.6 Z-2.60901
G1 Y-6.6 Z-2.62995
G1 X-10.6 Z-3.0
G1 Y-5.4
G1 X10.6
G1 Y-6.6
G1 X-10.6
G1 F30.0 Y-9.0
G1 F100.0 X-13.0
G1 Y-3.0
G1 X13.0
G1 Y-9.0
G1 X-10.6
G0 Z3.0
G0 X4.35502 Y-5.4
G0 Z-2.0
G1 F30.0 Z-3.0
G1 F100.0 X10.6 Z-3.10901
G1 Y-6.6 Z-3.12995
G1 X-10.6 Z-3.5
G1 Y-5.4
G1 X10.6
G1 Y-6.6
G1 X-10.6
G1 F30.0 Y-9.0
G1 F100.0 X-13.0
G1 Y-3.0
G1 X13.0
G1 Y-9.0
G1 X-10.6
G0 Z3.0
G0 X4.35502 Y-5.4
G0 Z-2.5
G1 F30.0 Z-3.5
G1 F100.0 X10.6 Z-3.60901
G1 Y-6.6 Z-3.62995
G1 X-10.6 Z-4.0
G1 Y-5.4
G1 X10.6
G1 Y-6.6
G1 X-10.6
G1 F30.0 Y-9.0
G1 F100.0 X-13.0
G1 Y-3.0
G1 X13.0
G1 Y-9.0
G1 X-10.6
G0 Z3.0
G0 X4.35502 Y-5.4
G0 Z-3.0
G1 F30.0 Z-4.0
G1 F100.0 X10.6 Z-4.10901
G1 Y-6.6 Z-4.12995
G1 X-10.6 Z-4.5
G1 Y-5.4
G1 X10.6
G1 Y-6.6
G1 X-10.6
G1 F30.0 Y-9.0
G1 F100.0 X-13.0
G1 Y-3.0
G1 X13.0
G1 Y-9.0
G1 X-10.6
G0 Z3.0
G0 X4.35502 Y-5.4
G0 Z-3.5
G1 F30.0 Z-4.5
G1 F100.0 X10.6 Z-4.60901
G1 Y-6.6 Z-4.62995
G1 X-10.6 Z-5.0
G1 Y-5.4
G1 X10.6
G1 Y-6.6
G1 X-10.6
G1 F30.0 Y-9.0
G1 F100.0 X-13.0
G1 Y-3.0
G1 X13.0
G1 Y-9.0
G1 X-10.6
G0 Z3.0
G0 X4.35502 Y-5.4
G0 Z-4.0
G1 F30.0 Z-5.0
G1 F100.0 X10.6 Z-5.10901
G1 Y-6.6 Z-5.12995
G1 X-10.6 Z-5.5
G1 Y-5.4
G1 X10.6
G1 Y-6.6
G1 X-10.6
G1 F30.0 Y-9.0
G1 F100.0 X-13.0
G1 Y-3.0
G1 X13.0
G1 Y-9.0
G1 X-10.6
G0 Z3.0
G0 X4.35502 Y-5.4
G0 Z-4.5
G1 F30.0 Z-5.5
G1 F100.0 X10.6 Z-5.60901
G1 Y-6.6 Z-5.62995
G1 X-10.6 Z-6.0
G1 Y-5.4
G1 X10.6
G1 Y-6.6
G1 X-10.6
G1 F30.0 Y-9.0
G1 F100.0 X-13.0
G1 Y-3.0
G1 X13.0
G1 Y-9.0
G1 X-10.6
G0 Z3.0
G0 X4.35502 Y-5.4
G0 Z-5.0
G1 F30.0 Z-6.0
G1 F100.0 X10.6 Z-6.10901
G1 Y-6.6 Z-6.12995
G1 X-10.6 Z-6.5
G1 Y-5.4
G1 X10.6
G1 Y-6.6
G1 X-10.6
G1 F30.0 Y-9.0
G1 F100.0 X-13.0
G1 Y-3.0
G1 X13.0
G1 Y-9.0
G1 X-10.6
G0 Z3.0
G0 X4.35502 Y-5.4
G0 Z-5.5
G1 F30.0 Z-6.5
G1 F100.0 X10.6 Z-6.60901
G1 Y-6.6 Z-6.62995
G1 X-10.6 Z-7.0
G1 Y-5.4
G1 X10.6
G1 Y-6.6
G1 X-10.6
G1 F30.0 Y-9.0
G1 F100.0 X-13.0
G1 Y-3.0
G1 X13.0
G1 Y-9.0
G1 X-10.6
G0 Z3.0
G0 X4.35502 Y-5.4
G0 Z-6.0
G1 F30.0 Z-7.0
G1 F100.0 X10.6 Z-7.10901
G1 Y-6.6 Z-7.12995
G1 X-10.6 Z-7.5
G1 Y-5.4
G1 X10.6
G1 Y-6.6
G1 X-10.6
G1 F30.0 Y-9.0
G1 F100.0 X-13.0
G1 Y-3.0
G1 X13.0
G1 Y-9.0
G1 X-10.6
G0 Z3.0
G0 X4.35502 Y-5.4
G0 Z-6.5
G1 F30.0 Z-7.5
G1 F100.0 X10.6 Z-7.60901
G1 Y-6.6 Z-7.62995
G1 X-10.6 Z-8.0
G1 Y-5.4
G1 X10.6
G1 Y-6.6
G1 X-10.6
G1 F30.0 Y-9.0
G1 F100.0 X-13.0
G1 Y-3.0
G1 X13.0
G1 Y-9.0
G1 X-10.6
G0 Z3.0
M5
M30
