( Made using CamBam - http://www.cambam.co.uk )
( mp1-50-9_6mm 3/29/2021 6:07:13 PM )
( T5 : 1.5 )
G21 G90 G64 G40
G0 Z3.0
( T5 : 1.5 )
T5 M6
( Drill2 )
G17
M3 S1000
G0 X-9.0 Y3.0
G0 Z3.0
G0 X-8.95 Y3.0
G0 Z1.0
G1 F150.0 Z0.0
G2 F350.0 X-9.025 Y2.9567 Z-0.13333 I-0.05 J0.0
G2 Y3.0433 Z-0.26667 I0.025 J0.0433
G2 X-8.95 Y3.0 Z-0.4 I0.025 J-0.0433
G2 X-9.025 Y2.9567 Z-0.53333 I-0.05 J0.0
G2 Y3.0433 Z-0.66667 I0.025 J0.0433
G2 X-8.95 Y3.0 Z-0.8 I0.025 J-0.0433
G2 X-9.025 Y2.9567 Z-0.93333 I-0.05 J0.0
G2 Y3.0433 Z-1.06667 I0.025 J0.0433
G2 X-8.95 Y3.0 Z-1.2 I0.025 J-0.0433
G2 X-9.025 Y2.9567 Z-1.33333 I-0.05 J0.0
G2 Y3.0433 Z-1.46667 I0.025 J0.0433
G2 X-8.95 Y3.0 Z-1.6 I0.025 J-0.0433
G2 X-9.025 Y2.9567 Z-1.73333 I-0.05 J0.0
G2 Y3.0433 Z-1.86667 I0.025 J0.0433
G2 X-8.95 Y3.0 Z-2.0 I0.025 J-0.0433
G2 X-9.025 Y2.9567 Z-2.13333 I-0.05 J0.0
G2 Y3.0433 Z-2.26667 I0.025 J0.0433
G2 X-8.95 Y3.0 Z-2.4 I0.025 J-0.0433
G2 X-9.025 Y2.9567 Z-2.53333 I-0.05 J0.0
G2 Y3.0433 Z-2.66667 I0.025 J0.0433
G2 X-8.95 Y3.0 Z-2.8 I0.025 J-0.0433
G2 X-9.025 Y2.9567 Z-2.93333 I-0.05 J0.0
G2 Y3.0433 Z-3.06667 I0.025 J0.0433
G2 X-8.95 Y3.0 Z-3.2 I0.025 J-0.0433
G2 X-9.025 Y2.9567 Z-3.33333 I-0.05 J0.0
G2 Y3.0433 Z-3.46667 I0.025 J0.0433
G2 X-8.95 Y3.0 Z-3.6 I0.025 J-0.0433
G2 X-9.025 Y2.9567 Z-3.73333 I-0.05 J0.0
G2 Y3.0433 Z-3.86667 I0.025 J0.0433
G2 X-8.95 Y3.0 Z-4.0 I0.025 J-0.0433
G2 X-9.025 Y2.9567 Z-4.13333 I-0.05 J0.0
G2 Y3.0433 Z-4.26667 I0.025 J0.0433
G2 X-8.95 Y3.0 Z-4.4 I0.025 J-0.0433
G2 X-9.025 Y2.9567 Z-4.53333 I-0.05 J0.0
G2 Y3.0433 Z-4.66667 I0.025 J0.0433
G2 X-8.95 Y3.0 Z-4.8 I0.025 J-0.0433
G2 X-9.025 Y2.9567 Z-4.93333 I-0.05 J0.0
G2 Y3.0433 Z-5.06667 I0.025 J0.0433
G2 X-8.95 Y3.0 Z-5.2 I0.025 J-0.0433
G2 X-9.025 Y2.9567 Z-5.33333 I-0.05 J0.0
G2 Y3.0433 Z-5.46667 I0.025 J0.0433
G2 X-8.95 Y3.0 Z-5.6 I0.025 J-0.0433
G2 X-9.025 Y2.9567 Z-5.73333 I-0.05 J0.0
G2 Y3.0433 Z-5.86667 I0.025 J0.0433
G2 X-8.95 Y3.0 Z-6.0 I0.025 J-0.0433
G2 X-9.025 Y2.9567 Z-6.13333 I-0.05 J0.0
G2 Y3.0433 Z-6.26667 I0.025 J0.0433
G2 X-8.95 Y3.0 Z-6.4 I0.025 J-0.0433
G2 X-9.025 Y2.9567 Z-6.53333 I-0.05 J0.0
G2 Y3.0433 Z-6.66667 I0.025 J0.0433
G2 X-8.95 Y3.0 Z-6.8 I0.025 J-0.0433
G2 X-9.025 Y2.9567 Z-6.93333 I-0.05 J0.0
G2 Y3.0433 Z-7.06667 I0.025 J0.0433
G2 X-8.95 Y3.0 Z-7.2 I0.025 J-0.0433
G2 X-9.025 Y2.9567 Z-7.33333 I-0.05 J0.0
G2 Y3.0433 Z-7.46667 I0.025 J0.0433
G2 X-8.95 Y3.0 Z-7.6 I0.025 J-0.0433
G2 X-9.025 Y2.9567 Z-7.73333 I-0.05 J0.0
G2 Y3.0433 Z-7.86667 I0.025 J0.0433
G2 X-8.95 Y3.0 Z-8.0 I0.025 J-0.0433
G2 X-9.025 Y2.9567 Z-8.13333 I-0.05 J0.0
G2 Y3.0433 Z-8.26667 I0.025 J0.0433
G2 X-8.95 Y3.0 Z-8.4 I0.025 J-0.0433
G2 X-9.025 Y2.9567 Z-8.53333 I-0.05 J0.0
G2 Y3.0433 Z-8.66667 I0.025 J0.0433
G2 X-8.95 Y3.0 Z-8.8 I0.025 J-0.0433
G2 X-9.025 Y2.9567 Z-8.93333 I-0.05 J0.0
G2 Y3.0433 Z-9.06667 I0.025 J0.0433
G2 X-8.95 Y3.0 Z-9.2 I0.025 J-0.0433
G2 X-9.025 Y2.9567 Z-9.33333 I-0.05 J0.0
G2 Y3.0433 Z-9.46667 I0.025 J0.0433
G2 X-8.95 Y3.0 Z-9.6 I0.025 J-0.0433
G2 X-9.025 Y2.9567 Z-9.73333 I-0.05 J0.0
G2 Y3.0433 Z-9.86667 I0.025 J0.0433
G2 X-8.95 Y3.0 Z-10.0 I0.025 J-0.0433
G2 X-9.025 Y2.9567 I-0.05 J0.0
G2 Y3.0433 I0.025 J0.0433
G2 X-8.95 Y3.0 I0.025 J-0.0433
G0 Z3.0
G0 Y21.0
G0 Z1.0
G1 F150.0 Z0.0
G2 F350.0 X-9.025 Y20.9567 Z-0.13333 I-0.05 J0.0
G2 Y21.0433 Z-0.26667 I0.025 J0.0433
G2 X-8.95 Y21.0 Z-0.4 I0.025 J-0.0433
G2 X-9.025 Y20.9567 Z-0.53333 I-0.05 J0.0
G2 Y21.0433 Z-0.66667 I0.025 J0.0433
G2 X-8.95 Y21.0 Z-0.8 I0.025 J-0.0433
G2 X-9.025 Y20.9567 Z-0.93333 I-0.05 J0.0
G2 Y21.0433 Z-1.06667 I0.025 J0.0433
G2 X-8.95 Y21.0 Z-1.2 I0.025 J-0.0433
G2 X-9.025 Y20.9567 Z-1.33333 I-0.05 J0.0
G2 Y21.0433 Z-1.46667 I0.025 J0.0433
G2 X-8.95 Y21.0 Z-1.6 I0.025 J-0.0433
G2 X-9.025 Y20.9567 Z-1.73333 I-0.05 J0.0
G2 Y21.0433 Z-1.86667 I0.025 J0.0433
G2 X-8.95 Y21.0 Z-2.0 I0.025 J-0.0433
G2 X-9.025 Y20.9567 Z-2.13333 I-0.05 J0.0
G2 Y21.0433 Z-2.26667 I0.025 J0.0433
G2 X-8.95 Y21.0 Z-2.4 I0.025 J-0.0433
G2 X-9.025 Y20.9567 Z-2.53333 I-0.05 J0.0
G2 Y21.0433 Z-2.66667 I0.025 J0.0433
G2 X-8.95 Y21.0 Z-2.8 I0.025 J-0.0433
G2 X-9.025 Y20.9567 Z-2.93333 I-0.05 J0.0
G2 Y21.0433 Z-3.06667 I0.025 J0.0433
G2 X-8.95 Y21.0 Z-3.2 I0.025 J-0.0433
G2 X-9.025 Y20.9567 Z-3.33333 I-0.05 J0.0
G2 Y21.0433 Z-3.46667 I0.025 J0.0433
G2 X-8.95 Y21.0 Z-3.6 I0.025 J-0.0433
G2 X-9.025 Y20.9567 Z-3.73333 I-0.05 J0.0
G2 Y21.0433 Z-3.86667 I0.025 J0.0433
G2 X-8.95 Y21.0 Z-4.0 I0.025 J-0.0433
G2 X-9.025 Y20.9567 Z-4.13333 I-0.05 J0.0
G2 Y21.0433 Z-4.26667 I0.025 J0.0433
G2 X-8.95 Y21.0 Z-4.4 I0.025 J-0.0433
G2 X-9.025 Y20.9567 Z-4.53333 I-0.05 J0.0
G2 Y21.0433 Z-4.66667 I0.025 J0.0433
G2 X-8.95 Y21.0 Z-4.8 I0.025 J-0.0433
G2 X-9.025 Y20.9567 Z-4.93333 I-0.05 J0.0
G2 Y21.0433 Z-5.06667 I0.025 J0.0433
G2 X-8.95 Y21.0 Z-5.2 I0.025 J-0.0433
G2 X-9.025 Y20.9567 Z-5.33333 I-0.05 J0.0
G2 Y21.0433 Z-5.46667 I0.025 J0.0433
G2 X-8.95 Y21.0 Z-5.6 I0.025 J-0.0433
G2 X-9.025 Y20.9567 Z-5.73333 I-0.05 J0.0
G2 Y21.0433 Z-5.86667 I0.025 J0.0433
G2 X-8.95 Y21.0 Z-6.0 I0.025 J-0.0433
G2 X-9.025 Y20.9567 Z-6.13333 I-0.05 J0.0
G2 Y21.0433 Z-6.26667 I0.025 J0.0433
G2 X-8.95 Y21.0 Z-6.4 I0.025 J-0.0433
G2 X-9.025 Y20.9567 Z-6.53333 I-0.05 J0.0
G2 Y21.0433 Z-6.66667 I0.025 J0.0433
G2 X-8.95 Y21.0 Z-6.8 I0.025 J-0.0433
G2 X-9.025 Y20.9567 Z-6.93333 I-0.05 J0.0
G2 Y21.0433 Z-7.06667 I0.025 J0.0433
G2 X-8.95 Y21.0 Z-7.2 I0.025 J-0.0433
G2 X-9.025 Y20.9567 Z-7.33333 I-0.05 J0.0
G2 Y21.0433 Z-7.46667 I0.025 J0.0433
G2 X-8.95 Y21.0 Z-7.6 I0.025 J-0.0433
G2 X-9.025 Y20.9567 Z-7.73333 I-0.05 J0.0
G2 Y21.0433 Z-7.86667 I0.025 J0.0433
G2 X-8.95 Y21.0 Z-8.0 I0.025 J-0.0433
G2 X-9.025 Y20.9567 Z-8.13333 I-0.05 J0.0
G2 Y21.0433 Z-8.26667 I0.025 J0.0433
G2 X-8.95 Y21.0 Z-8.4 I0.025 J-0.0433
G2 X-9.025 Y20.9567 Z-8.53333 I-0.05 J0.0
G2 Y21.0433 Z-8.66667 I0.025 J0.0433
G2 X-8.95 Y21.0 Z-8.8 I0.025 J-0.0433
G2 X-9.025 Y20.9567 Z-8.93333 I-0.05 J0.0
G2 Y21.0433 Z-9.06667 I0.025 J0.0433
G2 X-8.95 Y21.0 Z-9.2 I0.025 J-0.0433
G2 X-9.025 Y20.9567 Z-9.33333 I-0.05 J0.0
G2 Y21.0433 Z-9.46667 I0.025 J0.0433
G2 X-8.95 Y21.0 Z-9.6 I0.025 J-0.0433
G2 X-9.025 Y20.9567 Z-9.73333 I-0.05 J0.0
G2 Y21.0433 Z-9.86667 I0.025 J0.0433
G2 X-8.95 Y21.0 Z-10.0 I0.025 J-0.0433
G2 X-9.025 Y20.9567 I-0.05 J0.0
G2 Y21.0433 I0.025 J0.0433
G2 X-8.95 Y21.0 I0.025 J-0.0433
G0 Z3.0
G0 X9.05
G0 Z1.0
G1 F150.0 Z0.0
G2 F350.0 X8.975 Y20.9567 Z-0.13333 I-0.05 J0.0
G2 Y21.0433 Z-0.26667 I0.025 J0.0433
G2 X9.05 Y21.0 Z-0.4 I0.025 J-0.0433
G2 X8.975 Y20.9567 Z-0.53333 I-0.05 J0.0
G2 Y21.0433 Z-0.66667 I0.025 J0.0433
G2 X9.05 Y21.0 Z-0.8 I0.025 J-0.0433
G2 X8.975 Y20.9567 Z-0.93333 I-0.05 J0.0
G2 Y21.0433 Z-1.06667 I0.025 J0.0433
G2 X9.05 Y21.0 Z-1.2 I0.025 J-0.0433
G2 X8.975 Y20.9567 Z-1.33333 I-0.05 J0.0
G2 Y21.0433 Z-1.46667 I0.025 J0.0433
G2 X9.05 Y21.0 Z-1.6 I0.025 J-0.0433
G2 X8.975 Y20.9567 Z-1.73333 I-0.05 J0.0
G2 Y21.0433 Z-1.86667 I0.025 J0.0433
G2 X9.05 Y21.0 Z-2.0 I0.025 J-0.0433
G2 X8.975 Y20.9567 Z-2.13333 I-0.05 J0.0
G2 Y21.0433 Z-2.26667 I0.025 J0.0433
G2 X9.05 Y21.0 Z-2.4 I0.025 J-0.0433
G2 X8.975 Y20.9567 Z-2.53333 I-0.05 J0.0
G2 Y21.0433 Z-2.66667 I0.025 J0.0433
G2 X9.05 Y21.0 Z-2.8 I0.025 J-0.0433
G2 X8.975 Y20.9567 Z-2.93333 I-0.05 J0.0
G2 Y21.0433 Z-3.06667 I0.025 J0.0433
G2 X9.05 Y21.0 Z-3.2 I0.025 J-0.0433
G2 X8.975 Y20.9567 Z-3.33333 I-0.05 J0.0
G2 Y21.0433 Z-3.46667 I0.025 J0.0433
G2 X9.05 Y21.0 Z-3.6 I0.025 J-0.0433
G2 X8.975 Y20.9567 Z-3.73333 I-0.05 J0.0
G2 Y21.0433 Z-3.86667 I0.025 J0.0433
G2 X9.05 Y21.0 Z-4.0 I0.025 J-0.0433
G2 X8.975 Y20.9567 Z-4.13333 I-0.05 J0.0
G2 Y21.0433 Z-4.26667 I0.025 J0.0433
G2 X9.05 Y21.0 Z-4.4 I0.025 J-0.0433
G2 X8.975 Y20.9567 Z-4.53333 I-0.05 J0.0
G2 Y21.0433 Z-4.66667 I0.025 J0.0433
G2 X9.05 Y21.0 Z-4.8 I0.025 J-0.0433
G2 X8.975 Y20.9567 Z-4.93333 I-0.05 J0.0
G2 Y21.0433 Z-5.06667 I0.025 J0.0433
G2 X9.05 Y21.0 Z-5.2 I0.025 J-0.0433
G2 X8.975 Y20.9567 Z-5.33333 I-0.05 J0.0
G2 Y21.0433 Z-5.46667 I0.025 J0.0433
G2 X9.05 Y21.0 Z-5.6 I0.025 J-0.0433
G2 X8.975 Y20.9567 Z-5.73333 I-0.05 J0.0
G2 Y21.0433 Z-5.86667 I0.025 J0.0433
G2 X9.05 Y21.0 Z-6.0 I0.025 J-0.0433
G2 X8.975 Y20.9567 Z-6.13333 I-0.05 J0.0
G2 Y21.0433 Z-6.26667 I0.025 J0.0433
G2 X9.05 Y21.0 Z-6.4 I0.025 J-0.0433
G2 X8.975 Y20.9567 Z-6.53333 I-0.05 J0.0
G2 Y21.0433 Z-6.66667 I0.025 J0.0433
G2 X9.05 Y21.0 Z-6.8 I0.025 J-0.0433
G2 X8.975 Y20.9567 Z-6.93333 I-0.05 J0.0
G2 Y21.0433 Z-7.06667 I0.025 J0.0433
G2 X9.05 Y21.0 Z-7.2 I0.025 J-0.0433
G2 X8.975 Y20.9567 Z-7.33333 I-0.05 J0.0
G2 Y21.0433 Z-7.46667 I0.025 J0.0433
G2 X9.05 Y21.0 Z-7.6 I0.025 J-0.0433
G2 X8.975 Y20.9567 Z-7.73333 I-0.05 J0.0
G2 Y21.0433 Z-7.86667 I0.025 J0.0433
G2 X9.05 Y21.0 Z-8.0 I0.025 J-0.0433
G2 X8.975 Y20.9567 Z-8.13333 I-0.05 J0.0
G2 Y21.0433 Z-8.26667 I0.025 J0.0433
G2 X9.05 Y21.0 Z-8.4 I0.025 J-0.0433
G2 X8.975 Y20.9567 Z-8.53333 I-0.05 J0.0
G2 Y21.0433 Z-8.66667 I0.025 J0.0433
G2 X9.05 Y21.0 Z-8.8 I0.025 J-0.0433
G2 X8.975 Y20.9567 Z-8.93333 I-0.05 J0.0
G2 Y21.0433 Z-9.06667 I0.025 J0.0433
G2 X9.05 Y21.0 Z-9.2 I0.025 J-0.0433
G2 X8.975 Y20.9567 Z-9.33333 I-0.05 J0.0
G2 Y21.0433 Z-9.46667 I0.025 J0.0433
G2 X9.05 Y21.0 Z-9.6 I0.025 J-0.0433
G2 X8.975 Y20.9567 Z-9.73333 I-0.05 J0.0
G2 Y21.0433 Z-9.86667 I0.025 J0.0433
G2 X9.05 Y21.0 Z-10.0 I0.025 J-0.0433
G2 X8.975 Y20.9567 I-0.05 J0.0
G2 Y21.0433 I0.025 J0.0433
G2 X9.05 Y21.0 I0.025 J-0.0433
G0 Z3.0
G0 Y3.0
G0 Z1.0
G1 F150.0 Z0.0
G2 F350.0 X8.975 Y2.9567 Z-0.13333 I-0.05 J0.0
G2 Y3.0433 Z-0.26667 I0.025 J0.0433
G2 X9.05 Y3.0 Z-0.4 I0.025 J-0.0433
G2 X8.975 Y2.9567 Z-0.53333 I-0.05 J0.0
G2 Y3.0433 Z-0.66667 I0.025 J0.0433
G2 X9.05 Y3.0 Z-0.8 I0.025 J-0.0433
G2 X8.975 Y2.9567 Z-0.93333 I-0.05 J0.0
G2 Y3.0433 Z-1.06667 I0.025 J0.0433
G2 X9.05 Y3.0 Z-1.2 I0.025 J-0.0433
G2 X8.975 Y2.9567 Z-1.33333 I-0.05 J0.0
G2 Y3.0433 Z-1.46667 I0.025 J0.0433
G2 X9.05 Y3.0 Z-1.6 I0.025 J-0.0433
G2 X8.975 Y2.9567 Z-1.73333 I-0.05 J0.0
G2 Y3.0433 Z-1.86667 I0.025 J0.0433
G2 X9.05 Y3.0 Z-2.0 I0.025 J-0.0433
G2 X8.975 Y2.9567 Z-2.13333 I-0.05 J0.0
G2 Y3.0433 Z-2.26667 I0.025 J0.0433
G2 X9.05 Y3.0 Z-2.4 I0.025 J-0.0433
G2 X8.975 Y2.9567 Z-2.53333 I-0.05 J0.0
G2 Y3.0433 Z-2.66667 I0.025 J0.0433
G2 X9.05 Y3.0 Z-2.8 I0.025 J-0.0433
G2 X8.975 Y2.9567 Z-2.93333 I-0.05 J0.0
G2 Y3.0433 Z-3.06667 I0.025 J0.0433
G2 X9.05 Y3.0 Z-3.2 I0.025 J-0.0433
G2 X8.975 Y2.9567 Z-3.33333 I-0.05 J0.0
G2 Y3.0433 Z-3.46667 I0.025 J0.0433
G2 X9.05 Y3.0 Z-3.6 I0.025 J-0.0433
G2 X8.975 Y2.9567 Z-3.73333 I-0.05 J0.0
G2 Y3.0433 Z-3.86667 I0.025 J0.0433
G2 X9.05 Y3.0 Z-4.0 I0.025 J-0.0433
G2 X8.975 Y2.9567 Z-4.13333 I-0.05 J0.0
G2 Y3.0433 Z-4.26667 I0.025 J0.0433
G2 X9.05 Y3.0 Z-4.4 I0.025 J-0.0433
G2 X8.975 Y2.9567 Z-4.53333 I-0.05 J0.0
G2 Y3.0433 Z-4.66667 I0.025 J0.0433
G2 X9.05 Y3.0 Z-4.8 I0.025 J-0.0433
G2 X8.975 Y2.9567 Z-4.93333 I-0.05 J0.0
G2 Y3.0433 Z-5.06667 I0.025 J0.0433
G2 X9.05 Y3.0 Z-5.2 I0.025 J-0.0433
G2 X8.975 Y2.9567 Z-5.33333 I-0.05 J0.0
G2 Y3.0433 Z-5.46667 I0.025 J0.0433
G2 X9.05 Y3.0 Z-5.6 I0.025 J-0.0433
G2 X8.975 Y2.9567 Z-5.73333 I-0.05 J0.0
G2 Y3.0433 Z-5.86667 I0.025 J0.0433
G2 X9.05 Y3.0 Z-6.0 I0.025 J-0.0433
G2 X8.975 Y2.9567 Z-6.13333 I-0.05 J0.0
G2 Y3.0433 Z-6.26667 I0.025 J0.0433
G2 X9.05 Y3.0 Z-6.4 I0.025 J-0.0433
G2 X8.975 Y2.9567 Z-6.53333 I-0.05 J0.0
G2 Y3.0433 Z-6.66667 I0.025 J0.0433
G2 X9.05 Y3.0 Z-6.8 I0.025 J-0.0433
G2 X8.975 Y2.9567 Z-6.93333 I-0.05 J0.0
G2 Y3.0433 Z-7.06667 I0.025 J0.0433
G2 X9.05 Y3.0 Z-7.2 I0.025 J-0.0433
G2 X8.975 Y2.9567 Z-7.33333 I-0.05 J0.0
G2 Y3.0433 Z-7.46667 I0.025 J0.0433
G2 X9.05 Y3.0 Z-7.6 I0.025 J-0.0433
G2 X8.975 Y2.9567 Z-7.73333 I-0.05 J0.0
G2 Y3.0433 Z-7.86667 I0.025 J0.0433
G2 X9.05 Y3.0 Z-8.0 I0.025 J-0.0433
G2 X8.975 Y2.9567 Z-8.13333 I-0.05 J0.0
G2 Y3.0433 Z-8.26667 I0.025 J0.0433
G2 X9.05 Y3.0 Z-8.4 I0.025 J-0.0433
G2 X8.975 Y2.9567 Z-8.53333 I-0.05 J0.0
G2 Y3.0433 Z-8.66667 I0.025 J0.0433
G2 X9.05 Y3.0 Z-8.8 I0.025 J-0.0433
G2 X8.975 Y2.9567 Z-8.93333 I-0.05 J0.0
G2 Y3.0433 Z-9.06667 I0.025 J0.0433
G2 X9.05 Y3.0 Z-9.2 I0.025 J-0.0433
G2 X8.975 Y2.9567 Z-9.33333 I-0.05 J0.0
G2 Y3.0433 Z-9.46667 I0.025 J0.0433
G2 X9.05 Y3.0 Z-9.6 I0.025 J-0.0433
G2 X8.975 Y2.9567 Z-9.73333 I-0.05 J0.0
G2 Y3.0433 Z-9.86667 I0.025 J0.0433
G2 X9.05 Y3.0 Z-10.0 I0.025 J-0.0433
G2 X8.975 Y2.9567 I-0.05 J0.0
G2 Y3.0433 I0.025 J0.0433
G2 X9.05 Y3.0 I0.025 J-0.0433
G0 Z3.0
M5
M30
