( Made using CamBam - http://www.cambam.co.uk )
( ramka_022 3/18/2021 12:50:12 PM )
( T5 : 1.5 )
G21 G90 G64 G40
G0 Z3.0
( T5 : 1.5 )
T5 M6
( Drill1 )
G17
M3 S1000
G0 X3.3 Y49.7
G0 Z3.0
G0 X3.7275 Y49.7
G0 Z1.0
G1 F150.0 Z0.0
G2 F350.0 X3.08625 Y49.32977 Z-0.13333 I-0.4275 J0.0
G2 Y50.07023 Z-0.26667 I0.21375 J0.37023
G2 X3.7275 Y49.7 Z-0.4 I0.21375 J-0.37023
G2 X3.08625 Y49.32977 Z-0.53333 I-0.4275 J0.0
G2 Y50.07023 Z-0.66667 I0.21375 J0.37023
G2 X3.7275 Y49.7 Z-0.8 I0.21375 J-0.37023
G2 X3.08625 Y49.32977 Z-0.93333 I-0.4275 J0.0
G2 Y50.07023 Z-1.06667 I0.21375 J0.37023
G2 X3.7275 Y49.7 Z-1.2 I0.21375 J-0.37023
G2 X3.08625 Y49.32977 Z-1.33333 I-0.4275 J0.0
G2 Y50.07023 Z-1.46667 I0.21375 J0.37023
G2 X3.7275 Y49.7 Z-1.6 I0.21375 J-0.37023
G2 X3.08625 Y49.32977 Z-1.73333 I-0.4275 J0.0
G2 Y50.07023 Z-1.86667 I0.21375 J0.37023
G2 X3.7275 Y49.7 Z-2.0 I0.21375 J-0.37023
G2 X3.08625 Y49.32977 Z-2.13333 I-0.4275 J0.0
G2 Y50.07023 Z-2.26667 I0.21375 J0.37023
G2 X3.7275 Y49.7 Z-2.4 I0.21375 J-0.37023
G2 X3.08625 Y49.32977 Z-2.53333 I-0.4275 J0.0
G2 Y50.07023 Z-2.66667 I0.21375 J0.37023
G2 X3.7275 Y49.7 Z-2.8 I0.21375 J-0.37023
G2 X3.08625 Y49.32977 Z-2.93333 I-0.4275 J0.0
G2 Y50.07023 Z-3.06667 I0.21375 J0.37023
G2 X3.7275 Y49.7 Z-3.2 I0.21375 J-0.37023
G2 X3.08625 Y49.32977 Z-3.33333 I-0.4275 J0.0
G2 Y50.07023 Z-3.46667 I0.21375 J0.37023
G2 X3.7275 Y49.7 Z-3.6 I0.21375 J-0.37023
G2 X3.08625 Y49.32977 Z-3.73333 I-0.4275 J0.0
G2 Y50.07023 Z-3.86667 I0.21375 J0.37023
G2 X3.7275 Y49.7 Z-4.0 I0.21375 J-0.37023
G2 X3.08625 Y49.32977 Z-4.13333 I-0.4275 J0.0
G2 Y50.07023 Z-4.26667 I0.21375 J0.37023
G2 X3.7275 Y49.7 Z-4.4 I0.21375 J-0.37023
G2 X3.08625 Y49.32977 Z-4.53333 I-0.4275 J0.0
G2 Y50.07023 Z-4.66667 I0.21375 J0.37023
G2 X3.7275 Y49.7 Z-4.8 I0.21375 J-0.37023
G2 X3.08625 Y49.32977 Z-4.93333 I-0.4275 J0.0
G2 Y50.07023 Z-5.06667 I0.21375 J0.37023
G2 X3.7275 Y49.7 Z-5.2 I0.21375 J-0.37023
G2 X3.08625 Y49.32977 I-0.4275 J0.0
G2 Y50.07023 I0.21375 J0.37023
G2 X3.7275 Y49.7 I0.21375 J-0.37023
G0 Z3.0
G0 X3.8275 Y9.4
G0 Z1.0
G1 F150.0 Z0.0
G2 F350.0 X3.18625 Y9.02977 Z-0.13333 I-0.4275 J0.0
G2 Y9.77023 Z-0.26667 I0.21375 J0.37023
G2 X3.8275 Y9.4 Z-0.4 I0.21375 J-0.37023
G2 X3.18625 Y9.02977 Z-0.53333 I-0.4275 J0.0
G2 Y9.77023 Z-0.66667 I0.21375 J0.37023
G2 X3.8275 Y9.4 Z-0.8 I0.21375 J-0.37023
G2 X3.18625 Y9.02977 Z-0.93333 I-0.4275 J0.0
G2 Y9.77023 Z-1.06667 I0.21375 J0.37023
G2 X3.8275 Y9.4 Z-1.2 I0.21375 J-0.37023
G2 X3.18625 Y9.02977 Z-1.33333 I-0.4275 J0.0
G2 Y9.77023 Z-1.46667 I0.21375 J0.37023
G2 X3.8275 Y9.4 Z-1.6 I0.21375 J-0.37023
G2 X3.18625 Y9.02977 Z-1.73333 I-0.4275 J0.0
G2 Y9.77023 Z-1.86667 I0.21375 J0.37023
G2 X3.8275 Y9.4 Z-2.0 I0.21375 J-0.37023
G2 X3.18625 Y9.02977 Z-2.13333 I-0.4275 J0.0
G2 Y9.77023 Z-2.26667 I0.21375 J0.37023
G2 X3.8275 Y9.4 Z-2.4 I0.21375 J-0.37023
G2 X3.18625 Y9.02977 Z-2.53333 I-0.4275 J0.0
G2 Y9.77023 Z-2.66667 I0.21375 J0.37023
G2 X3.8275 Y9.4 Z-2.8 I0.21375 J-0.37023
G2 X3.18625 Y9.02977 Z-2.93333 I-0.4275 J0.0
G2 Y9.77023 Z-3.06667 I0.21375 J0.37023
G2 X3.8275 Y9.4 Z-3.2 I0.21375 J-0.37023
G2 X3.18625 Y9.02977 Z-3.33333 I-0.4275 J0.0
G2 Y9.77023 Z-3.46667 I0.21375 J0.37023
G2 X3.8275 Y9.4 Z-3.6 I0.21375 J-0.37023
G2 X3.18625 Y9.02977 Z-3.73333 I-0.4275 J0.0
G2 Y9.77023 Z-3.86667 I0.21375 J0.37023
G2 X3.8275 Y9.4 Z-4.0 I0.21375 J-0.37023
G2 X3.18625 Y9.02977 Z-4.13333 I-0.4275 J0.0
G2 Y9.77023 Z-4.26667 I0.21375 J0.37023
G2 X3.8275 Y9.4 Z-4.4 I0.21375 J-0.37023
G2 X3.18625 Y9.02977 Z-4.53333 I-0.4275 J0.0
G2 Y9.77023 Z-4.66667 I0.21375 J0.37023
G2 X3.8275 Y9.4 Z-4.8 I0.21375 J-0.37023
G2 X3.18625 Y9.02977 Z-4.93333 I-0.4275 J0.0
G2 Y9.77023 Z-5.06667 I0.21375 J0.37023
G2 X3.8275 Y9.4 Z-5.2 I0.21375 J-0.37023
G2 X3.18625 Y9.02977 I-0.4275 J0.0
G2 Y9.77023 I0.21375 J0.37023
G2 X3.8275 Y9.4 I0.21375 J-0.37023
G0 Z3.0
G0 X48.4275 Y3.3
G0 Z1.0
G1 F150.0 Z0.0
G2 F350.0 X47.78625 Y2.92977 Z-0.13333 I-0.4275 J0.0
G2 Y3.67023 Z-0.26667 I0.21375 J0.37023
G2 X48.4275 Y3.3 Z-0.4 I0.21375 J-0.37023
G2 X47.78625 Y2.92977 Z-0.53333 I-0.4275 J0.0
G2 Y3.67023 Z-0.66667 I0.21375 J0.37023
G2 X48.4275 Y3.3 Z-0.8 I0.21375 J-0.37023
G2 X47.78625 Y2.92977 Z-0.93333 I-0.4275 J0.0
G2 Y3.67023 Z-1.06667 I0.21375 J0.37023
G2 X48.4275 Y3.3 Z-1.2 I0.21375 J-0.37023
G2 X47.78625 Y2.92977 Z-1.33333 I-0.4275 J0.0
G2 Y3.67023 Z-1.46667 I0.21375 J0.37023
G2 X48.4275 Y3.3 Z-1.6 I0.21375 J-0.37023
G2 X47.78625 Y2.92977 Z-1.73333 I-0.4275 J0.0
G2 Y3.67023 Z-1.86667 I0.21375 J0.37023
G2 X48.4275 Y3.3 Z-2.0 I0.21375 J-0.37023
G2 X47.78625 Y2.92977 Z-2.13333 I-0.4275 J0.0
G2 Y3.67023 Z-2.26667 I0.21375 J0.37023
G2 X48.4275 Y3.3 Z-2.4 I0.21375 J-0.37023
G2 X47.78625 Y2.92977 Z-2.53333 I-0.4275 J0.0
G2 Y3.67023 Z-2.66667 I0.21375 J0.37023
G2 X48.4275 Y3.3 Z-2.8 I0.21375 J-0.37023
G2 X47.78625 Y2.92977 Z-2.93333 I-0.4275 J0.0
G2 Y3.67023 Z-3.06667 I0.21375 J0.37023
G2 X48.4275 Y3.3 Z-3.2 I0.21375 J-0.37023
G2 X47.78625 Y2.92977 Z-3.33333 I-0.4275 J0.0
G2 Y3.67023 Z-3.46667 I0.21375 J0.37023
G2 X48.4275 Y3.3 Z-3.6 I0.21375 J-0.37023
G2 X47.78625 Y2.92977 Z-3.73333 I-0.4275 J0.0
G2 Y3.67023 Z-3.86667 I0.21375 J0.37023
G2 X48.4275 Y3.3 Z-4.0 I0.21375 J-0.37023
G2 X47.78625 Y2.92977 Z-4.13333 I-0.4275 J0.0
G2 Y3.67023 Z-4.26667 I0.21375 J0.37023
G2 X48.4275 Y3.3 Z-4.4 I0.21375 J-0.37023
G2 X47.78625 Y2.92977 Z-4.53333 I-0.4275 J0.0
G2 Y3.67023 Z-4.66667 I0.21375 J0.37023
G2 X48.4275 Y3.3 Z-4.8 I0.21375 J-0.37023
G2 X47.78625 Y2.92977 Z-4.93333 I-0.4275 J0.0
G2 Y3.67023 Z-5.06667 I0.21375 J0.37023
G2 X48.4275 Y3.3 Z-5.2 I0.21375 J-0.37023
G2 X47.78625 Y2.92977 I-0.4275 J0.0
G2 Y3.67023 I0.21375 J0.37023
G2 X48.4275 Y3.3 I0.21375 J-0.37023
( Profile1 )
S1000
G0 Z3.0
G0 X10.67177 Y44.87
G0 Z1.0
G1 F150.0 Z0.0
G3 F350.0 X11.67177 Y45.87 Z-0.00264 I0.0 J1.0
G1 Y46.7 Z-0.00403
G3 X7.92177 Y50.45 Z-0.01391 I-3.75 J0.0
G1 X7.37573 Z-0.01483
G2 X6.25356 Y51.14934 Z-0.01716 I0.0 J1.25
G3 X0.62086 Y51.60953 Z-0.02857 I-2.95356 J-1.44934
G3 X0.56846 Y51.52456 Z-0.02873 I0.61075 J-0.4353
G3 X0.25 Y50.24 Z-0.03098 I2.43154 J-1.28456
G1 Y8.9 Z-0.10033
G3 X3.0 Y6.15 Z-0.10758 I2.75 J0.0
G1 X9.6 Z-0.11865
G2 X11.85 Y3.9 Z-0.12458 I0.0 J-2.25
G1 Y2.9 Z-0.12625
G3 X14.6 Y0.15 Z-0.1335 I2.75 J0.0
G1 X48.54 Z-0.19044
G3 X48.70463 Y0.16829 Z-0.19072 I0.0 J0.75
G3 X49.43946 Y6.16915 Z-0.20394 I-0.70463 J3.13171
G2 X48.75 Y7.28643 Z-0.20626 I0.56054 J1.11727
G1 Y8.6 Z-0.20846
G3 X46.0 Y11.35 Z-0.21571 I-2.75 J0.0
G1 X44.95 Z-0.21747
G3 X43.95 Y10.35 Z-0.2201 I0.0 J-1.0
G1 Y9.95 Z-0.22078
G3 X44.95 Y8.95 Z-0.22341 I1.0 J0.0
G1 X46.02 Z-0.22521
G2 Y8.75 Z-0.22573 I0.0 J-0.1
G1 X44.95 Z-0.22753
G3 X43.95 Y7.75 Z-0.23016 I0.0 J-1.0
G1 Y6.6 Z-0.23209
G3 X44.28082 Y5.97807 Z-0.23332 I0.75 J0.0
G2 X44.8322 Y4.94153 Z-0.23537 I-0.69863 J-1.03654
G1 Y3.9 Z-0.23712
G2 X43.5822 Y2.65 Z-0.24041 I-1.25 J0.0
G1 X15.6 Z-0.28736
G2 X14.35 Y3.9 Z-0.29065 I0.0 J1.25
G1 Y4.6106 Z-0.29184
G3 X10.4 Y8.85 Z-0.30254 I-4.25 J0.0
G1 X11.12919 Z-0.30376
G3 X12.12919 Y9.85 Z-0.3064 I0.0 J1.0
G1 Y9.86709 Z-0.30643
G3 X10.27618 Y12.46669 Z-0.31214 I-2.75 J0.0
G3 X8.95 Y11.52138 Z-0.31533 I-0.32618 J-0.94531
G1 Y11.1 Z-0.31604
G2 X8.75 Z-0.31657 I-0.1 J0.0
G1 Y12.15 Z-0.31833
G3 X7.75 Y13.15 Z-0.32096 I-1.0 J0.0
G1 X7.1 Z-0.32205
G3 X6.56439 Y12.925 Z-0.32305 I0.0 J-0.75
G2 X5.67171 Y12.55 Z-0.32472 I-0.89268 J0.875
G1 X4.15 Z-0.32728
G2 X2.9 Y13.8 Z-0.33057 I0.0 J1.25
G1 Y44.37401 Z-0.38186
G2 X3.44002 Y44.87241 Z-0.38324 I0.5 J0.0
G3 X3.50006 Y44.87 Z-0.38335 I0.06004 J0.74759
G1 X7.75 Z-0.39048
G3 X8.75 Y45.87 Z-0.39311 I0.0 J1.0
G1 Y46.62 Z-0.39437
G2 X8.95 Z-0.3949 I0.1 J0.0
G1 Y45.87 Z-0.39615
G3 X9.95 Y44.87 Z-0.39879 I1.0 J0.0
G1 X10.67177 Z-0.4
G3 X11.67177 Y45.87 Z-0.40264 I0.0 J1.0
G1 Y46.7 Z-0.40403
G3 X7.92177 Y50.45 Z-0.41391 I-3.75 J0.0
G1 X7.37573 Z-0.41483
G2 X6.25356 Y51.14934 Z-0.41716 I0.0 J1.25
G3 X0.62086 Y51.60953 Z-0.42857 I-2.95356 J-1.44934
G3 X0.56846 Y51.52456 Z-0.42873 I0.61075 J-0.4353
G3 X0.25 Y50.24 Z-0.43098 I2.43154 J-1.28456
G1 Y8.9 Z-0.50033
G3 X3.0 Y6.15 Z-0.50758 I2.75 J0.0
G1 X9.6 Z-0.51865
G2 X11.85 Y3.9 Z-0.52458 I0.0 J-2.25
G1 Y2.9 Z-0.52625
G3 X14.6 Y0.15 Z-0.5335 I2.75 J0.0
G1 X48.54 Z-0.59044
G3 X48.70463 Y0.16829 Z-0.59072 I0.0 J0.75
G3 X49.43946 Y6.16915 Z-0.60394 I-0.70463 J3.13171
G2 X48.75 Y7.28643 Z-0.60626 I0.56054 J1.11727
G1 Y8.6 Z-0.60846
G3 X46.0 Y11.35 Z-0.61571 I-2.75 J0.0
G1 X44.95 Z-0.61747
G3 X43.95 Y10.35 Z-0.6201 I0.0 J-1.0
G1 Y9.95 Z-0.62078
G3 X44.95 Y8.95 Z-0.62341 I1.0 J0.0
G1 X46.02 Z-0.62521
G2 Y8.75 Z-0.62573 I0.0 J-0.1
G1 X44.95 Z-0.62753
G3 X43.95 Y7.75 Z-0.63016 I0.0 J-1.0
G1 Y6.6 Z-0.63209
G3 X44.28082 Y5.97807 Z-0.63332 I0.75 J0.0
G2 X44.8322 Y4.94153 Z-0.63537 I-0.69863 J-1.03654
G1 Y3.9 Z-0.63712
G2 X43.5822 Y2.65 Z-0.64041 I-1.25 J0.0
G1 X15.6 Z-0.68736
G2 X14.35 Y3.9 Z-0.69065 I0.0 J1.25
G1 Y4.6106 Z-0.69184
G3 X10.4 Y8.85 Z-0.70254 I-4.25 J0.0
G1 X11.12919 Z-0.70376
G3 X12.12919 Y9.85 Z-0.7064 I0.0 J1.0
G1 Y9.86709 Z-0.70643
G3 X10.27618 Y12.46669 Z-0.71214 I-2.75 J0.0
G3 X8.95 Y11.52138 Z-0.71533 I-0.32618 J-0.94531
G1 Y11.1 Z-0.71604
G2 X8.75 Z-0.71657 I-0.1 J0.0
G1 Y12.15 Z-0.71833
G3 X7.75 Y13.15 Z-0.72096 I-1.0 J0.0
G1 X7.1 Z-0.72205
G3 X6.56439 Y12.925 Z-0.72305 I0.0 J-0.75
G2 X5.67171 Y12.55 Z-0.72472 I-0.89268 J0.875
G1 X4.15 Z-0.72728
G2 X2.9 Y13.8 Z-0.73057 I0.0 J1.25
G1 Y44.37401 Z-0.78186
G2 X3.44002 Y44.87241 Z-0.78324 I0.5 J0.0
G3 X3.50006 Y44.87 Z-0.78335 I0.06004 J0.74759
G1 X7.75 Z-0.79048
G3 X8.75 Y45.87 Z-0.79311 I0.0 J1.0
G1 Y46.62 Z-0.79437
G2 X8.95 Z-0.7949 I0.1 J0.0
G1 Y45.87 Z-0.79615
G3 X9.95 Y44.87 Z-0.79879 I1.0 J0.0
G1 X10.67177 Z-0.8
G3 X11.67177 Y45.87 Z-0.80264 I0.0 J1.0
G1 Y46.7 Z-0.80403
G3 X7.92177 Y50.45 Z-0.81391 I-3.75 J0.0
G1 X7.37573 Z-0.81483
G2 X6.25356 Y51.14934 Z-0.81716 I0.0 J1.25
G3 X0.62086 Y51.60953 Z-0.82857 I-2.95356 J-1.44934
G3 X0.56846 Y51.52456 Z-0.82873 I0.61075 J-0.4353
G3 X0.25 Y50.24 Z-0.83098 I2.43154 J-1.28456
G1 Y8.9 Z-0.90033
G3 X3.0 Y6.15 Z-0.90758 I2.75 J0.0
G1 X9.6 Z-0.91865
G2 X11.85 Y3.9 Z-0.92458 I0.0 J-2.25
G1 Y2.9 Z-0.92625
G3 X14.6 Y0.15 Z-0.9335 I2.75 J0.0
G1 X48.54 Z-0.99044
G3 X48.70463 Y0.16829 Z-0.99072 I0.0 J0.75
G3 X49.43946 Y6.16915 Z-1.00394 I-0.70463 J3.13171
G2 X48.75 Y7.28643 Z-1.00626 I0.56054 J1.11727
G1 Y8.6 Z-1.00846
G3 X46.0 Y11.35 Z-1.01571 I-2.75 J0.0
G1 X44.95 Z-1.01747
G3 X43.95 Y10.35 Z-1.0201 I0.0 J-1.0
G1 Y9.95 Z-1.02078
G3 X44.95 Y8.95 Z-1.02341 I1.0 J0.0
G1 X46.02 Z-1.02521
G2 Y8.75 Z-1.02573 I0.0 J-0.1
G1 X44.95 Z-1.02753
G3 X43.95 Y7.75 Z-1.03016 I0.0 J-1.0
G1 Y6.6 Z-1.03209
G3 X44.28082 Y5.97807 Z-1.03332 I0.75 J0.0
G2 X44.8322 Y4.94153 Z-1.03537 I-0.69863 J-1.03654
G1 Y3.9 Z-1.03712
G2 X43.5822 Y2.65 Z-1.04041 I-1.25 J0.0
G1 X15.6 Z-1.08736
G2 X14.35 Y3.9 Z-1.09065 I0.0 J1.25
G1 Y4.6106 Z-1.09184
G3 X10.4 Y8.85 Z-1.10254 I-4.25 J0.0
G1 X11.12919 Z-1.10376
G3 X12.12919 Y9.85 Z-1.1064 I0.0 J1.0
G1 Y9.86709 Z-1.10643
G3 X10.27618 Y12.46669 Z-1.11214 I-2.75 J0.0
G3 X8.95 Y11.52138 Z-1.11533 I-0.32618 J-0.94531
G1 Y11.1 Z-1.11604
G2 X8.75 Z-1.11657 I-0.1 J0.0
G1 Y12.15 Z-1.11833
G3 X7.75 Y13.15 Z-1.12096 I-1.0 J0.0
G1 X7.1 Z-1.12205
G3 X6.56439 Y12.925 Z-1.12305 I0.0 J-0.75
G2 X5.67171 Y12.55 Z-1.12472 I-0.89268 J0.875
G1 X4.15 Z-1.12728
G2 X2.9 Y13.8 Z-1.13057 I0.0 J1.25
G1 Y44.37401 Z-1.18186
G2 X3.44002 Y44.87241 Z-1.18324 I0.5 J0.0
G3 X3.50006 Y44.87 Z-1.18335 I0.06004 J0.74759
G1 X7.75 Z-1.19048
G3 X8.75 Y45.87 Z-1.19311 I0.0 J1.0
G1 Y46.62 Z-1.19437
G2 X8.95 Z-1.1949 I0.1 J0.0
G1 Y45.87 Z-1.19615
G3 X9.95 Y44.87 Z-1.19879 I1.0 J0.0
G1 X10.67177 Z-1.2
G3 X11.67177 Y45.87 Z-1.20264 I0.0 J1.0
G1 Y46.7 Z-1.20403
G3 X7.92177 Y50.45 Z-1.21391 I-3.75 J0.0
G1 X7.37573 Z-1.21483
G2 X6.25356 Y51.14934 Z-1.21716 I0.0 J1.25
G3 X0.62086 Y51.60953 Z-1.22857 I-2.95356 J-1.44934
G3 X0.56846 Y51.52456 Z-1.22873 I0.61075 J-0.4353
G3 X0.25 Y50.24 Z-1.23098 I2.43154 J-1.28456
G1 Y8.9 Z-1.30033
G3 X3.0 Y6.15 Z-1.30758 I2.75 J0.0
G1 X9.6 Z-1.31865
G2 X11.85 Y3.9 Z-1.32458 I0.0 J-2.25
G1 Y2.9 Z-1.32625
G3 X14.6 Y0.15 Z-1.3335 I2.75 J0.0
G1 X48.54 Z-1.39044
G3 X48.70463 Y0.16829 Z-1.39072 I0.0 J0.75
G3 X49.43946 Y6.16915 Z-1.40394 I-0.70463 J3.13171
G2 X48.75 Y7.28643 Z-1.40626 I0.56054 J1.11727
G1 Y8.6 Z-1.40846
G3 X46.0 Y11.35 Z-1.41571 I-2.75 J0.0
G1 X44.95 Z-1.41747
G3 X43.95 Y10.35 Z-1.4201 I0.0 J-1.0
G1 Y9.95 Z-1.42078
G3 X44.95 Y8.95 Z-1.42341 I1.0 J0.0
G1 X46.02 Z-1.42521
G2 Y8.75 Z-1.42573 I0.0 J-0.1
G1 X44.95 Z-1.42753
G3 X43.95 Y7.75 Z-1.43016 I0.0 J-1.0
G1 Y6.6 Z-1.43209
G3 X44.28082 Y5.97807 Z-1.43332 I0.75 J0.0
G2 X44.8322 Y4.94153 Z-1.43537 I-0.69863 J-1.03654
G1 Y3.9 Z-1.43712
G2 X43.5822 Y2.65 Z-1.44041 I-1.25 J0.0
G1 X15.6 Z-1.48736
G2 X14.35 Y3.9 Z-1.49065 I0.0 J1.25
G1 Y4.6106 Z-1.49184
G3 X10.4 Y8.85 Z-1.50254 I-4.25 J0.0
G1 X11.12919 Z-1.50376
G3 X12.12919 Y9.85 Z-1.5064 I0.0 J1.0
G1 Y9.86709 Z-1.50643
G3 X10.27618 Y12.46669 Z-1.51214 I-2.75 J0.0
G3 X8.95 Y11.52138 Z-1.51533 I-0.32618 J-0.94531
G1 Y11.1 Z-1.51604
G2 X8.75 Z-1.51657 I-0.1 J0.0
G1 Y12.15 Z-1.51833
G3 X7.75 Y13.15 Z-1.52096 I-1.0 J0.0
G1 X7.1 Z-1.52205
G3 X6.56439 Y12.925 Z-1.52305 I0.0 J-0.75
G2 X5.67171 Y12.55 Z-1.52472 I-0.89268 J0.875
G1 X4.15 Z-1.52728
G2 X2.9 Y13.8 Z-1.53057 I0.0 J1.25
G1 Y44.37401 Z-1.58186
G2 X3.44002 Y44.87241 Z-1.58324 I0.5 J0.0
G3 X3.50006 Y44.87 Z-1.58335 I0.06004 J0.74759
G1 X7.75 Z-1.59048
G3 X8.75 Y45.87 Z-1.59311 I0.0 J1.0
G1 Y46.62 Z-1.59437
G2 X8.95 Z-1.5949 I0.1 J0.0
G1 Y45.87 Z-1.59615
G3 X9.95 Y44.87 Z-1.59879 I1.0 J0.0
G1 X10.67177 Z-1.6
G3 X11.67177 Y45.87 Z-1.60264 I0.0 J1.0
G1 Y46.7 Z-1.60403
G3 X7.92177 Y50.45 Z-1.61391 I-3.75 J0.0
G1 X7.37573 Z-1.61483
G2 X6.25356 Y51.14934 Z-1.61716 I0.0 J1.25
G3 X0.62086 Y51.60953 Z-1.62857 I-2.95356 J-1.44934
G3 X0.56846 Y51.52456 Z-1.62873 I0.61075 J-0.4353
G3 X0.25 Y50.24 Z-1.63098 I2.43154 J-1.28456
G1 Y8.9 Z-1.70033
G3 X3.0 Y6.15 Z-1.70758 I2.75 J0.0
G1 X9.6 Z-1.71865
G2 X11.85 Y3.9 Z-1.72458 I0.0 J-2.25
G1 Y2.9 Z-1.72625
G3 X14.6 Y0.15 Z-1.7335 I2.75 J0.0
G1 X48.54 Z-1.79044
G3 X48.70463 Y0.16829 Z-1.79072 I0.0 J0.75
G3 X49.43946 Y6.16915 Z-1.80394 I-0.70463 J3.13171
G2 X48.75 Y7.28643 Z-1.80626 I0.56054 J1.11727
G1 Y8.6 Z-1.80846
G3 X46.0 Y11.35 Z-1.81571 I-2.75 J0.0
G1 X44.95 Z-1.81747
G3 X43.95 Y10.35 Z-1.8201 I0.0 J-1.0
G1 Y9.95 Z-1.82078
G3 X44.95 Y8.95 Z-1.82341 I1.0 J0.0
G1 X46.02 Z-1.82521
G2 Y8.75 Z-1.82573 I0.0 J-0.1
G1 X44.95 Z-1.82753
G3 X43.95 Y7.75 Z-1.83016 I0.0 J-1.0
G1 Y6.6 Z-1.83209
G3 X44.28082 Y5.97807 Z-1.83332 I0.75 J0.0
G2 X44.8322 Y4.94153 Z-1.83537 I-0.69863 J-1.03654
G1 Y3.9 Z-1.83712
G2 X43.5822 Y2.65 Z-1.84041 I-1.25 J0.0
G1 X15.6 Z-1.88736
G2 X14.35 Y3.9 Z-1.89065 I0.0 J1.25
G1 Y4.6106 Z-1.89184
G3 X10.4 Y8.85 Z-1.90254 I-4.25 J0.0
G1 X11.12919 Z-1.90376
G3 X12.12919 Y9.85 Z-1.9064 I0.0 J1.0
G1 Y9.86709 Z-1.90643
G3 X10.27618 Y12.46669 Z-1.91214 I-2.75 J0.0
G3 X8.95 Y11.52138 Z-1.91533 I-0.32618 J-0.94531
G1 Y11.1 Z-1.91604
G2 X8.75 Z-1.91657 I-0.1 J0.0
G1 Y12.15 Z-1.91833
G3 X7.75 Y13.15 Z-1.92096 I-1.0 J0.0
G1 X7.1 Z-1.92205
G3 X6.56439 Y12.925 Z-1.92305 I0.0 J-0.75
G2 X5.67171 Y12.55 Z-1.92472 I-0.89268 J0.875
G1 X4.15 Z-1.92728
G2 X2.9 Y13.8 Z-1.93057 I0.0 J1.25
G1 Y44.37401 Z-1.98186
G2 X3.44002 Y44.87241 Z-1.98324 I0.5 J0.0
G3 X3.50006 Y44.87 Z-1.98335 I0.06004 J0.74759
G1 X7.75 Z-1.99048
G3 X8.75 Y45.87 Z-1.99311 I0.0 J1.0
G1 Y46.62 Z-1.99437
G2 X8.95 Z-1.9949 I0.1 J0.0
G1 Y45.87 Z-1.99615
G3 X9.95 Y44.87 Z-1.99879 I1.0 J0.0
G1 X10.67177 Z-2.0
G3 X11.67177 Y45.87 Z-2.00264 I0.0 J1.0
G1 Y46.7 Z-2.00403
G3 X7.92177 Y50.45 Z-2.01391 I-3.75 J0.0
G1 X7.37573 Z-2.01483
G2 X6.25356 Y51.14934 Z-2.01716 I0.0 J1.25
G3 X0.62086 Y51.60953 Z-2.02857 I-2.95356 J-1.44934
G3 X0.56846 Y51.52456 Z-2.02873 I0.61075 J-0.4353
G3 X0.25 Y50.24 Z-2.03098 I2.43154 J-1.28456
G1 Y8.9 Z-2.10033
G3 X3.0 Y6.15 Z-2.10758 I2.75 J0.0
G1 X9.6 Z-2.11865
G2 X11.85 Y3.9 Z-2.12458 I0.0 J-2.25
G1 Y2.9 Z-2.12625
G3 X14.6 Y0.15 Z-2.1335 I2.75 J0.0
G1 X48.54 Z-2.19044
G3 X48.70463 Y0.16829 Z-2.19072 I0.0 J0.75
G3 X49.43946 Y6.16915 Z-2.20394 I-0.70463 J3.13171
G2 X48.75 Y7.28643 Z-2.20626 I0.56054 J1.11727
G1 Y8.6 Z-2.20846
G3 X46.0 Y11.35 Z-2.21571 I-2.75 J0.0
G1 X44.95 Z-2.21747
G3 X43.95 Y10.35 Z-2.2201 I0.0 J-1.0
G1 Y9.95 Z-2.22078
G3 X44.95 Y8.95 Z-2.22341 I1.0 J0.0
G1 X46.02 Z-2.22521
G2 Y8.75 Z-2.22573 I0.0 J-0.1
G1 X44.95 Z-2.22753
G3 X43.95 Y7.75 Z-2.23016 I0.0 J-1.0
G1 Y6.6 Z-2.23209
G3 X44.28082 Y5.97807 Z-2.23332 I0.75 J0.0
G2 X44.8322 Y4.94153 Z-2.23537 I-0.69863 J-1.03654
G1 Y3.9 Z-2.23712
G2 X43.5822 Y2.65 Z-2.24041 I-1.25 J0.0
G1 X15.6 Z-2.28736
G2 X14.35 Y3.9 Z-2.29065 I0.0 J1.25
G1 Y4.6106 Z-2.29184
G3 X10.4 Y8.85 Z-2.30254 I-4.25 J0.0
G1 X11.12919 Z-2.30376
G3 X12.12919 Y9.85 Z-2.3064 I0.0 J1.0
G1 Y9.86709 Z-2.30643
G3 X10.27618 Y12.46669 Z-2.31214 I-2.75 J0.0
G3 X8.95 Y11.52138 Z-2.31533 I-0.32618 J-0.94531
G1 Y11.1 Z-2.31604
G2 X8.75 Z-2.31657 I-0.1 J0.0
G1 Y12.15 Z-2.31833
G3 X7.75 Y13.15 Z-2.32096 I-1.0 J0.0
G1 X7.1 Z-2.32205
G3 X6.56439 Y12.925 Z-2.32305 I0.0 J-0.75
G2 X5.67171 Y12.55 Z-2.32472 I-0.89268 J0.875
G1 X4.15 Z-2.32728
G2 X2.9 Y13.8 Z-2.33057 I0.0 J1.25
G1 Y44.37401 Z-2.38186
G2 X3.44002 Y44.87241 Z-2.38324 I0.5 J0.0
G3 X3.50006 Y44.87 Z-2.38335 I0.06004 J0.74759
G1 X7.75 Z-2.39048
G3 X8.75 Y45.87 Z-2.39311 I0.0 J1.0
G1 Y46.62 Z-2.39437
G2 X8.95 Z-2.3949 I0.1 J0.0
G1 Y45.87 Z-2.39615
G3 X9.95 Y44.87 Z-2.39879 I1.0 J0.0
G1 X10.67177 Z-2.4
G3 X11.67177 Y45.87 Z-2.40264 I0.0 J1.0
G1 Y46.7 Z-2.40403
G3 X7.92177 Y50.45 Z-2.41391 I-3.75 J0.0
G1 X7.37573 Z-2.41483
G2 X6.25356 Y51.14934 Z-2.41716 I0.0 J1.25
G3 X0.62086 Y51.60953 Z-2.42857 I-2.95356 J-1.44934
G3 X0.56846 Y51.52456 Z-2.42873 I0.61075 J-0.4353
G3 X0.25 Y50.24 Z-2.43098 I2.43154 J-1.28456
G1 Y48.75 Z-2.43348
G1 Y47.75 Z-2.43515
G1 Y46.25 Z-2.43767
G1 Y45.25 Z-2.43935
G1 Y8.9 Z-2.50033
G3 X3.0 Y6.15 Z-2.50758 I2.75 J0.0
G1 X4.12067 Z-2.50946
G1 X5.12067 Z-2.51113
G1 X6.62067 Z-2.51365
G1 X7.62067 Z-2.51533
G1 X9.6 Z-2.51865
G2 X11.85 Y3.9 Z-2.52458 I0.0 J-2.25
G1 Y2.9 Z-2.52625
G3 X14.6 Y0.15 Z-2.5335 I2.75 J0.0
G1 X43.25 Z-2.58156
G1 X44.25 Z-2.58324
G1 X45.75 Z-2.58576
G1 X46.75 Z-2.58744
G1 X48.54 Z-2.59044
G3 X48.70463 Y0.16829 Z-2.59072 I0.0 J0.75
G3 X49.43946 Y6.16915 Z-2.60394 I-0.70463 J3.13171
G2 X48.75 Y7.28643 Z-2.60626 I0.56054 J1.11727
G1 Y8.6 Z-2.60846
G3 X46.0 Y11.35 Z-2.61571 I-2.75 J0.0
G1 X44.95 Z-2.61747
G3 X43.95 Y10.35 Z-2.6201 I0.0 J-1.0
G1 Y9.95 Z-2.62078
G3 X44.95 Y8.95 Z-2.62341 I1.0 J0.0
G1 X46.02 Z-2.62521
G2 Y8.75 Z-2.62573 I0.0 J-0.1
G1 X44.95 Z-2.62753
G3 X43.95 Y7.75 Z-2.63016 I0.0 J-1.0
G1 Y6.6 Z-2.63209
G3 X44.28082 Y5.97807 Z-2.63332 I0.75 J0.0
G2 X44.8322 Y4.94153 Z-2.63537 I-0.69863 J-1.03654
G1 Y3.9 Z-2.63712
G2 X43.5822 Y2.65 Z-2.64041 I-1.25 J0.0
G1 X15.6 Z-2.68736
G2 X14.35 Y3.9 Z-2.69065 I0.0 J1.25
G1 Y4.6106 Z-2.69184
G3 X10.4 Y8.85 Z-2.70254 I-4.25 J0.0
G1 X11.12919 Z-2.70376
G3 X12.12919 Y9.85 Z-2.7064 I0.0 J1.0
G1 Y9.86709 Z-2.70643
G3 X10.27618 Y12.46669 Z-2.71214 I-2.75 J0.0
G3 X8.95 Y11.52138 Z-2.71533 I-0.32618 J-0.94531
G1 Y11.1 Z-2.71604
G2 X8.75 Z-2.71657 I-0.1 J0.0
G1 Y12.15 Z-2.71833
G3 X7.75 Y13.15 Z-2.72096 I-1.0 J0.0
G1 X7.1 Z-2.72205
G3 X6.56439 Y12.925 Z-2.72305 I0.0 J-0.75
G2 X5.67171 Y12.55 Z-2.72472 I-0.89268 J0.875
G1 X4.15 Z-2.72728
G2 X2.9 Y13.8 Z-2.73057 I0.0 J1.25
G1 Y44.37401 Z-2.78186
G2 X3.44002 Y44.87241 Z-2.78324 I0.5 J0.0
G3 X3.50006 Y44.87 Z-2.78335 I0.06004 J0.74759
G1 X7.75 Z-2.79048
G3 X8.75 Y45.87 Z-2.79311 I0.0 J1.0
G1 Y46.62 Z-2.79437
G2 X8.95 Z-2.7949 I0.1 J0.0
G1 Y45.87 Z-2.79615
G3 X9.95 Y44.87 Z-2.79879 I1.0 J0.0
G1 X10.67177 Z-2.8
G3 X11.67177 Y45.87 Z-2.80264 I0.0 J1.0
G1 Y46.7 Z-2.80403
G3 X7.92177 Y50.45 Z-2.81391 I-3.75 J0.0
G1 X7.37573 Z-2.81483
G2 X6.25356 Y51.14934 Z-2.81716 I0.0 J1.25
G3 X0.62086 Y51.60953 Z-2.82857 I-2.95356 J-1.44934
G3 X0.56846 Y51.52456 Z-2.82873 I0.61075 J-0.4353
G3 X0.25 Y50.24 Z-2.83098 I2.43154 J-1.28456
G1 Y48.75 Z-2.83348
G1 Y47.75 Z-2.7
G1 Y46.25
G1 Y45.25 Z-2.83935
G1 Y8.9 Z-2.90033
G3 X3.0 Y6.15 Z-2.90758 I2.75 J0.0
G1 X4.12067 Z-2.90946
G1 X5.12067 Z-2.7
G1 X6.62067
G1 X7.62067 Z-2.91533
G1 X9.6 Z-2.91865
G2 X11.85 Y3.9 Z-2.92458 I0.0 J-2.25
G1 Y2.9 Z-2.92625
G3 X14.6 Y0.15 Z-2.9335 I2.75 J0.0
G1 X43.25 Z-2.98156
G1 X44.25 Z-2.7
G1 X45.75
G1 X46.75 Z-2.98744
G1 X48.54 Z-2.99044
G3 X48.70463 Y0.16829 Z-2.99072 I0.0 J0.75
G3 X49.43946 Y6.16915 Z-3.00394 I-0.70463 J3.13171
G2 X48.75 Y7.28643 Z-3.00626 I0.56054 J1.11727
G1 Y8.6 Z-3.00846
G3 X46.0 Y11.35 Z-3.01571 I-2.75 J0.0
G1 X44.95 Z-3.01747
G3 X43.95 Y10.35 Z-3.0201 I0.0 J-1.0
G1 Y9.95 Z-3.02078
G3 X44.95 Y8.95 Z-3.02341 I1.0 J0.0
G1 X46.02 Z-3.02521
G2 Y8.75 Z-3.02573 I0.0 J-0.1
G1 X44.95 Z-3.02753
G3 X43.95 Y7.75 Z-3.03016 I0.0 J-1.0
G1 Y6.6 Z-3.03209
G3 X44.28082 Y5.97807 Z-3.03332 I0.75 J0.0
G2 X44.8322 Y4.94153 Z-3.03537 I-0.69863 J-1.03654
G1 Y3.9 Z-3.03712
G2 X43.5822 Y2.65 Z-3.04041 I-1.25 J0.0
G1 X15.6 Z-3.08736
G2 X14.35 Y3.9 Z-3.09065 I0.0 J1.25
G1 Y4.6106 Z-3.09184
G3 X10.4 Y8.85 Z-3.10254 I-4.25 J0.0
G1 X11.12919 Z-3.10376
G3 X12.12919 Y9.85 Z-3.1064 I0.0 J1.0
G1 Y9.86709 Z-3.10643
G3 X10.27618 Y12.46669 Z-3.11214 I-2.75 J0.0
G3 X8.95 Y11.52138 Z-3.11533 I-0.32618 J-0.94531
G1 Y11.1 Z-3.11604
G2 X8.75 Z-3.11657 I-0.1 J0.0
G1 Y12.15 Z-3.11833
G3 X7.75 Y13.15 Z-3.12096 I-1.0 J0.0
G1 X7.1 Z-3.12205
G3 X6.56439 Y12.925 Z-3.12305 I0.0 J-0.75
G2 X5.67171 Y12.55 Z-3.12472 I-0.89268 J0.875
G1 X4.15 Z-3.12728
G2 X2.9 Y13.8 Z-3.13057 I0.0 J1.25
G1 Y44.37401 Z-3.18186
G2 X3.44002 Y44.87241 Z-3.18324 I0.5 J0.0
G3 X3.50006 Y44.87 Z-3.18335 I0.06004 J0.74759
G1 X7.75 Z-3.19048
G3 X8.75 Y45.87 Z-3.19311 I0.0 J1.0
G1 Y46.62 Z-3.19437
G2 X8.95 Z-3.1949 I0.1 J0.0
G1 Y45.87 Z-3.19615
G3 X9.95 Y44.87 Z-3.19879 I1.0 J0.0
G1 X10.67177 Z-3.2
G3 X11.67177 Y45.87 Z-3.20264 I0.0 J1.0
G1 Y46.7 Z-3.20403
G3 X7.92177 Y50.45 Z-3.21391 I-3.75 J0.0
G1 X7.37573 Z-3.21483
G2 X6.25356 Y51.14934 Z-3.21716 I0.0 J1.25
G3 X0.62086 Y51.60953 Z-3.22857 I-2.95356 J-1.44934
G3 X0.56846 Y51.52456 Z-3.22873 I0.61075 J-0.4353
G3 X0.25 Y50.24 Z-3.23098 I2.43154 J-1.28456
G1 Y48.75 Z-3.23348
G1 Y47.75 Z-2.7
G1 Y46.25
G1 Y45.25 Z-3.23935
G1 Y8.9 Z-3.30033
G3 X3.0 Y6.15 Z-3.30758 I2.75 J0.0
G1 X4.12067 Z-3.30946
G1 X5.12067 Z-2.7
G1 X6.62067
G1 X7.62067 Z-3.31533
G1 X9.6 Z-3.31865
G2 X11.85 Y3.9 Z-3.32458 I0.0 J-2.25
G1 Y2.9 Z-3.32625
G3 X14.6 Y0.15 Z-3.3335 I2.75 J0.0
G1 X43.25 Z-3.38156
G1 X44.25 Z-2.7
G1 X45.75
G1 X46.75 Z-3.38744
G1 X48.54 Z-3.39044
G3 X48.70463 Y0.16829 Z-3.39072 I0.0 J0.75
G3 X49.43946 Y6.16915 Z-3.40394 I-0.70463 J3.13171
G2 X48.75 Y7.28643 Z-3.40626 I0.56054 J1.11727
G1 Y8.6 Z-3.40846
G3 X46.0 Y11.35 Z-3.41571 I-2.75 J0.0
G1 X44.95 Z-3.41747
G3 X43.95 Y10.35 Z-3.4201 I0.0 J-1.0
G1 Y9.95 Z-3.42078
G3 X44.95 Y8.95 Z-3.42341 I1.0 J0.0
G1 X46.02 Z-3.42521
G2 Y8.75 Z-3.42573 I0.0 J-0.1
G1 X44.95 Z-3.42753
G3 X43.95 Y7.75 Z-3.43016 I0.0 J-1.0
G1 Y6.6 Z-3.43209
G3 X44.28082 Y5.97807 Z-3.43332 I0.75 J0.0
G2 X44.8322 Y4.94153 Z-3.43537 I-0.69863 J-1.03654
G1 Y3.9 Z-3.43712
G2 X43.5822 Y2.65 Z-3.44041 I-1.25 J0.0
G1 X15.6 Z-3.48736
G2 X14.35 Y3.9 Z-3.49065 I0.0 J1.25
G1 Y4.6106 Z-3.49184
G3 X10.4 Y8.85 Z-3.50254 I-4.25 J0.0
G1 X11.12919 Z-3.50376
G3 X12.12919 Y9.85 Z-3.5064 I0.0 J1.0
G1 Y9.86709 Z-3.50643
G3 X10.27618 Y12.46669 Z-3.51214 I-2.75 J0.0
G3 X8.95 Y11.52138 Z-3.51533 I-0.32618 J-0.94531
G1 Y11.1 Z-3.51604
G2 X8.75 Z-3.51657 I-0.1 J0.0
G1 Y12.15 Z-3.51833
G3 X7.75 Y13.15 Z-3.52096 I-1.0 J0.0
G1 X7.1 Z-3.52205
G3 X6.56439 Y12.925 Z-3.52305 I0.0 J-0.75
G2 X5.67171 Y12.55 Z-3.52472 I-0.89268 J0.875
G1 X4.15 Z-3.52728
G2 X2.9 Y13.8 Z-3.53057 I0.0 J1.25
G1 Y44.37401 Z-3.58186
G2 X3.44002 Y44.87241 Z-3.58324 I0.5 J0.0
G3 X3.50006 Y44.87 Z-3.58335 I0.06004 J0.74759
G1 X7.75 Z-3.59048
G3 X8.75 Y45.87 Z-3.59311 I0.0 J1.0
G1 Y46.62 Z-3.59437
G2 X8.95 Z-3.5949 I0.1 J0.0
G1 Y45.87 Z-3.59615
G3 X9.95 Y44.87 Z-3.59879 I1.0 J0.0
G1 X10.67177 Z-3.6
G3 X11.67177 Y45.87 Z-3.60264 I0.0 J1.0
G1 Y46.7 Z-3.60403
G3 X7.92177 Y50.45 Z-3.61391 I-3.75 J0.0
G1 X7.37573 Z-3.61483
G2 X6.25356 Y51.14934 Z-3.61716 I0.0 J1.25
G3 X0.62086 Y51.60953 Z-3.62857 I-2.95356 J-1.44934
G3 X0.56846 Y51.52456 Z-3.62873 I0.61075 J-0.4353
G3 X0.25 Y50.24 Z-3.63098 I2.43154 J-1.28456
G1 Y48.75 Z-3.63348
G1 Y47.75 Z-2.7
G1 Y46.25
G1 Y45.25 Z-3.63935
G1 Y8.9 Z-3.70033
G3 X3.0 Y6.15 Z-3.70758 I2.75 J0.0
G1 X4.12067 Z-3.70946
G1 X5.12067 Z-2.7
G1 X6.62067
G1 X7.62067 Z-3.71533
G1 X9.6 Z-3.71865
G2 X11.85 Y3.9 Z-3.72458 I0.0 J-2.25
G1 Y2.9 Z-3.72625
G3 X14.6 Y0.15 Z-3.7335 I2.75 J0.0
G1 X43.25 Z-3.78156
G1 X44.25 Z-2.7
G1 X45.75
G1 X46.75 Z-3.78744
G1 X48.54 Z-3.79044
G3 X48.70463 Y0.16829 Z-3.79072 I0.0 J0.75
G3 X49.43946 Y6.16915 Z-3.80394 I-0.70463 J3.13171
G2 X48.75 Y7.28643 Z-3.80626 I0.56054 J1.11727
G1 Y8.6 Z-3.80846
G3 X46.0 Y11.35 Z-3.81571 I-2.75 J0.0
G1 X44.95 Z-3.81747
G3 X43.95 Y10.35 Z-3.8201 I0.0 J-1.0
G1 Y9.95 Z-3.82078
G3 X44.95 Y8.95 Z-3.82341 I1.0 J0.0
G1 X46.02 Z-3.82521
G2 Y8.75 Z-3.82573 I0.0 J-0.1
G1 X44.95 Z-3.82753
G3 X43.95 Y7.75 Z-3.83016 I0.0 J-1.0
G1 Y6.6 Z-3.83209
G3 X44.28082 Y5.97807 Z-3.83332 I0.75 J0.0
G2 X44.8322 Y4.94153 Z-3.83537 I-0.69863 J-1.03654
G1 Y3.9 Z-3.83712
G2 X43.5822 Y2.65 Z-3.84041 I-1.25 J0.0
G1 X15.6 Z-3.88736
G2 X14.35 Y3.9 Z-3.89065 I0.0 J1.25
G1 Y4.6106 Z-3.89184
G3 X10.4 Y8.85 Z-3.90254 I-4.25 J0.0
G1 X11.12919 Z-3.90376
G3 X12.12919 Y9.85 Z-3.9064 I0.0 J1.0
G1 Y9.86709 Z-3.90643
G3 X10.27618 Y12.46669 Z-3.91214 I-2.75 J0.0
G3 X8.95 Y11.52138 Z-3.91533 I-0.32618 J-0.94531
G1 Y11.1 Z-3.91604
G2 X8.75 Z-3.91657 I-0.1 J0.0
G1 Y12.15 Z-3.91833
G3 X7.75 Y13.15 Z-3.92096 I-1.0 J0.0
G1 X7.1 Z-3.92205
G3 X6.56439 Y12.925 Z-3.92305 I0.0 J-0.75
G2 X5.67171 Y12.55 Z-3.92472 I-0.89268 J0.875
G1 X4.15 Z-3.92728
G2 X2.9 Y13.8 Z-3.93057 I0.0 J1.25
G1 Y44.37401 Z-3.98186
G2 X3.44002 Y44.87241 Z-3.98324 I0.5 J0.0
G3 X3.50006 Y44.87 Z-3.98335 I0.06004 J0.74759
G1 X7.75 Z-3.99048
G3 X8.75 Y45.87 Z-3.99311 I0.0 J1.0
G1 Y46.62 Z-3.99437
G2 X8.95 Z-3.9949 I0.1 J0.0
G1 Y45.87 Z-3.99615
G3 X9.95 Y44.87 Z-3.99879 I1.0 J0.0
G1 X10.67177 Z-4.0
G3 X11.67177 Y45.87 Z-4.00264 I0.0 J1.0
G1 Y46.7 Z-4.00403
G3 X7.92177 Y50.45 Z-4.01391 I-3.75 J0.0
G1 X7.37573 Z-4.01483
G2 X6.25356 Y51.14934 Z-4.01716 I0.0 J1.25
G3 X0.62086 Y51.60953 Z-4.02857 I-2.95356 J-1.44934
G3 X0.56846 Y51.52456 Z-4.02873 I0.61075 J-0.4353
G3 X0.25 Y50.24 Z-4.03098 I2.43154 J-1.28456
G1 Y48.75 Z-4.03348
G1 Y47.75 Z-2.7
G1 Y46.25
G1 Y45.25 Z-4.03935
G1 Y8.9 Z-4.10033
G3 X3.0 Y6.15 Z-4.10758 I2.75 J0.0
G1 X4.12067 Z-4.10946
G1 X5.12067 Z-2.7
G1 X6.62067
G1 X7.62067 Z-4.11533
G1 X9.6 Z-4.11865
G2 X11.85 Y3.9 Z-4.12458 I0.0 J-2.25
G1 Y2.9 Z-4.12625
G3 X14.6 Y0.15 Z-4.1335 I2.75 J0.0
G1 X43.25 Z-4.18156
G1 X44.25 Z-2.7
G1 X45.75
G1 X46.75 Z-4.18744
G1 X48.54 Z-4.19044
G3 X48.70463 Y0.16829 Z-4.19072 I0.0 J0.75
G3 X49.43946 Y6.16915 Z-4.20394 I-0.70463 J3.13171
G2 X48.75 Y7.28643 Z-4.20626 I0.56054 J1.11727
G1 Y8.6 Z-4.20846
G3 X46.0 Y11.35 Z-4.21571 I-2.75 J0.0
G1 X44.95 Z-4.21747
G3 X43.95 Y10.35 Z-4.2201 I0.0 J-1.0
G1 Y9.95 Z-4.22078
G3 X44.95 Y8.95 Z-4.22341 I1.0 J0.0
G1 X46.02 Z-4.22521
G2 Y8.75 Z-4.22573 I0.0 J-0.1
G1 X44.95 Z-4.22753
G3 X43.95 Y7.75 Z-4.23016 I0.0 J-1.0
G1 Y6.6 Z-4.23209
G3 X44.28082 Y5.97807 Z-4.23332 I0.75 J0.0
G2 X44.8322 Y4.94153 Z-4.23537 I-0.69863 J-1.03654
G1 Y3.9 Z-4.23712
G2 X43.5822 Y2.65 Z-4.24041 I-1.25 J0.0
G1 X15.6 Z-4.28736
G2 X14.35 Y3.9 Z-4.29065 I0.0 J1.25
G1 Y4.6106 Z-4.29184
G3 X10.4 Y8.85 Z-4.30254 I-4.25 J0.0
G1 X11.12919 Z-4.30376
G3 X12.12919 Y9.85 Z-4.3064 I0.0 J1.0
G1 Y9.86709 Z-4.30643
G3 X10.27618 Y12.46669 Z-4.31214 I-2.75 J0.0
G3 X8.95 Y11.52138 Z-4.31533 I-0.32618 J-0.94531
G1 Y11.1 Z-4.31604
G2 X8.75 Z-4.31657 I-0.1 J0.0
G1 Y12.15 Z-4.31833
G3 X7.75 Y13.15 Z-4.32096 I-1.0 J0.0
G1 X7.1 Z-4.32205
G3 X6.56439 Y12.925 Z-4.32305 I0.0 J-0.75
G2 X5.67171 Y12.55 Z-4.32472 I-0.89268 J0.875
G1 X4.15 Z-4.32728
G2 X2.9 Y13.8 Z-4.33057 I0.0 J1.25
G1 Y44.37401 Z-4.38186
G2 X3.44002 Y44.87241 Z-4.38324 I0.5 J0.0
G3 X3.50006 Y44.87 Z-4.38335 I0.06004 J0.74759
G1 X7.75 Z-4.39048
G3 X8.75 Y45.87 Z-4.39311 I0.0 J1.0
G1 Y46.62 Z-4.39437
G2 X8.95 Z-4.3949 I0.1 J0.0
G1 Y45.87 Z-4.39615
G3 X9.95 Y44.87 Z-4.39879 I1.0 J0.0
G1 X10.67177 Z-4.4
G3 X11.67177 Y45.87 Z-4.40264 I0.0 J1.0
G1 Y46.7 Z-4.40403
G3 X7.92177 Y50.45 Z-4.41391 I-3.75 J0.0
G1 X7.37573 Z-4.41483
G2 X6.25356 Y51.14934 Z-4.41716 I0.0 J1.25
G3 X0.62086 Y51.60953 Z-4.42857 I-2.95356 J-1.44934
G3 X0.56846 Y51.52456 Z-4.42873 I0.61075 J-0.4353
G3 X0.25 Y50.24 Z-4.43098 I2.43154 J-1.28456
G1 Y48.75 Z-4.43348
G1 Y47.75 Z-2.7
G1 Y46.25
G1 Y45.25 Z-4.43935
G1 Y8.9 Z-4.50033
G3 X3.0 Y6.15 Z-4.50758 I2.75 J0.0
G1 X4.12067 Z-4.50946
G1 X5.12067 Z-2.7
G1 X6.62067
G1 X7.62067 Z-4.51533
G1 X9.6 Z-4.51865
G2 X11.85 Y3.9 Z-4.52458 I0.0 J-2.25
G1 Y2.9 Z-4.52625
G3 X14.6 Y0.15 Z-4.5335 I2.75 J0.0
G1 X43.25 Z-4.58156
G1 X44.25 Z-2.7
G1 X45.75
G1 X46.75 Z-4.58744
G1 X48.54 Z-4.59044
G3 X48.70463 Y0.16829 Z-4.59072 I0.0 J0.75
G3 X49.43946 Y6.16915 Z-4.60394 I-0.70463 J3.13171
G2 X48.75 Y7.28643 Z-4.60626 I0.56054 J1.11727
G1 Y8.6 Z-4.60846
G3 X46.0 Y11.35 Z-4.61571 I-2.75 J0.0
G1 X44.95 Z-4.61747
G3 X43.95 Y10.35 Z-4.6201 I0.0 J-1.0
G1 Y9.95 Z-4.62078
G3 X44.95 Y8.95 Z-4.62341 I1.0 J0.0
G1 X46.02 Z-4.62521
G2 Y8.75 Z-4.62573 I0.0 J-0.1
G1 X44.95 Z-4.62753
G3 X43.95 Y7.75 Z-4.63016 I0.0 J-1.0
G1 Y6.6 Z-4.63209
G3 X44.28082 Y5.97807 Z-4.63332 I0.75 J0.0
G2 X44.8322 Y4.94153 Z-4.63537 I-0.69863 J-1.03654
G1 Y3.9 Z-4.63712
G2 X43.5822 Y2.65 Z-4.64041 I-1.25 J0.0
G1 X15.6 Z-4.68736
G2 X14.35 Y3.9 Z-4.69065 I0.0 J1.25
G1 Y4.6106 Z-4.69184
G3 X10.4 Y8.85 Z-4.70254 I-4.25 J0.0
G1 X11.12919 Z-4.70376
G3 X12.12919 Y9.85 Z-4.7064 I0.0 J1.0
G1 Y9.86709 Z-4.70643
G3 X10.27618 Y12.46669 Z-4.71214 I-2.75 J0.0
G3 X8.95 Y11.52138 Z-4.71533 I-0.32618 J-0.94531
G1 Y11.1 Z-4.71604
G2 X8.75 Z-4.71657 I-0.1 J0.0
G1 Y12.15 Z-4.71833
G3 X7.75 Y13.15 Z-4.72096 I-1.0 J0.0
G1 X7.1 Z-4.72205
G3 X6.56439 Y12.925 Z-4.72305 I0.0 J-0.75
G2 X5.67171 Y12.55 Z-4.72472 I-0.89268 J0.875
G1 X4.15 Z-4.72728
G2 X2.9 Y13.8 Z-4.73057 I0.0 J1.25
G1 Y44.37401 Z-4.78186
G2 X3.44002 Y44.87241 Z-4.78324 I0.5 J0.0
G3 X3.50006 Y44.87 Z-4.78335 I0.06004 J0.74759
G1 X7.75 Z-4.79048
G3 X8.75 Y45.87 Z-4.79311 I0.0 J1.0
G1 Y46.62 Z-4.79437
G2 X8.95 Z-4.7949 I0.1 J0.0
G1 Y45.87 Z-4.79615
G3 X9.95 Y44.87 Z-4.79879 I1.0 J0.0
G1 X10.67177 Z-4.8
G3 X11.67177 Y45.87 Z-4.80264 I0.0 J1.0
G1 Y46.7 Z-4.80403
G3 X7.92177 Y50.45 Z-4.81391 I-3.75 J0.0
G1 X7.37573 Z-4.81483
G2 X6.25356 Y51.14934 Z-4.81716 I0.0 J1.25
G3 X0.62086 Y51.60953 Z-4.82857 I-2.95356 J-1.44934
G3 X0.56846 Y51.52456 Z-4.82873 I0.61075 J-0.4353
G3 X0.25 Y50.24 Z-4.83098 I2.43154 J-1.28456
G1 Y48.75 Z-4.83348
G1 Y47.75 Z-2.7
G1 Y46.25
G1 Y45.25 Z-4.83935
G1 Y8.9 Z-4.90033
G3 X3.0 Y6.15 Z-4.90758 I2.75 J0.0
G1 X4.12067 Z-4.90946
G1 X5.12067 Z-2.7
G1 X6.62067
G1 X7.62067 Z-4.91533
G1 X9.6 Z-4.91865
G2 X11.85 Y3.9 Z-4.92458 I0.0 J-2.25
G1 Y2.9 Z-4.92625
G3 X14.6 Y0.15 Z-4.9335 I2.75 J0.0
G1 X43.25 Z-4.98156
G1 X44.25 Z-2.7
G1 X45.75
G1 X46.75 Z-4.98744
G1 X48.54 Z-4.99044
G3 X48.70463 Y0.16829 Z-4.99072 I0.0 J0.75
G3 X49.43946 Y6.16915 Z-5.00394 I-0.70463 J3.13171
G2 X48.75 Y7.28643 Z-5.00626 I0.56054 J1.11727
G1 Y8.6 Z-5.00846
G3 X46.0 Y11.35 Z-5.01571 I-2.75 J0.0
G1 X44.95 Z-5.01747
G3 X43.95 Y10.35 Z-5.0201 I0.0 J-1.0
G1 Y9.95 Z-5.02078
G3 X44.95 Y8.95 Z-5.02341 I1.0 J0.0
G1 X46.02 Z-5.02521
G2 Y8.75 Z-5.02573 I0.0 J-0.1
G1 X44.95 Z-5.02753
G3 X43.95 Y7.75 Z-5.03016 I0.0 J-1.0
G1 Y6.6 Z-5.03209
G3 X44.28082 Y5.97807 Z-5.03332 I0.75 J0.0
G2 X44.8322 Y4.94153 Z-5.03537 I-0.69863 J-1.03654
G1 Y3.9 Z-5.03712
G2 X43.5822 Y2.65 Z-5.04041 I-1.25 J0.0
G1 X15.6 Z-5.08736
G2 X14.35 Y3.9 Z-5.09065 I0.0 J1.25
G1 Y4.6106 Z-5.09184
G3 X10.4 Y8.85 Z-5.10254 I-4.25 J0.0
G1 X11.12919 Z-5.10376
G3 X12.12919 Y9.85 Z-5.1064 I0.0 J1.0
G1 Y9.86709 Z-5.10643
G3 X10.27618 Y12.46669 Z-5.11214 I-2.75 J0.0
G3 X8.95 Y11.52138 Z-5.11533 I-0.32618 J-0.94531
G1 Y11.1 Z-5.11604
G2 X8.75 Z-5.11657 I-0.1 J0.0
G1 Y12.15 Z-5.11833
G3 X7.75 Y13.15 Z-5.12096 I-1.0 J0.0
G1 X7.1 Z-5.12205
G3 X6.56439 Y12.925 Z-5.12305 I0.0 J-0.75
G2 X5.67171 Y12.55 Z-5.12472 I-0.89268 J0.875
G1 X4.15 Z-5.12728
G2 X2.9 Y13.8 Z-5.13057 I0.0 J1.25
G1 Y44.37401 Z-5.18186
G2 X3.44002 Y44.87241 Z-5.18324 I0.5 J0.0
G3 X3.50006 Y44.87 Z-5.18335 I0.06004 J0.74759
G1 X7.75 Z-5.19048
G3 X8.75 Y45.87 Z-5.19311 I0.0 J1.0
G1 Y46.62 Z-5.19437
G2 X8.95 Z-5.1949 I0.1 J0.0
G1 Y45.87 Z-5.19615
G3 X9.95 Y44.87 Z-5.19879 I1.0 J0.0
G1 X10.67177 Z-5.2
G3 X11.67177 Y45.87 I0.0 J1.0
G1 Y46.7
G3 X7.92177 Y50.45 I-3.75 J0.0
G1 X7.37573
G2 X6.25356 Y51.14934 I0.0 J1.25
G3 X0.62086 Y51.60953 I-2.95356 J-1.44934
G3 X0.56846 Y51.52456 I0.61075 J-0.4353
G3 X0.25 Y50.24 I2.43154 J-1.28456
G1 Y48.75
G1 Y47.75 Z-2.7
G1 Y46.25
G1 Y45.25 Z-5.2
G1 Y8.9
G3 X3.0 Y6.15 I2.75 J0.0
G1 X4.12067
G1 X5.12067 Z-2.7
G1 X6.62067
G1 X7.62067 Z-5.2
G1 X9.6
G2 X11.85 Y3.9 I0.0 J-2.25
G1 Y2.9
G3 X14.6 Y0.15 I2.75 J0.0
G1 X43.25
G1 X44.25 Z-2.7
G1 X45.75
G1 X46.75 Z-5.2
G1 X48.54
G3 X48.70463 Y0.16829 I0.0 J0.75
G3 X49.43946 Y6.16915 I-0.70463 J3.13171
G2 X48.75 Y7.28643 I0.56054 J1.11727
G1 Y8.6
G3 X46.0 Y11.35 I-2.75 J0.0
G1 X44.95
G3 X43.95 Y10.35 I0.0 J-1.0
G1 Y9.95
G3 X44.95 Y8.95 I1.0 J0.0
G1 X46.02
G2 Y8.75 I0.0 J-0.1
G1 X44.95
G3 X43.95 Y7.75 I0.0 J-1.0
G1 Y6.6
G3 X44.28082 Y5.97807 I0.75 J0.0
G2 X44.8322 Y4.94153 I-0.69863 J-1.03654
G1 Y3.9
G2 X43.5822 Y2.65 I-1.25 J0.0
G1 X15.6
G2 X14.35 Y3.9 I0.0 J1.25
G1 Y4.6106
G3 X10.4 Y8.85 I-4.25 J0.0
G1 X11.12919
G3 X12.12919 Y9.85 I0.0 J1.0
G1 Y9.86709
G3 X10.27618 Y12.46669 I-2.75 J0.0
G3 X8.95 Y11.52138 I-0.32618 J-0.94531
G1 Y11.1
G2 X8.75 I-0.1 J0.0
G1 Y12.15
G3 X7.75 Y13.15 I-1.0 J0.0
G1 X7.1
G3 X6.56439 Y12.925 I0.0 J-0.75
G2 X5.67171 Y12.55 I-0.89268 J0.875
G1 X4.15
G2 X2.9 Y13.8 I0.0 J1.25
G1 Y44.37401
G2 X3.44002 Y44.87241 I0.5 J0.0
G3 X3.50006 Y44.87 I0.06004 J0.74759
G1 X7.75
G3 X8.75 Y45.87 I0.0 J1.0
G1 Y46.62
G2 X8.95 I0.1 J0.0
G1 Y45.87
G3 X9.95 Y44.87 I1.0 J0.0
G1 X10.67177
G0 Z3.0
M5
M30
